;FLAVOR:Marlin
;TIME:12486
;Filament used: 6.6878m
;Layer height: 0.2
;MINX:9.946
;MINY:11.852
;MINZ:0.2
;MAXX:215.049
;MAXY:214.919
;MAXZ:2
;Generated with Cura_SteamEngine 4.12.0
M140 S60
M105
M190 S60
M104 S200
M105
M109 S200
M82 ;absolute extrusion mode
; Ender 3 Custom Start G-code
G92 E0 ; Reset Extruder
G28 ; Home all axes
G29 ; BLTOUCH
G1 Z2.0 F3000 ; Move Z Axis up little to prevent scratching of Heat Bed
G1 X0.1 Y20 Z0.3 F5000.0 ; Move to start position
G1 X0.1 Y200.0 Z0.3 F1500.0 E15 ; Draw the first line
G1 X0.4 Y200.0 Z0.3 F5000.0 ; Move to side a little
G1 X0.4 Y20 Z0.3 F1500.0 E30 ; Draw the second line
G92 E0 ; Reset Extruder
G1 Z2.0 F3000 ; Move Z Axis up little to prevent scratching of Heat Bed
G1 X5 Y20 Z0.3 F5000.0 ; Move over to prevent blob squish
G92 E0
G92 E0
G1 F1500 E-6.5
;LAYER_COUNT:10
;LAYER:0
M107
G0 F6000 X13.328 Y20.324 Z0.2
;TYPE:SKIRT
G1 F1500 E0
G1 F1200 X13.993 Y19.899 E0.02625
G1 X14.698 Y19.542 E0.05253
G1 X15.435 Y19.259 E0.07879
G1 X16.197 Y19.052 E0.10505
G1 X16.976 Y18.923 E0.13132
G1 X17.859 Y18.873 E0.16073
G1 X58.767 Y18.873 E1.52134
G1 X58.77 Y18.832 E1.5227
G1 X58.906 Y18.054 E1.54897
G1 X59.119 Y17.294 E1.57522
G1 X59.409 Y16.559 E1.6015
G1 X59.771 Y15.858 E1.62775
G1 X60.202 Y15.196 E1.65402
G1 X60.759 Y14.515 E1.68328
G1 X60.878 Y14.385 E1.68914
G1 X61.44 Y13.831 E1.71539
G1 X62.055 Y13.336 E1.74165
G1 X62.717 Y12.905 E1.76792
G1 X63.419 Y12.544 E1.79418
G1 X64.154 Y12.256 E1.82043
G1 X64.915 Y12.043 E1.84672
G1 X65.693 Y11.909 E1.87297
G1 X66.631 Y11.852 E1.90423
G1 X67.223 Y11.852 E1.92392
G1 X68.012 Y11.892 E1.95019
G1 X68.26 Y11.93 E1.95854
G1 X68.428 Y11.902 E1.9642
G1 X69.308 Y11.852 E1.99352
G1 X71.942 Y11.852 E2.08113
G1 X72.731 Y11.892 E2.1074
G1 X72.889 Y11.916 E2.11272
G1 X73.856 Y11.852 E2.14495
G1 X83.581 Y11.852 E2.46841
G1 X84.37 Y11.892 E2.49468
G1 X84.428 Y11.901 E2.49663
G1 X85.264 Y11.852 E2.52449
G1 X88.787 Y11.852 E2.64166
G1 X89.526 Y11.889 E2.66627
G1 X89.55 Y11.886 E2.66708
G1 X90.275 Y11.852 E2.69122
G1 X92.637 Y11.852 E2.76978
G1 X93.426 Y11.892 E2.79605
G1 X94.206 Y12.011 E2.8223
G1 X94.971 Y12.209 E2.84858
G1 X95.711 Y12.483 E2.87483
G1 X96.42 Y12.831 E2.90109
G1 X97.091 Y13.249 E2.92739
G1 X97.835 Y13.836 E2.95891
G1 X97.948 Y13.937 E2.96395
G1 X98.509 Y14.493 E2.99022
G1 X99.012 Y15.102 E3.01649
G1 X99.45 Y15.759 E3.04275
G1 X99.819 Y16.457 E3.06901
G1 X100.116 Y17.189 E3.09529
G1 X100.338 Y17.947 E3.12156
G1 X100.495 Y18.842 E3.15178
G1 X165.931 Y18.84 E5.32819
G1 X187.17 Y18.851 E6.0346
G1 X200.904 Y18.864 E6.4914
G1 X207.15 Y18.873 E6.69914
G1 X207.939 Y18.914 E6.72542
G1 X208.719 Y19.035 E6.75167
G1 X209.483 Y19.234 E6.77793
G1 X210.224 Y19.509 E6.80422
G1 X210.932 Y19.857 E6.83046
G1 X211.602 Y20.276 E6.85674
G1 X212.226 Y20.76 E6.88301
G1 X212.798 Y21.305 E6.90928
G1 X213.311 Y21.904 E6.93551
G1 X213.8 Y22.614 E6.96419
G1 X213.917 Y22.806 E6.97167
G1 X214.293 Y23.5 E6.99792
G1 X214.597 Y24.229 E7.02419
G1 X214.826 Y24.985 E7.05046
G1 X214.977 Y25.76 E7.07672
G1 X215.049 Y26.546 E7.10297
G1 X215.042 Y27.336 E7.12925
G1 X214.954 Y28.121 E7.15552
G1 X214.788 Y28.893 E7.18179
G1 X214.544 Y29.644 E7.20805
G1 X214.162 Y30.491 E7.23896
G1 X119.527 Y210.745 E14.01026
G1 X119.125 Y211.424 E14.0365
G1 X118.656 Y212.06 E14.06278
G1 X118.126 Y212.645 E14.08904
G1 X117.539 Y213.173 E14.1153
G1 X116.902 Y213.639 E14.14155
G1 X116.22 Y214.039 E14.16785
G1 X115.502 Y214.367 E14.1941
G1 X114.755 Y214.622 E14.22035
G1 X113.985 Y214.799 E14.24663
G1 X113.202 Y214.897 E14.27288
G1 X112.621 Y214.919 E14.29222
G1 X112.379 Y214.919 E14.30026
G1 X111.59 Y214.879 E14.32654
G1 X110.81 Y214.76 E14.35278
G1 X110.045 Y214.562 E14.37907
G1 X109.305 Y214.288 E14.40531
G1 X108.596 Y213.94 E14.43158
G1 X107.925 Y213.522 E14.45787
G1 X107.301 Y213.039 E14.48412
G1 X106.728 Y212.496 E14.51038
G1 X106.213 Y211.897 E14.53665
G1 X105.762 Y211.249 E14.56291
G1 X105.481 Y210.76 E14.58167
G1 X97.721 Y196.057 E15.13462
G1 X86.386 Y174.569 E15.94266
G1 X75.638 Y154.173 E16.70946
G1 X68.798 Y141.18 E17.19783
G1 X59.025 Y122.602 E17.89602
G1 X49.837 Y105.114 E18.55306
G1 X41.235 Y88.717 E19.16892
G1 X35.825 Y78.392 E19.55662
G1 X30.675 Y68.55 E19.92607
G1 X23.438 Y54.697 E20.44591
G1 X18.938 Y46.068 E20.76959
G1 X14.698 Y37.923 E21.075
G1 X10.821 Y30.46 E21.35472
G1 X10.493 Y29.742 E21.38097
G1 X10.239 Y28.994 E21.40725
G1 X10.062 Y28.224 E21.43353
G1 X9.964 Y27.441 E21.45977
G1 X9.946 Y26.651 E21.48605
G1 X10.007 Y25.864 E21.51231
G1 X10.148 Y25.087 E21.53857
G1 X10.367 Y24.328 E21.56485
G1 X10.661 Y23.595 E21.59112
G1 X11.076 Y22.815 E21.6205
G1 X11.192 Y22.624 E21.62793
G1 X11.636 Y21.971 E21.6542
G1 X12.143 Y21.366 E21.68045
G1 X12.709 Y20.815 E21.70672
G1 X13.328 Y20.324 E21.733
G0 F6000 X13.625 Y20.604
G1 F1200 X14.278 Y20.197 E21.7586
G1 X14.97 Y19.86 E21.7842
G1 X15.693 Y19.597 E21.80978
G1 X16.439 Y19.411 E21.83536
G1 X17.2 Y19.302 E21.86092
G1 X17.859 Y19.273 E21.88286
G1 X59.139 Y19.273 E23.25584
G1 X59.172 Y18.841 E23.27025
G1 X59.309 Y18.084 E23.29584
G1 X59.524 Y17.346 E23.32141
G1 X59.815 Y16.634 E23.34699
G1 X60.178 Y15.956 E23.37257
G1 X60.609 Y15.319 E23.39815
G1 X61.054 Y14.785 E23.42127
G1 X61.173 Y14.655 E23.42713
G1 X61.721 Y14.116 E23.4527
G1 X62.322 Y13.636 E23.47828
G1 X62.97 Y13.221 E23.50387
G1 X63.657 Y12.876 E23.52944
G1 X64.376 Y12.604 E23.55501
G1 X65.12 Y12.408 E23.5806
G1 X65.88 Y12.29 E23.60618
G1 X66.631 Y12.252 E23.63119
G1 X67.223 Y12.252 E23.65088
G1 X67.991 Y12.292 E23.67646
G1 X68.269 Y12.336 E23.68582
G1 X68.612 Y12.285 E23.69735
G1 X69.308 Y12.252 E23.72053
G1 X71.942 Y12.252 E23.80814
G1 X72.71 Y12.292 E23.83371
G1 X73.022 Y12.299 E23.84409
G1 X73.856 Y12.252 E23.87188
G1 X83.581 Y12.252 E24.19533
G1 X84.349 Y12.292 E24.22091
G1 X84.541 Y12.287 E24.2273
G1 X85.264 Y12.252 E24.25137
G1 X88.787 Y12.252 E24.36855
G1 X89.562 Y12.293 E24.39436
G1 X89.727 Y12.272 E24.39989
G1 X90.275 Y12.252 E24.41813
G1 X92.637 Y12.252 E24.49669
G1 X93.405 Y12.292 E24.52227
G1 X94.165 Y12.411 E24.54786
G1 X94.908 Y12.609 E24.57343
G1 X95.627 Y12.883 E24.59902
G1 X96.313 Y13.23 E24.62459
G1 X96.96 Y13.646 E24.65018
G1 X97.568 Y14.135 E24.67613
G1 X97.681 Y14.236 E24.68117
G1 X98.227 Y14.777 E24.70673
G1 X98.714 Y15.373 E24.73233
G1 X99.137 Y16.016 E24.75793
G1 X99.49 Y16.699 E24.7835
G1 X99.771 Y17.415 E24.80908
G1 X99.976 Y18.156 E24.83466
G1 X100.101 Y18.904 E24.85988
G1 X100.14 Y19.242 E24.8712
G1 X165.931 Y19.24 E27.05941
G1 X187.17 Y19.251 E27.76583
G1 X200.904 Y19.264 E28.22262
G1 X207.15 Y19.273 E28.43036
G1 X207.918 Y19.314 E28.45594
G1 X208.677 Y19.435 E28.48151
G1 X209.42 Y19.633 E28.50708
G1 X210.139 Y19.908 E28.53269
G1 X210.825 Y20.256 E28.55827
G1 X211.471 Y20.673 E28.58384
G1 X212.07 Y21.155 E28.60942
G1 X212.616 Y21.697 E28.635
G1 X213.103 Y22.293 E28.6606
G1 X213.458 Y22.822 E28.68179
G1 X213.575 Y23.014 E28.68927
G1 X213.941 Y23.691 E28.71487
G1 X214.234 Y24.402 E28.74044
G1 X214.452 Y25.14 E28.76604
G1 X214.592 Y25.896 E28.79161
G1 X214.653 Y26.663 E28.8172
G1 X214.634 Y27.432 E28.84279
G1 X214.536 Y28.194 E28.86834
G1 X214.358 Y28.943 E28.89395
G1 X214.104 Y29.669 E28.91953
G1 X213.808 Y30.305 E28.94286
G1 X119.173 Y210.559 E35.71416
G1 X118.78 Y211.22 E35.73974
G1 X118.321 Y211.838 E35.76534
G1 X117.801 Y212.404 E35.79091
G1 X117.224 Y212.913 E35.8165
G1 X116.598 Y213.359 E35.84206
G1 X115.929 Y213.739 E35.86765
G1 X115.224 Y214.046 E35.89323
G1 X114.491 Y214.279 E35.91881
G1 X113.738 Y214.434 E35.94438
G1 X112.621 Y214.519 E35.98164
G1 X112.379 Y214.519 E35.98969
G1 X111.611 Y214.479 E36.01526
G1 X110.851 Y214.36 E36.04085
G1 X110.108 Y214.162 E36.06642
G1 X109.389 Y213.888 E36.09202
G1 X108.703 Y213.541 E36.11759
G1 X108.056 Y213.125 E36.14317
G1 X107.456 Y212.644 E36.16875
G1 X106.909 Y212.103 E36.19434
G1 X106.421 Y211.508 E36.21993
G1 X105.835 Y210.573 E36.25663
G1 X98.075 Y195.871 E36.80956
G1 X86.74 Y174.383 E37.61759
G1 X75.992 Y153.986 E38.38442
G1 X69.152 Y140.994 E38.87276
G1 X59.379 Y122.416 E39.57095
G1 X50.191 Y104.928 E40.228
G1 X41.589 Y88.531 E40.84385
G1 X36.18 Y78.206 E41.23154
G1 X31.029 Y68.365 E41.60097
G1 X23.792 Y54.513 E42.12078
G1 X19.293 Y45.884 E42.44445
G1 X15.053 Y37.738 E42.74989
G1 X11.176 Y30.275 E43.02961
G1 X10.858 Y29.575 E43.05518
G1 X10.613 Y28.846 E43.08076
G1 X10.446 Y28.095 E43.10635
G1 X10.358 Y27.331 E43.13193
G1 X10.349 Y26.562 E43.15751
G1 X10.42 Y25.796 E43.18309
G1 X10.571 Y25.042 E43.20867
G1 X10.799 Y24.307 E43.23426
G1 X11.102 Y23.6 E43.25985
G1 X11.418 Y23.023 E43.28173
G1 X11.534 Y22.832 E43.28916
G1 X11.967 Y22.196 E43.31475
G1 X12.464 Y21.609 E43.34033
G1 X13.018 Y21.076 E43.3659
G1 X13.625 Y20.604 E43.39148
G0 F6000 X13.922 Y20.885
G1 F1200 X14.562 Y20.498 E43.41635
G1 X15.24 Y20.181 E43.44125
G1 X15.948 Y19.939 E43.46613
G1 X16.677 Y19.774 E43.49099
G1 X17.42 Y19.687 E43.51587
G1 X17.859 Y19.673 E43.53048
G1 X59.516 Y19.673 E44.916
G1 X59.514 Y19.597 E44.91853
G1 X59.574 Y18.851 E44.94342
G1 X59.713 Y18.116 E44.9683
G1 X59.93 Y17.4 E44.99318
G1 X60.221 Y16.711 E45.01806
G1 X60.585 Y16.058 E45.04292
G1 X61.016 Y15.447 E45.06779
G1 X61.349 Y15.056 E45.08488
G1 X61.468 Y14.926 E45.09074
G1 X62.001 Y14.402 E45.1156
G1 X62.588 Y13.937 E45.14051
G1 X63.221 Y13.539 E45.16537
G1 X63.893 Y13.21 E45.19026
G1 X64.596 Y12.954 E45.21514
G1 X65.322 Y12.775 E45.24001
G1 X66.064 Y12.675 E45.26492
G1 X66.631 Y12.652 E45.28379
G1 X67.223 Y12.652 E45.30348
G1 X67.97 Y12.692 E45.32836
G1 X68.262 Y12.739 E45.3382
G1 X68.793 Y12.671 E45.356
G1 X69.308 Y12.652 E45.37314
G1 X71.942 Y12.652 E45.46075
G1 X72.689 Y12.692 E45.48563
G1 X72.905 Y12.727 E45.49291
G1 X73.21 Y12.682 E45.50316
G1 X73.856 Y12.652 E45.52467
G1 X83.581 Y12.652 E45.84813
G1 X84.328 Y12.692 E45.87301
G1 X84.44 Y12.71 E45.87678
G1 X84.724 Y12.673 E45.88631
G1 X85.264 Y12.652 E45.90428
G1 X88.787 Y12.652 E46.02146
G1 X89.534 Y12.692 E46.04634
G1 X89.569 Y12.698 E46.04752
G1 X89.9 Y12.662 E46.05859
G1 X90.275 Y12.652 E46.07107
G1 X92.637 Y12.652 E46.14963
G1 X93.384 Y12.692 E46.17451
G1 X94.122 Y12.811 E46.19937
G1 X94.844 Y13.009 E46.22428
G1 X95.54 Y13.282 E46.24914
G1 X96.203 Y13.629 E46.27403
G1 X96.826 Y14.044 E46.29893
G1 X97.302 Y14.433 E46.31937
G1 X97.415 Y14.534 E46.32441
G1 X97.945 Y15.062 E46.3493
G1 X98.416 Y15.643 E46.37417
G1 X98.822 Y16.271 E46.39905
G1 X99.159 Y16.939 E46.42393
G1 X99.423 Y17.639 E46.44881
G1 X99.611 Y18.363 E46.47369
G1 X99.704 Y18.95 E46.49346
G1 X99.784 Y19.642 E46.51663
G1 X165.931 Y19.64 E48.71669
G1 X187.17 Y19.651 E49.4231
G1 X200.903 Y19.664 E49.87986
G1 X207.149 Y19.673 E50.0876
G1 X207.896 Y19.714 E50.11249
G1 X208.634 Y19.835 E50.13736
G1 X209.356 Y20.033 E50.16226
G1 X210.051 Y20.308 E50.18712
G1 X210.714 Y20.655 E50.21201
G1 X211.336 Y21.071 E50.2369
G1 X211.91 Y21.551 E50.26179
G1 X212.429 Y22.089 E50.28665
G1 X212.888 Y22.68 E50.31154
G1 X213.117 Y23.03 E50.32545
G1 X213.234 Y23.222 E50.33293
G1 X213.588 Y23.881 E50.35781
G1 X213.87 Y24.574 E50.38269
G1 X214.077 Y25.293 E50.40758
G1 X214.206 Y26.03 E50.43246
G1 X214.255 Y26.776 E50.45733
G1 X214.225 Y27.524 E50.48223
G1 X214.115 Y28.263 E50.50708
G1 X213.926 Y28.987 E50.53196
G1 X213.662 Y29.687 E50.55685
G1 X213.454 Y30.119 E50.57279
G1 X118.819 Y210.373 E57.34409
G1 X118.436 Y211.016 E57.36899
G1 X117.987 Y211.614 E57.39386
G1 X117.477 Y212.161 E57.41873
G1 X116.911 Y212.65 E57.44361
G1 X116.296 Y213.077 E57.46851
G1 X115.64 Y213.435 E57.49337
G1 X114.948 Y213.721 E57.51827
G1 X114.231 Y213.931 E57.54312
G1 X113.494 Y214.064 E57.56803
G1 X112.621 Y214.119 E57.59712
G1 X112.379 Y214.119 E57.60517
G1 X111.632 Y214.079 E57.63005
G1 X110.894 Y213.96 E57.65492
G1 X110.172 Y213.762 E57.67982
G1 X109.476 Y213.489 E57.70468
G1 X108.813 Y213.142 E57.72957
G1 X108.19 Y212.727 E57.75447
G1 X107.616 Y212.248 E57.77934
G1 X107.095 Y211.711 E57.80422
G1 X106.636 Y211.121 E57.82908
G1 X106.188 Y210.386 E57.85771
G1 X98.429 Y195.684 E58.41062
G1 X87.094 Y174.196 E59.21866
G1 X76.346 Y153.8 E59.98546
G1 X69.506 Y140.808 E60.4738
G1 X59.733 Y122.23 E61.17199
G1 X50.545 Y104.742 E61.82904
G1 X41.943 Y88.346 E62.44486
G1 X36.534 Y78.021 E62.83254
G1 X31.384 Y68.179 E63.202
G1 X24.147 Y54.328 E63.72178
G1 X19.648 Y45.699 E64.04544
G1 X15.408 Y37.554 E64.35086
G1 X11.531 Y30.091 E64.63057
G1 X11.222 Y29.41 E64.65545
G1 X10.988 Y28.699 E64.68034
G1 X10.831 Y27.968 E64.70521
G1 X10.752 Y27.224 E64.73009
G1 X10.754 Y26.476 E64.75497
G1 X10.835 Y25.732 E64.77986
G1 X10.995 Y25.002 E64.80472
G1 X11.233 Y24.292 E64.82963
G1 X11.544 Y23.612 E64.8545
G1 X11.76 Y23.23 E64.86909
G1 X11.876 Y23.039 E64.87653
G1 X12.298 Y22.422 E64.90139
G1 X12.783 Y21.852 E64.92628
G1 X13.327 Y21.338 E64.95117
G1 X13.922 Y20.885 E64.97604
G0 F6000 X14.217 Y21.169
G1 F1200 X14.844 Y20.802 E65.00021
G1 X15.507 Y20.506 E65.02436
G1 X16.199 Y20.285 E65.04852
G1 X16.911 Y20.141 E65.07268
G1 X17.859 Y20.073 E65.10429
G1 X59.927 Y20.073 E66.50348
G1 X59.915 Y19.587 E66.51965
G1 X59.976 Y18.863 E66.54381
G1 X60.117 Y18.15 E66.56799
G1 X60.335 Y17.457 E66.59215
G1 X60.628 Y16.793 E66.61629
G1 X60.992 Y16.164 E66.64046
G1 X61.644 Y15.326 E66.67578
G1 X61.763 Y15.196 E66.68164
G1 X62.282 Y14.688 E66.70579
G1 X62.854 Y14.24 E66.72996
G1 X63.471 Y13.857 E66.75411
G1 X64.127 Y13.545 E66.77827
G1 X64.813 Y13.307 E66.80242
G1 X65.522 Y13.146 E66.8266
G1 X66.243 Y13.063 E66.85074
G1 X66.631 Y13.052 E66.86365
G1 X67.223 Y13.052 E66.88334
G1 X67.948 Y13.092 E66.90749
G1 X68.238 Y13.14 E66.91727
G1 X69.308 Y13.052 E66.95298
G1 X71.942 Y13.052 E67.04059
G1 X72.667 Y13.092 E67.06474
G1 X72.899 Y13.13 E67.07256
G1 X73.394 Y13.068 E67.08915
G1 X73.856 Y13.052 E67.10452
G1 X83.581 Y13.052 E67.42798
G1 X84.306 Y13.092 E67.45213
G1 X84.465 Y13.118 E67.45749
G1 X85.264 Y13.052 E67.48415
G1 X88.787 Y13.052 E67.60133
G1 X89.512 Y13.092 E67.62548
G1 X89.572 Y13.102 E67.6275
G1 X90.275 Y13.052 E67.65094
G1 X92.637 Y13.052 E67.7295
G1 X93.362 Y13.092 E67.75365
G1 X94.079 Y13.211 E67.77783
G1 X94.778 Y13.409 E67.80199
G1 X95.451 Y13.682 E67.82615
G1 X96.09 Y14.027 E67.8503
G1 X96.687 Y14.441 E67.87446
G1 X97.035 Y14.731 E67.88953
G1 X97.148 Y14.832 E67.89457
G1 X97.662 Y15.345 E67.91872
G1 X98.117 Y15.912 E67.9429
G1 X98.507 Y16.525 E67.96707
G1 X98.826 Y17.177 E67.99121
G1 X99.073 Y17.86 E68.01537
G1 X99.242 Y18.567 E68.03954
G1 X99.306 Y18.995 E68.05394
G1 X99.427 Y20.042 E68.08899
G1 X165.93 Y20.04 E70.30089
G1 X187.169 Y20.051 E71.0073
G1 X200.903 Y20.064 E71.4641
G1 X207.149 Y20.073 E71.67184
G1 X207.874 Y20.114 E71.69599
G1 X208.59 Y20.234 E71.72014
G1 X209.289 Y20.433 E71.74431
G1 X209.961 Y20.707 E71.76845
G1 X210.6 Y21.053 E71.79262
G1 X211.197 Y21.468 E71.8168
G1 X211.744 Y21.945 E71.84094
G1 X212.236 Y22.48 E71.86512
G1 X212.775 Y23.239 E71.89608
G1 X212.892 Y23.431 E71.90356
G1 X213.235 Y24.071 E71.92771
G1 X213.506 Y24.745 E71.95187
G1 X213.701 Y25.444 E71.976
G1 X213.818 Y26.161 E72.00017
G1 X213.856 Y26.887 E72.02435
G1 X213.814 Y27.612 E72.0485
G1 X213.692 Y28.328 E72.07266
G1 X213.492 Y29.026 E72.09681
G1 X213.1 Y29.933 E72.12967
G1 X118.465 Y210.187 E78.90097
G1 X118.092 Y210.811 E78.92515
G1 X117.653 Y211.389 E78.94929
G1 X117.154 Y211.916 E78.97343
G1 X116.599 Y212.386 E78.99762
G1 X115.996 Y212.791 E79.02178
G1 X115.352 Y213.127 E79.04594
G1 X114.676 Y213.391 E79.07008
G1 X113.974 Y213.579 E79.09425
G1 X113.256 Y213.688 E79.1184
G1 X112.621 Y213.719 E79.13955
G1 X112.379 Y213.719 E79.1476
G1 X111.654 Y213.679 E79.17175
G1 X110.937 Y213.56 E79.19592
G1 X110.238 Y213.362 E79.22009
G1 X109.565 Y213.089 E79.24424
G1 X108.926 Y212.744 E79.26839
G1 X108.329 Y212.33 E79.29256
G1 X107.781 Y211.854 E79.3167
G1 X107.288 Y211.32 E79.34087
G1 X106.858 Y210.735 E79.36502
G1 X106.542 Y210.2 E79.38569
G1 X98.782 Y195.497 E79.93864
G1 X87.448 Y174.01 E80.74663
G1 X76.7 Y153.614 E81.51343
G1 X69.86 Y140.622 E82.00178
G1 X60.087 Y122.044 E82.69996
G1 X50.899 Y104.556 E83.35701
G1 X42.298 Y88.16 E83.97282
G1 X36.888 Y77.835 E84.36052
G1 X31.738 Y67.994 E84.72994
G1 X24.502 Y54.143 E85.2497
G1 X20.003 Y45.514 E85.57337
G1 X15.763 Y37.37 E85.87876
G1 X11.886 Y29.907 E86.15847
