;FLAVOR:Marlin
;TIME:18675
;Filament used: 12.0379m
;Layer height: 0.2
;MINX:50.584
;MINY:38.314
;MINZ:0.2
;MAXX:186.175
;MAXY:159.987
;MAXZ:77.2
;Generated with Cura_SteamEngine 4.12.0
M140 S60
M105
M190 S60
M104 S200
M105
M109 S200
M82 ;absolute extrusion mode
; Ender 3 Custom Start G-code
G92 E0 ; Reset Extruder
G28 ; Home all axes
G29 ; BLTOUCH
G1 Z2.0 F3000 ; Move Z Axis up little to prevent scratching of Heat Bed
G1 X0.1 Y20 Z0.3 F5000.0 ; Move to start position
G1 X0.1 Y200.0 Z0.3 F1500.0 E15 ; Draw the first line
G1 X0.4 Y200.0 Z0.3 F5000.0 ; Move to side a little
G1 X0.4 Y20 Z0.3 F1500.0 E30 ; Draw the second line
G92 E0 ; Reset Extruder
G1 Z2.0 F3000 ; Move Z Axis up little to prevent scratching of Heat Bed
G1 X5 Y20 Z0.3 F5000.0 ; Move over to prevent blob squish
G92 E0
G92 E0
G1 F1500 E-6.5
;LAYER_COUNT:386
;LAYER:0
M107
G0 F6000 X53.235 Y42.151 Z0.2
;TYPE:SKIRT
G1 F1500 E0
G1 F1200 X53.876 Y41.466 E0.0312
G1 X54.573 Y40.839 E0.06238
G1 X55.32 Y40.273 E0.09356
G1 X56.114 Y39.772 E0.12478
G1 X56.947 Y39.341 E0.15598
G1 X57.813 Y38.983 E0.18714
G1 X58.708 Y38.7 E0.21837
G1 X59.622 Y38.494 E0.24953
G1 X60.552 Y38.366 E0.28075
G1 X61.387 Y38.32 E0.30857
G1 X61.672 Y38.315 E0.31805
G1 X62.375 Y38.325 E0.34143
G1 X62.569 Y38.334 E0.34789
G1 X63.503 Y38.417 E0.37908
G1 X64.427 Y38.58 E0.41028
G1 X65.333 Y38.821 E0.44147
G1 X66.216 Y39.138 E0.47267
G1 X67.068 Y39.529 E0.50385
G1 X68.083 Y40.118 E0.54288
G1 X68.961 Y40.694 E0.57781
G1 X69.578 Y41.111 E0.60257
G1 X71.714 Y42.468 E0.68674
G1 X73.867 Y43.754 E0.77015
G1 X76.053 Y44.976 E0.85345
G1 X78.297 Y46.147 E0.93764
G1 X80.537 Y47.238 E1.02051
G1 X82.863 Y48.29 E1.10541
G1 X85.173 Y49.258 E1.18872
G1 X87.554 Y50.178 E1.27362
G1 X89.87 Y50.995 E1.3553
G1 X92.293 Y51.775 E1.43996
G1 X94.709 Y52.479 E1.52366
G1 X97.135 Y53.112 E1.60705
G1 X99.606 Y53.683 E1.6914
G1 X102.076 Y54.181 E1.77521
G1 X104.561 Y54.607 E1.85906
G1 X107.02 Y54.958 E1.94168
G1 X109.537 Y55.245 E2.02594
G1 X112.041 Y55.46 E2.10953
G1 X114.575 Y55.605 E2.19395
G1 X117.055 Y55.676 E2.27647
G1 X119.579 Y55.678 E2.36041
G1 X122.11 Y55.607 E2.44463
G1 X124.623 Y55.467 E2.52834
G1 X127.136 Y55.254 E2.61222
G1 X129.624 Y54.973 E2.6955
G1 X132.122 Y54.619 E2.77941
G1 X134.608 Y54.194 E2.8633
G1 X137.049 Y53.707 E2.94609
G1 X139.501 Y53.143 E3.02977
G1 X141.962 Y52.505 E3.11433
G1 X144.377 Y51.805 E3.19796
G1 X146.798 Y51.027 E3.28254
G1 X149.154 Y50.198 E3.36561
G1 X151.436 Y49.319 E3.44694
G1 X153.848 Y48.314 E3.53385
G1 X156.109 Y47.293 E3.61637
G1 X158.372 Y46.196 E3.70001
G1 X160.621 Y45.023 E3.78438
G1 X162.816 Y43.8 E3.86795
G1 X164.98 Y42.511 E3.95172
G1 X167.089 Y41.175 E4.03476
G1 X167.91 Y40.623 E4.06766
G1 X168.698 Y40.108 E4.09897
G1 X169.504 Y39.629 E4.13016
G1 X170.348 Y39.22 E4.16135
G1 X171.224 Y38.885 E4.19255
G1 X172.126 Y38.625 E4.22377
G1 X173.046 Y38.444 E4.25495
G1 X173.978 Y38.341 E4.28614
G1 X174.52 Y38.318 E4.30419
G1 X174.744 Y38.314 E4.31164
G1 X175.126 Y38.314 E4.32434
G1 X175.363 Y38.318 E4.33223
G1 X176.299 Y38.373 E4.36341
G1 X177.227 Y38.509 E4.39461
G1 X178.14 Y38.723 E4.4258
G1 X179.032 Y39.013 E4.45699
G1 X179.895 Y39.379 E4.48817
G1 X180.725 Y39.817 E4.51938
G1 X181.514 Y40.324 E4.55058
G1 X182.256 Y40.897 E4.58176
G1 X182.948 Y41.531 E4.61297
G1 X183.583 Y42.221 E4.64416
G1 X184.157 Y42.963 E4.67536
G1 X184.665 Y43.751 E4.70655
G1 X185.105 Y44.579 E4.73773
G1 X185.472 Y45.442 E4.76892
G1 X185.765 Y46.333 E4.80012
G1 X185.98 Y47.246 E4.83132
G1 X186.118 Y48.174 E4.86252
G1 X186.175 Y49.11 E4.89371
G1 X186.153 Y50.047 E4.92489
G1 X186.05 Y50.98 E4.95611
G1 X185.894 Y51.794 E4.98367
G1 X185.683 Y52.702 E5.01468
G1 X178.012 Y83.702 E6.07684
G1 X177.417 Y86.263 E6.16429
G1 X176.915 Y88.73 E6.24802
G1 X176.49 Y91.191 E6.33109
G1 X176.128 Y93.691 E6.4151
G1 X175.838 Y96.188 E6.49871
G1 X175.62 Y98.704 E6.58271
G1 X175.471 Y101.215 E6.66637
G1 X175.394 Y103.746 E6.75059
G1 X175.382 Y105.267 E6.80118
G1 X175.381 Y148.402 E8.23586
G1 X175.371 Y149.129 E8.26004
G1 X175.318 Y150.066 E8.29126
G1 X175.186 Y150.994 E8.32243
G1 X174.975 Y151.908 E8.35363
G1 X174.686 Y152.8 E8.38482
G1 X174.323 Y153.665 E8.41602
G1 X173.888 Y154.496 E8.44721
G1 X173.383 Y155.286 E8.4784
G1 X172.813 Y156.031 E8.5096
G1 X172.182 Y156.725 E8.5408
G1 X171.493 Y157.362 E8.57201
G1 X170.753 Y157.938 E8.6032
G1 X169.967 Y158.449 E8.63438
G1 X169.14 Y158.891 E8.66557
G1 X168.278 Y159.261 E8.69677
G1 X167.388 Y159.556 E8.72795
G1 X166.476 Y159.775 E8.75915
G1 X165.549 Y159.915 E8.79033
G1 X164.681 Y159.974 E8.81926
G1 X164.361 Y159.983 E8.82991
G1 X164.052 Y159.987 E8.84019
G1 X72.947 Y159.986 E11.87035
G1 X72.249 Y159.977 E11.89357
G1 X71.313 Y159.925 E11.92475
G1 X70.384 Y159.793 E11.95596
G1 X69.47 Y159.583 E11.98715
G1 X68.577 Y159.296 E12.01835
G1 X67.712 Y158.933 E12.04955
G1 X66.881 Y158.499 E12.08073
G1 X66.09 Y157.995 E12.11193
G1 X65.345 Y157.425 E12.14313
G1 X64.651 Y156.794 E12.17432
G1 X64.014 Y156.107 E12.20548
G1 X63.437 Y155.367 E12.23669
G1 X62.925 Y154.581 E12.26789
G1 X62.482 Y153.754 E12.2991
G1 X62.111 Y152.893 E12.33028
G1 X61.815 Y152.003 E12.36148
G1 X61.596 Y151.091 E12.39267
G1 X61.455 Y150.164 E12.42386
G1 X61.395 Y149.275 E12.45349
G1 X61.386 Y148.942 E12.46457
G1 X61.382 Y148.645 E12.47445
G1 X61.382 Y105.267 E13.91721
G1 X61.345 Y102.659 E14.00396
G1 X61.238 Y100.137 E14.08792
G1 X61.061 Y97.642 E14.17111
G1 X60.813 Y95.143 E14.25464
G1 X60.495 Y92.654 E14.3381
G1 X60.101 Y90.145 E14.42257
G1 X59.642 Y87.679 E14.506
G1 X59.105 Y85.182 E14.59095
G1 X58.773 Y83.793 E14.63845
G1 X51.056 Y52.624 E15.70643
G1 X50.866 Y51.81 E15.73423
G1 X50.693 Y50.889 E15.7654
G1 X50.598 Y49.956 E15.79659
G1 X50.584 Y49.018 E15.82779
G1 X50.65 Y48.082 E15.859
G1 X50.795 Y47.156 E15.89018
G1 X51.018 Y46.245 E15.92137
G1 X51.318 Y45.356 E15.95258
G1 X51.693 Y44.496 E15.98378
G1 X52.14 Y43.672 E16.01496
G1 X52.655 Y42.888 E16.04616
G1 X53.235 Y42.151 E16.07735
G0 F6000 X53.661 Y42.272
G1 F1200 X54.302 Y41.611 E16.10798
G1 X54.998 Y41.009 E16.13859
G1 X55.744 Y40.469 E16.16922
G1 X56.534 Y39.996 E16.19984
G1 X57.362 Y39.593 E16.23047
G1 X58.222 Y39.264 E16.2611
G1 X59.107 Y39.011 E16.29171
G1 X60.01 Y38.835 E16.32231
G1 X60.926 Y38.738 E16.35295
G1 X61.394 Y38.72 E16.36852
G1 X61.679 Y38.715 E16.378
G1 X62.356 Y38.724 E16.40052
G1 X62.55 Y38.733 E16.40698
G1 X63.467 Y38.816 E16.43761
G1 X64.373 Y38.978 E16.46822
G1 X65.262 Y39.218 E16.49884
G1 X66.127 Y39.534 E16.52947
G1 X66.961 Y39.924 E16.5601
G1 X67.864 Y40.453 E16.5949
G1 X68.737 Y41.026 E16.62964
G1 X69.346 Y41.437 E16.65407
G1 X71.49 Y42.8 E16.73857
G1 X73.673 Y44.103 E16.82313
G1 X75.879 Y45.337 E16.9072
G1 X78.087 Y46.49 E16.99005
G1 X80.405 Y47.618 E17.07579
G1 X82.693 Y48.653 E17.15931
G1 X85.011 Y49.624 E17.2429
G1 X87.414 Y50.553 E17.32859
G1 X89.763 Y51.381 E17.41143
G1 X92.163 Y52.154 E17.49529
G1 X94.601 Y52.864 E17.57975
G1 X97.05 Y53.503 E17.66393
G1 X99.509 Y54.071 E17.74787
G1 X102 Y54.573 E17.83239
G1 X104.508 Y55.003 E17.91702
G1 X106.95 Y55.352 E17.99907
G1 X109.529 Y55.647 E18.0854
G1 X111.985 Y55.857 E18.16739
G1 X114.541 Y56.003 E18.25254
G1 X117.078 Y56.076 E18.33696
G1 X119.59 Y56.078 E18.42051
G1 X122.143 Y56.007 E18.50545
G1 X124.646 Y55.867 E18.58883
G1 X127.144 Y55.656 E18.67221
G1 X129.689 Y55.368 E18.7574
G1 X132.174 Y55.015 E18.84088
G1 X134.689 Y54.586 E18.92574
G1 X137.145 Y54.096 E19.00903
G1 X139.611 Y53.529 E19.09319
G1 X142.068 Y52.891 E19.17762
G1 X144.483 Y52.191 E19.26125
G1 X146.906 Y51.413 E19.3459
G1 X149.294 Y50.572 E19.4301
G1 X151.615 Y49.679 E19.51282
G1 X153.972 Y48.697 E19.59774
G1 X156.3 Y47.646 E19.6827
G1 X158.553 Y46.553 E19.76598
G1 X160.822 Y45.37 E19.85109
G1 X162.984 Y44.165 E19.93342
G1 X165.204 Y42.843 E20.01935
G1 X167.304 Y41.512 E20.10205
G1 X168.129 Y40.958 E20.1351
G1 X168.917 Y40.443 E20.16641
G1 X169.709 Y39.973 E20.19704
G1 X170.538 Y39.574 E20.22764
G1 X171.399 Y39.248 E20.25826
G1 X172.286 Y38.998 E20.28891
G1 X173.19 Y38.826 E20.31952
G1 X174.527 Y38.718 E20.36413
G1 X174.751 Y38.714 E20.37159
G1 X175.119 Y38.714 E20.38382
G1 X175.356 Y38.718 E20.39171
G1 X176.275 Y38.773 E20.42233
G1 X177.186 Y38.908 E20.45296
G1 X178.081 Y39.122 E20.48357
G1 X178.955 Y39.412 E20.51419
G1 X179.8 Y39.777 E20.54481
G1 X180.61 Y40.214 E20.57542
G1 X181.379 Y40.72 E20.60604
G1 X182.102 Y41.291 E20.63668
G1 X182.772 Y41.922 E20.66729
G1 X183.385 Y42.609 E20.69792
G1 X183.936 Y43.346 E20.72852
G1 X184.421 Y44.129 E20.75916
G1 X184.836 Y44.951 E20.78978
G1 X185.179 Y45.805 E20.82039
G1 X185.446 Y46.686 E20.85101
G1 X185.635 Y47.587 E20.88163
G1 X185.746 Y48.501 E20.91225
G1 X185.776 Y49.421 E20.94287
G1 X185.727 Y50.341 E20.97351
G1 X185.599 Y51.252 E21.00411
G1 X185.505 Y51.704 E21.01946
G1 X185.295 Y52.606 E21.05027
G1 X177.622 Y83.613 E22.11267
G1 X177.029 Y86.164 E22.19978
G1 X176.522 Y88.655 E22.28433
G1 X176.093 Y91.138 E22.36814
G1 X175.728 Y93.659 E22.45286
G1 X175.44 Y96.144 E22.53607
G1 X175.223 Y98.644 E22.61953
G1 X175.071 Y101.215 E22.70519
G1 X174.994 Y103.731 E22.78891
G1 X174.982 Y105.263 E22.83987
G1 X174.981 Y148.397 E24.27451
G1 X174.971 Y149.124 E24.29869
G1 X174.918 Y150.043 E24.32931
G1 X174.786 Y150.954 E24.35993
G1 X174.575 Y151.85 E24.39054
G1 X174.288 Y152.725 E24.42117
G1 X173.925 Y153.571 E24.45179
G1 X173.491 Y154.383 E24.48241
G1 X172.987 Y155.154 E24.51305
G1 X172.419 Y155.878 E24.54365
G1 X171.79 Y156.55 E24.57427
G1 X171.105 Y157.165 E24.60489
G1 X170.369 Y157.718 E24.63551
G1 X169.588 Y158.206 E24.66614
G1 X168.768 Y158.624 E24.69675
G1 X167.914 Y158.969 E24.72738
G1 X167.034 Y159.238 E24.75799
G1 X166.133 Y159.431 E24.78864
G1 X165.22 Y159.544 E24.81923
G1 X164.67 Y159.574 E24.83756
G1 X164.35 Y159.583 E24.8482
G1 X164.052 Y159.587 E24.85812
G1 X72.952 Y159.586 E27.88811
G1 X72.254 Y159.577 E27.91133
G1 X71.335 Y159.525 E27.94195
G1 X70.424 Y159.394 E27.97256
G1 X69.528 Y159.184 E28.00317
G1 X68.653 Y158.897 E28.03379
G1 X67.806 Y158.535 E28.06443
G1 X66.994 Y158.101 E28.09505
G1 X66.223 Y157.599 E28.12565
G1 X65.498 Y157.031 E28.15629
G1 X64.825 Y156.402 E28.18692
G1 X64.21 Y155.718 E28.21752
G1 X63.656 Y154.983 E28.24813
G1 X63.168 Y154.202 E28.27876
G1 X62.749 Y153.382 E28.30939
G1 X62.403 Y152.529 E28.34
G1 X62.133 Y151.649 E28.37062
G1 X61.94 Y150.748 E28.40127
G1 X61.826 Y149.835 E28.43187
G1 X61.795 Y149.264 E28.45089
G1 X61.786 Y148.931 E28.46197
G1 X61.782 Y148.645 E28.47148
G1 X61.782 Y105.261 E29.91444
G1 X61.745 Y102.636 E30.00176
G1 X61.638 Y100.128 E30.08525
G1 X61.46 Y97.607 E30.16931
G1 X61.209 Y95.079 E30.2538
G1 X60.889 Y92.578 E30.33766
G1 X60.502 Y90.116 E30.42056
G1 X60.033 Y87.594 E30.50588
G1 X59.494 Y85.091 E30.59103
G1 X59.141 Y83.613 E30.64157
G1 X51.41 Y52.382 E31.71167
G1 X51.256 Y51.72 E31.73428
G1 X51.086 Y50.815 E31.76491
G1 X50.996 Y49.899 E31.79552
G1 X50.985 Y48.978 E31.82616
G1 X51.055 Y48.06 E31.85678
G1 X51.204 Y47.151 E31.88741
G1 X51.431 Y46.259 E31.91803
G1 X51.735 Y45.39 E31.94865
G1 X52.113 Y44.551 E31.97925
G1 X52.562 Y43.747 E32.00988
G1 X53.079 Y42.986 E32.04048
G1 X53.661 Y42.272 E32.07112
G0 F6000 X54.087 Y42.397
G1 F1200 X54.728 Y41.762 E32.10113
G1 X55.424 Y41.185 E32.1312
G1 X56.167 Y40.673 E32.16121
G1 X56.953 Y40.228 E32.19125
G1 X57.775 Y39.854 E32.22129
G1 X58.627 Y39.555 E32.25132
G1 X59.502 Y39.332 E32.28135
G1 X60.394 Y39.187 E32.31141
G1 X61.401 Y39.12 E32.34498
G1 X61.686 Y39.115 E32.35446
G1 X62.338 Y39.124 E32.37615
G1 X62.532 Y39.133 E32.38261
G1 X63.431 Y39.215 E32.41263
G1 X64.32 Y39.376 E32.44268
G1 X65.191 Y39.615 E32.47272
G1 X66.037 Y39.93 E32.50275
G1 X66.852 Y40.318 E32.53277
G1 X67.645 Y40.788 E32.56343
G1 X68.513 Y41.357 E32.59795
G1 X69.129 Y41.773 E32.62267
G1 X71.302 Y43.154 E32.70831
G1 X73.452 Y44.438 E32.7916
G1 X75.678 Y45.682 E32.87641
G1 X77.934 Y46.86 E32.96106
G1 X80.215 Y47.971 E33.04545
G1 X82.539 Y49.022 E33.13028
G1 X84.861 Y49.995 E33.21402
G1 X87.284 Y50.931 E33.30041
G1 X89.633 Y51.76 E33.38326
G1 X92.044 Y52.536 E33.4675
G1 X94.493 Y53.25 E33.55235
G1 X96.964 Y53.894 E33.63728
G1 X99.411 Y54.459 E33.72081
G1 X101.958 Y54.973 E33.80723
G1 X104.42 Y55.395 E33.89031
G1 X106.915 Y55.751 E33.97413
G1 X109.451 Y56.041 E34.05903
G1 X111.999 Y56.259 E34.14409
G1 X114.506 Y56.403 E34.22761
G1 X117.067 Y56.476 E34.31282
G1 X119.601 Y56.478 E34.3971
G1 X122.14 Y56.407 E34.48158
G1 X124.668 Y56.265 E34.5658
G1 X127.221 Y56.05 E34.65101
G1 X129.718 Y55.767 E34.73459
G1 X132.226 Y55.412 E34.81884
G1 X134.762 Y54.979 E34.90441
G1 X137.208 Y54.491 E34.98737
G1 X139.738 Y53.909 E35.07371
G1 X142.176 Y53.277 E35.15748
G1 X144.602 Y52.573 E35.2415
G1 X147.024 Y51.796 E35.3261
G1 X149.422 Y50.951 E35.41066
G1 X151.776 Y50.045 E35.49456
G1 X154.14 Y49.059 E35.57975
G1 X156.459 Y48.013 E35.66436
G1 X158.747 Y46.903 E35.74894
G1 X160.98 Y45.739 E35.8327
G1 X163.203 Y44.5 E35.91734
G1 X165.39 Y43.198 E36.002
G1 X167.562 Y41.822 E36.08752
G1 X168.348 Y41.293 E36.11903
G1 X169.136 Y40.778 E36.15034
G1 X169.913 Y40.318 E36.18037
G1 X170.728 Y39.928 E36.21042
G1 X171.574 Y39.612 E36.24046
G1 X172.444 Y39.372 E36.27048
G1 X173.333 Y39.21 E36.30053
G1 X174.534 Y39.118 E36.34059
G1 X174.758 Y39.114 E36.34805
G1 X175.112 Y39.113 E36.35982
G1 X175.349 Y39.117 E36.3677
G1 X176.251 Y39.173 E36.39776
G1 X177.144 Y39.307 E36.4278
G1 X178.021 Y39.521 E36.45782
G1 X178.876 Y39.811 E36.48785
G1 X179.703 Y40.175 E36.5179
G1 X180.494 Y40.611 E36.54794
G1 X181.243 Y41.116 E36.57799
G1 X181.944 Y41.684 E36.608
G1 X182.593 Y42.313 E36.63806
G1 X183.183 Y42.996 E36.66808
G1 X183.711 Y43.729 E36.69812
G1 X184.172 Y44.506 E36.72817
G1 X184.562 Y45.32 E36.75819
G1 X184.878 Y46.166 E36.78823
G1 X185.119 Y47.036 E36.81825
G1 X185.282 Y47.925 E36.84832
G1 X185.365 Y48.824 E36.87834
G1 X185.369 Y49.727 E36.90838
G1 X185.292 Y50.627 E36.93842
G1 X185.115 Y51.613 E36.97174
G1 X184.906 Y52.51 E37.00237
G1 X177.232 Y83.52 E38.06488
G1 X176.641 Y86.065 E38.15178
G1 X176.124 Y88.605 E38.238
G1 X175.702 Y91.049 E38.32049
G1 X175.333 Y93.597 E38.40612
G1 X175.044 Y96.092 E38.48966
G1 X174.82 Y98.661 E38.57543
G1 X174.671 Y101.179 E38.65932
G1 X174.594 Y103.716 E38.74374
G1 X174.582 Y105.26 E38.7951
G1 X174.581 Y148.391 E40.22964
G1 X174.571 Y149.118 E40.25382
G1 X174.519 Y150.02 E40.28387
G1 X174.387 Y150.913 E40.3139
G1 X174.176 Y151.792 E40.34396
G1 X173.889 Y152.648 E40.37399
G1 X173.527 Y153.475 E40.40402
G1 X173.093 Y154.267 E40.43405
G1 X172.591 Y155.018 E40.4641
G1 X172.025 Y155.721 E40.49412
G1 X171.398 Y156.372 E40.52418
G1 X170.717 Y156.964 E40.55419
G1 X169.986 Y157.494 E40.58422
G1 X169.21 Y157.957 E40.61428
G1 X168.397 Y158.35 E40.64431
G1 X167.552 Y158.67 E40.67436
G1 X166.683 Y158.913 E40.70438
G1 X165.795 Y159.078 E40.73442
G1 X164.659 Y159.174 E40.77233
G1 X164.339 Y159.183 E40.78298
G1 X164.052 Y159.187 E40.79253
G1 X72.957 Y159.186 E43.82236
G1 X72.259 Y159.177 E43.84558
G1 X71.358 Y159.126 E43.87559
G1 X70.464 Y158.994 E43.90565
G1 X69.586 Y158.785 E43.93567
G1 X68.729 Y158.498 E43.96573
G1 X67.902 Y158.137 E43.99574
G1 X67.109 Y157.704 E44.02579
G1 X66.358 Y157.203 E44.05582
G1 X65.654 Y156.637 E44.08586
G1 X65.003 Y156.011 E44.1159
G1 X64.41 Y155.33 E44.14593
G1 X63.88 Y154.599 E44.17597
G1 X63.416 Y153.824 E44.20601
G1 X63.022 Y153.011 E44.23606
G1 X62.702 Y152.167 E44.26608
G1 X62.458 Y151.297 E44.29613
G1 X62.292 Y150.409 E44.32618
G1 X62.195 Y149.254 E44.36473
G1 X62.186 Y148.921 E44.37581
G1 X62.182 Y148.645 E44.38499
G1 X62.182 Y105.255 E45.82815
G1 X62.145 Y102.649 E45.91483
G1 X62.036 Y100.081 E46.00032
G1 X61.859 Y97.579 E46.08375
G1 X61.61 Y95.066 E46.16774
G1 X61.282 Y92.503 E46.25368
G1 X60.891 Y90.018 E46.33735
G1 X60.431 Y87.542 E46.42111
G1 X59.875 Y84.959 E46.50899
G1 X59.55 Y83.6 E46.55546
G1 X51.799 Y52.291 E47.62824
G1 X51.645 Y51.629 E47.65085
G1 X51.48 Y50.741 E47.68089
G1 X51.393 Y49.842 E47.71093
G1 X51.387 Y48.939 E47.74096
G1 X51.46 Y48.039 E47.77099
G1 X51.613 Y47.149 E47.80103
G1 X51.844 Y46.276 E47.83107
G1 X52.151 Y45.427 E47.86109
G1 X52.533 Y44.608 E47.89115
G1 X52.985 Y43.826 E47.92119
G1 X53.504 Y43.087 E47.95123
G1 X54.087 Y42.397 E47.98127
