;FLAVOR:Marlin
;TIME:4299
;Filament used: 2.99118m
;Layer height: 0.25
;MINX:68.803
;MINY:84.094
;MINZ:0.2
;MAXX:156.205
;MAXY:140.906
;MAXZ:24.95
;Generated with Cura_SteamEngine 4.12.0
M140 S60
M105
M190 S60
M104 S200
M105
M109 S200
M82 ;absolute extrusion mode
; Ender 3 Custom Start G-code
G92 E0 ; Reset Extruder
G28 ; Home all axes
G29 ; BLTOUCH
G1 Z2.0 F3000 ; Move Z Axis up little to prevent scratching of Heat Bed
G1 X0.1 Y20 Z0.3 F5000.0 ; Move to start position
G1 X0.1 Y200.0 Z0.3 F1500.0 E15 ; Draw the first line
G1 X0.4 Y200.0 Z0.3 F5000.0 ; Move to side a little
G1 X0.4 Y20 Z0.3 F1500.0 E30 ; Draw the second line
G92 E0 ; Reset Extruder
G1 Z2.0 F3000 ; Move Z Axis up little to prevent scratching of Heat Bed
G1 X5 Y20 Z0.3 F5000.0 ; Move over to prevent blob squish
G92 E0
G92 E0
G1 F1500 E-6.5
;LAYER_COUNT:103
;LAYER:0
M107
G0 F6000 X72.689 Y86.721 Z0.2
;TYPE:SKIRT
G1 F1500 E0
G1 F1200 X73.429 Y86.145 E0.03119
G1 X74.215 Y85.633 E0.06239
G1 X75.042 Y85.191 E0.09358
G1 X75.904 Y84.821 E0.12478
G1 X76.794 Y84.525 E0.15597
G1 X77.706 Y84.307 E0.18716
G1 X78.633 Y84.166 E0.21835
G1 X79.504 Y84.107 E0.24738
G1 X79.825 Y84.098 E0.25806
G1 X80.133 Y84.094 E0.26831
G1 X144.656 Y84.095 E2.41435
G1 X145.354 Y84.105 E2.43757
G1 X146.29 Y84.159 E2.46875
G1 X147.218 Y84.291 E2.49993
G1 X148.132 Y84.503 E2.53114
G1 X149.024 Y84.792 E2.56232
G1 X149.889 Y85.155 E2.59352
G1 X150.719 Y85.591 E2.62471
G1 X151.51 Y86.096 E2.65592
G1 X152.254 Y86.667 E2.68711
G1 X152.947 Y87.299 E2.71831
G1 X153.584 Y87.987 E2.74949
G1 X154.159 Y88.728 E2.78069
G1 X154.67 Y89.514 E2.81187
G1 X155.112 Y90.342 E2.84309
G1 X155.481 Y91.204 E2.87428
G1 X155.776 Y92.094 E2.90546
G1 X155.994 Y93.006 E2.93665
G1 X156.134 Y93.934 E2.96786
G1 X156.192 Y94.795 E2.99656
G1 X156.201 Y95.115 E3.00721
G1 X156.205 Y95.424 E3.01749
G1 X156.205 Y100.117 E3.17358
G1 X156.195 Y105.371 E3.34833
G1 X156.204 Y129.319 E4.14484
G1 X156.196 Y130.021 E4.16819
G1 X156.146 Y130.958 E4.1994
G1 X156.015 Y131.887 E4.23061
G1 X155.806 Y132.801 E4.26179
G1 X155.52 Y133.694 E4.29298
G1 X155.159 Y134.56 E4.32418
G1 X154.726 Y135.391 E4.35535
G1 X154.223 Y136.183 E4.38656
G1 X153.655 Y136.929 E4.41774
G1 X153.025 Y137.624 E4.44894
G1 X152.338 Y138.263 E4.48015
G1 X151.6 Y138.841 E4.51132
G1 X150.814 Y139.354 E4.54254
G1 X149.988 Y139.798 E4.57373
G1 X149.127 Y140.17 E4.60493
G1 X148.238 Y140.467 E4.6361
G1 X147.326 Y140.688 E4.66731
G1 X146.399 Y140.83 E4.69851
G1 X145.547 Y140.89 E4.72691
G1 X145.233 Y140.9 E4.73736
G1 X144.883 Y140.906 E4.74901
G1 X140.754 Y140.905 E4.88634
G1 X140.056 Y140.895 E4.90955
G1 X139.443 Y140.869 E4.92996
G1 X139.185 Y140.851 E4.93856
G1 X136.652 Y140.707 E5.02295
G1 X134.064 Y140.634 E5.10906
G1 X132.767 Y140.625 E5.1522
G1 X92.323 Y140.625 E6.49737
G1 X89.715 Y140.662 E6.58412
G1 X87.22 Y140.768 E6.66718
G1 X86.687 Y140.804 E6.68495
G1 X85.436 Y140.877 E6.72663
G1 X85.102 Y140.892 E6.73775
G1 X84.78 Y140.901 E6.74846
G1 X84.476 Y140.905 E6.75857
G1 X80.316 Y140.905 E6.89694
G1 X79.662 Y140.896 E6.91869
G1 X78.725 Y140.843 E6.94991
G1 X77.797 Y140.711 E6.98108
G1 X76.883 Y140.5 E7.01228
G1 X75.99 Y140.211 E7.0435
G1 X75.126 Y139.848 E7.07467
G1 X74.295 Y139.413 E7.10587
G1 X73.505 Y138.908 E7.13705
G1 X72.76 Y138.338 E7.16825
G1 X72.066 Y137.707 E7.19945
G1 X71.429 Y137.018 E7.23066
G1 X70.853 Y136.278 E7.26185
G1 X70.342 Y135.492 E7.29303
G1 X69.9 Y134.665 E7.32422
G1 X69.53 Y133.803 E7.35542
G1 X69.235 Y132.913 E7.3866
G1 X69.016 Y132.001 E7.4178
G1 X68.876 Y131.074 E7.44898
G1 X68.818 Y130.223 E7.47735
G1 X68.808 Y129.886 E7.48856
G1 X68.803 Y129.56 E7.49941
G1 X68.804 Y95.619 E8.62829
G1 X68.813 Y94.954 E8.65041
G1 X68.866 Y94.018 E8.68159
G1 X68.998 Y93.089 E8.7128
G1 X69.209 Y92.175 E8.744
G1 X69.497 Y91.283 E8.77517
G1 X69.86 Y90.418 E8.80638
G1 X70.295 Y89.587 E8.83757
G1 X70.799 Y88.797 E8.86874
G1 X71.369 Y88.052 E8.89994
G1 X72.001 Y87.358 E8.93116
G1 X72.689 Y86.721 E8.96234
G0 F6000 X73.077 Y86.917
G1 F1200 X73.813 Y86.364 E8.99296
G1 X74.594 Y85.876 E9.02359
G1 X75.414 Y85.458 E9.05421
G1 X76.268 Y85.113 E9.08484
G1 X77.148 Y84.843 E9.11546
G1 X78.048 Y84.651 E9.14606
G1 X78.962 Y84.537 E9.1767
G1 X79.515 Y84.507 E9.19512
G1 X79.836 Y84.498 E9.2058
G1 X80.133 Y84.494 E9.21568
G1 X144.65 Y84.495 E11.36152
G1 X145.348 Y84.505 E11.38474
G1 X146.267 Y84.558 E11.41536
G1 X147.178 Y84.691 E11.44598
G1 X148.074 Y84.902 E11.47659
G1 X148.948 Y85.19 E11.5072
G1 X149.795 Y85.553 E11.53785
G1 X150.606 Y85.988 E11.56846
G1 X151.376 Y86.492 E11.59907
G1 X152.1 Y87.061 E11.6297
G1 X152.772 Y87.691 E11.66033
G1 X153.387 Y88.376 E11.69095
G1 X153.94 Y89.112 E11.72157
G1 X154.427 Y89.893 E11.75218
G1 X154.844 Y90.714 E11.78281
G1 X155.189 Y91.568 E11.81344
G1 X155.458 Y92.448 E11.84405
G1 X155.65 Y93.349 E11.87469
G1 X155.763 Y94.262 E11.90529
G1 X155.792 Y94.806 E11.92341
G1 X155.801 Y95.126 E11.93406
G1 X155.805 Y95.424 E11.94397
G1 X155.805 Y100.116 E12.10002
G1 X155.795 Y105.37 E12.27477
G1 X155.804 Y129.315 E13.07119
G1 X155.796 Y130.017 E13.09454
G1 X155.746 Y130.936 E13.12515
G1 X155.616 Y131.847 E13.15576
G1 X155.407 Y132.744 E13.18639
G1 X155.122 Y133.619 E13.217
G1 X154.761 Y134.467 E13.24765
G1 X154.328 Y135.279 E13.27826
G1 X153.827 Y136.051 E13.30887
G1 X153.26 Y136.777 E13.33951
G1 X152.633 Y137.451 E13.37012
G1 X151.949 Y138.067 E13.40074
G1 X151.215 Y138.622 E13.43135
G1 X150.435 Y139.112 E13.46198
G1 X149.615 Y139.531 E13.49261
G1 X148.763 Y139.878 E13.52321
G1 X147.883 Y140.15 E13.55384
G1 X146.983 Y140.344 E13.58447
G1 X146.07 Y140.46 E13.61508
G1 X145.534 Y140.491 E13.63293
G1 X145.22 Y140.501 E13.64338
G1 X144.883 Y140.506 E13.65459
G1 X140.76 Y140.505 E13.79172
G1 X140.062 Y140.495 E13.81494
G1 X139.471 Y140.47 E13.83462
G1 X139.238 Y140.454 E13.84238
G1 X136.65 Y140.307 E13.9286
G1 X134.078 Y140.234 E14.01418
G1 X132.769 Y140.225 E14.05772
G1 X92.317 Y140.225 E15.40316
G1 X89.692 Y140.262 E15.49047
G1 X87.211 Y140.367 E15.57307
G1 X86.663 Y140.405 E15.59134
G1 X85.412 Y140.478 E15.63302
G1 X85.091 Y140.492 E15.6437
G1 X84.769 Y140.501 E15.65442
G1 X84.476 Y140.505 E15.66416
G1 X80.321 Y140.505 E15.80236
G1 X79.667 Y140.496 E15.82411
G1 X78.748 Y140.443 E15.85473
G1 X77.837 Y140.311 E15.88535
G1 X76.941 Y140.1 E15.91596
G1 X76.066 Y139.813 E15.94659
G1 X75.22 Y139.45 E15.97721
G1 X74.408 Y139.016 E16.00783
G1 X73.637 Y138.512 E16.03847
G1 X72.913 Y137.944 E16.06907
G1 X72.241 Y137.315 E16.09969
G1 X71.626 Y136.63 E16.13031
G1 X71.072 Y135.894 E16.16095
G1 X70.585 Y135.113 E16.19156
G1 X70.167 Y134.292 E16.2222
G1 X69.822 Y133.439 E16.2528
G1 X69.553 Y132.559 E16.28341
G1 X69.36 Y131.658 E16.31406
G1 X69.247 Y130.745 E16.34466
G1 X69.218 Y130.211 E16.36244
G1 X69.208 Y129.874 E16.37366
G1 X69.203 Y129.56 E16.3841
G1 X69.204 Y95.625 E17.51278
G1 X69.213 Y94.96 E17.5349
G1 X69.265 Y94.04 E17.56555
G1 X69.397 Y93.129 E17.59617
G1 X69.608 Y92.233 E17.62678
G1 X69.895 Y91.358 E17.65741
G1 X70.258 Y90.512 E17.68803
G1 X70.692 Y89.7 E17.71865
G1 X71.195 Y88.929 E17.74927
G1 X71.764 Y88.205 E17.7799
G1 X72.392 Y87.533 E17.81049
G1 X73.077 Y86.917 E17.84113
G0 F6000 X73.465 Y87.118
G1 F1200 X74.197 Y86.588 E17.87119
G1 X74.972 Y86.125 E17.90122
G1 X75.785 Y85.732 E17.93125
G1 X76.63 Y85.412 E17.9613
G1 X77.499 Y85.169 E17.99131
G1 X78.387 Y85.003 E18.02136
G1 X79.526 Y84.907 E18.05938
G1 X79.847 Y84.898 E18.07006
G1 X80.133 Y84.894 E18.07957
G1 X144.644 Y84.895 E20.22522
G1 X145.342 Y84.905 E20.24844
G1 X146.244 Y84.958 E20.27849
G1 X147.137 Y85.09 E20.30851
G1 X148.015 Y85.301 E20.33855
G1 X148.871 Y85.589 E20.36858
G1 X149.698 Y85.951 E20.39861
G1 X150.49 Y86.386 E20.42866
G1 X151.241 Y86.888 E20.45871
G1 X151.944 Y87.455 E20.48875
G1 X152.594 Y88.082 E20.51879
G1 X153.186 Y88.764 E20.54882
G1 X153.716 Y89.495 E20.57885
G1 X154.178 Y90.271 E20.60889
G1 X154.571 Y91.084 E20.63893
G1 X154.889 Y91.929 E20.66896
G1 X155.132 Y92.799 E20.699
G1 X155.297 Y93.687 E20.72904
G1 X155.392 Y94.817 E20.76676
G1 X155.401 Y95.137 E20.7774
G1 X155.405 Y95.424 E20.78695
G1 X155.405 Y100.115 E20.94297
G1 X155.395 Y105.369 E21.11772
G1 X155.404 Y129.31 E21.914
G1 X155.396 Y130.012 E21.93735
G1 X155.346 Y130.914 E21.9674
G1 X155.216 Y131.808 E21.99745
G1 X155.008 Y132.686 E22.02746
G1 X154.723 Y133.543 E22.0575
G1 X154.363 Y134.372 E22.08756
G1 X153.931 Y135.165 E22.11759
G1 X153.431 Y135.917 E22.14763
G1 X152.866 Y136.621 E22.17765
G1 X152.241 Y137.273 E22.20769
G1 X151.561 Y137.867 E22.23772
G1 X150.831 Y138.399 E22.26777
G1 X150.056 Y138.864 E22.29783
G1 X149.244 Y139.259 E22.32786
G1 X148.4 Y139.58 E22.35789
G1 X147.531 Y139.825 E22.38792
G1 X146.644 Y139.993 E22.41795
G1 X145.522 Y140.091 E22.45541
G1 X145.208 Y140.101 E22.46586
G1 X144.883 Y140.106 E22.47667
G1 X140.766 Y140.105 E22.6136
G1 X140.068 Y140.095 E22.63682
G1 X139.499 Y140.071 E22.65576
G1 X139.287 Y140.056 E22.66283
G1 X136.65 Y139.907 E22.75068
G1 X134.091 Y139.834 E22.83582
G1 X132.772 Y139.825 E22.87969
G1 X92.311 Y139.825 E24.22543
G1 X89.705 Y139.862 E24.31212
G1 X87.166 Y139.97 E24.39664
G1 X86.64 Y140.006 E24.41418
G1 X85.389 Y140.079 E24.45586
G1 X85.08 Y140.092 E24.46614
G1 X84.758 Y140.101 E24.47686
G1 X84.476 Y140.105 E24.48624
G1 X80.327 Y140.105 E24.62423
G1 X79.673 Y140.096 E24.64599
G1 X78.771 Y140.044 E24.67604
G1 X77.878 Y139.912 E24.70606
G1 X76.999 Y139.701 E24.73613
G1 X76.143 Y139.414 E24.76616
G1 X75.316 Y139.052 E24.79618
G1 X74.524 Y138.618 E24.82622
G1 X73.773 Y138.116 E24.85626
G1 X73.07 Y137.55 E24.88628
G1 X72.419 Y136.923 E24.91635
G1 X71.827 Y136.242 E24.94636
G1 X71.297 Y135.511 E24.97639
G1 X70.833 Y134.735 E25.00646
G1 X70.441 Y133.922 E25.03648
G1 X70.121 Y133.077 E25.06653
G1 X69.878 Y132.208 E25.09654
G1 X69.713 Y131.32 E25.12658
G1 X69.617 Y130.2 E25.16397
G1 X69.607 Y129.863 E25.17519
G1 X69.603 Y129.56 E25.18527
G1 X69.604 Y95.63 E26.31378
G1 X69.613 Y94.965 E26.3359
G1 X69.665 Y94.063 E26.36595
G1 X69.797 Y93.17 E26.39598
G1 X70.007 Y92.292 E26.426
G1 X70.294 Y91.435 E26.45606
G1 X70.656 Y90.608 E26.48609
G1 X71.089 Y89.816 E26.51611
G1 X71.591 Y89.065 E26.54615
G1 X72.158 Y88.361 E26.57622
G1 X72.784 Y87.711 E26.60623
G1 X73.465 Y87.118 E26.63627
G1 F1500 E20.13627
;MESH:MH995_SERVO_MOUNT TEST-V1 v1.stl
G0 F6000 X79.391 Y94.683
G0 X80.123 Y95.414
G0 X80.985 Y128.724
G0 X83.623 Y128.723
G0 X91.373 Y128.443
G0 X91.373 Y106.256
G0 X84.477 Y105.402
G0 X84.477 Y104.568
G0 X140.533 Y104.568
G0 X141.205 Y128.906
;TYPE:WALL-INNER
G1 F1500 E26.63627
G1 F1200 X141.205 Y103.896 E27.4681
G1 X83.805 Y103.896 E29.37724
G1 X83.805 Y106.074 E29.44968
G1 X91.555 Y106.074 E29.70744
G1 X91.555 Y128.625 E30.45749
G1 X83.805 Y128.625 E30.71526
G1 X83.805 Y128.905 E30.72457
G1 X80.803 Y128.906 E30.82442
G1 X80.803 Y96.094 E31.91575
G1 X144.205 Y96.094 E34.02451
G1 X144.205 Y100.096 E34.15762
G1 X144.195 Y105.11 E34.32438
G1 X144.205 Y128.906 E35.11584
G1 X141.205 Y128.906 E35.21562
G0 F6000 X140.805 Y129.306
G1 F1200 X140.805 Y104.296 E36.04746
G1 X84.205 Y104.296 E37.92998
G1 X84.205 Y105.674 E37.97581
G1 X139.601 Y105.675 E39.81829
G1 X139.601 Y110.596 E39.98196
G1 X139.601 Y111.002 E39.99547
G1 X139.558 Y110.933
G1 X139.221 Y110.596 E40.00559
G1 X138.84 Y110.331 E40.02102
G1 X138.156 Y110.057 E40.04553
G1 X138.074 Y110.065 E40.04827
G1 X137.55 Y109.989 E40.06588
G1 X136.876 Y110.088 E40.08854
G1 X136.263 Y110.335 E40.11052
G1 X135.868 Y110.61 E40.12653
G1 X135.428 Y111.103 E40.14851
G1 X135.102 Y111.71 E40.17142
G1 X134.945 Y112.585 E40.20099
G1 X135.049 Y113.288 E40.22463
G1 X135.414 Y114.068 E40.25327
G1 X135.869 Y114.579 E40.27603
G1 X135.976 Y114.651 E40.28032
G1 X136.848 Y115.097 E40.31289
G1 X137.554 Y115.2 E40.33662
G1 X138.228 Y115.104 E40.35927
G1 X138.857 Y114.85 E40.38183
G1 X139.407 Y114.416 E40.40513
G1 X139.601 Y114.14 E40.41635
G1 X139.601 Y121.502 E40.66121
G1 X139.549 Y121.418 E40.6645
G1 X139.04 Y120.965 E40.68716
G1 X138.414 Y120.629 E40.71079
G1 X137.304 Y120.532 E40.74785
G1 X137.154 Y120.509 E40.7529
G1 X136.454 Y120.742 E40.77744
G1 X135.879 Y121.098 E40.79993
G1 X135.428 Y121.606 E40.82253
G1 X135.102 Y122.209 E40.84532
G1 X134.949 Y123.063 E40.87418
G1 X134.991 Y123.548 E40.89037
G1 X135.112 Y123.998 E40.90587
G1 X135.428 Y124.583 E40.92799
G1 X135.873 Y125.082 E40.95022
G1 X136.268 Y125.357 E40.96623
G1 X136.952 Y125.631 E40.99074
G1 X137.034 Y125.623 E40.99348
G1 X137.56 Y125.699 E41.01116
G1 X138.231 Y125.6 E41.03371
G1 X138.864 Y125.348 E41.05638
G1 X139.541 Y124.782 E41.08573
G1 X139.601 Y124.686 E41.08949
G1 X139.601 Y129.025 E41.23381
G1 X84.205 Y129.025 E43.07628
G1 X84.205 Y129.305 E43.0856
G1 X80.403 Y129.306 E43.21205
G1 X80.403 Y95.694 E44.32999
G1 X144.605 Y95.694 E46.46536
G1 X144.605 Y100.096 E46.61177
G1 X144.595 Y105.11 E46.77854
G1 X144.605 Y129.306 E47.5833
G1 X140.805 Y129.306 E47.70969
G1 F1500 E41.20969
G0 F6000 X140.533 Y104.568
G0 X84.477 Y104.568
G0 X84.477 Y105.402
G0 X139.873 Y105.403
G0 X139.871 Y128.367
G0 X139.013 Y125.921
G0 X136.937 Y125.41
G1 F1500 E47.70969
G0 F6000 X137.012 Y125.224
;TYPE:WALL-OUTER
G1 F1200 X137.046 Y125.221 E47.71082
G1 X137.559 Y125.295 E47.72806
G1 X138.126 Y125.211 E47.74713
G1 X138.657 Y125 E47.76613
G1 X139.235 Y124.516 E47.79121
G1 X139.543 Y124.022 E47.81057
G1 X139.722 Y123.48 E47.82955
G1 X139.756 Y123.087 E47.84267
G1 X139.722 Y122.705 E47.85543
G1 X139.543 Y122.167 E47.87429
G1 X139.24 Y121.678 E47.89342
G1 X138.809 Y121.295 E47.9126
G1 X138.297 Y121.02 E47.93193
G1 X137.254 Y120.929 E47.96675
G1 X137.189 Y120.919 E47.96894
G1 X136.625 Y121.107 E47.98871
G1 X136.139 Y121.407 E48.00771
G1 X135.758 Y121.837 E48.02681
G1 X135.484 Y122.343 E48.04595
G1 X135.352 Y123.081 E48.07089
G1 X135.386 Y123.478 E48.08414
G1 X135.486 Y123.849 E48.09692
G1 X135.758 Y124.352 E48.11594
G1 X136.14 Y124.781 E48.13505
G1 X136.459 Y125.003 E48.14797
G1 X137.012 Y125.224 E48.16778
G0 F6000 X136.949 Y125.659
G1 F1500 E41.66778
G0 F6000 X136.047 Y124.885
G0 X135.644 Y124.432
G0 X135.355 Y123.9
G0 X135.212 Y123.075
G0 X135.351 Y122.297
G0 X135.644 Y121.757
G0 X137.382 Y119.966
G0 X139.011 Y120.281
G0 X139.013 Y115.42
G0 X136.942 Y114.909
G1 F1500 E48.16778
G0 F6000 X136.971 Y114.711
G1 F1200 X137.555 Y114.796 E48.18741
G1 X138.123 Y114.715 E48.20649
G1 X138.654 Y114.501 E48.22553
G1 X139.113 Y114.138 E48.245
G1 X139.541 Y113.53 E48.26973
G1 X139.72 Y112.985 E48.28881
G1 X139.756 Y112.587 E48.3021
G1 X139.722 Y112.205 E48.31485
G1 X139.543 Y111.667 E48.33371
G1 X139.243 Y111.183 E48.35265
G1 X138.963 Y110.904 E48.3658
G1 X138.649 Y110.685 E48.37853
G1 X138.096 Y110.464 E48.39834
G1 X138.062 Y110.467 E48.39947
G1 X137.551 Y110.393 E48.41665
G1 X136.981 Y110.477 E48.43581
G1 X136.454 Y110.689 E48.4547
G1 X136.135 Y110.911 E48.46763
G1 X135.758 Y111.334 E48.48647
G1 X135.484 Y111.843 E48.5057
G1 X135.35 Y112.591 E48.53098
G1 X135.436 Y113.171 E48.55048
G1 X135.752 Y113.846 E48.57527
G1 X136.134 Y114.275 E48.59437
G1 X136.18 Y114.306 E48.59622
G1 X136.971 Y114.711 E48.62577
G0 F6000 X136.838 Y115.13
G1 F1500 E42.12577
G0 F6000 X134.757 Y114.081
G0 X133.883 Y106.516
G0 X92.227 Y106.516
G0 X92.221 Y111.668
G0 X92.255 Y115.604
G0 X90.341 Y114.823
G0 X88.051 Y115.604
;TYPE:WALL-INNER
G1 F1500 E48.62577
G1 F1200 X88.829 Y115.493 E48.65191
G1 X89.562 Y115.201 E48.67816
G1 X90.201 Y114.691 E48.70535
G1 X90.763 Y113.892 E48.73784
G1 X91.006 Y113.148 E48.76387
G1 X91.058 Y112.587 E48.78261
G1 X91.008 Y112.041 E48.80084
G1 X90.772 Y111.327 E48.82586
G1 X90.377 Y110.683 E48.85098
G1 X89.979 Y110.288 E48.86963
G1 X89.531 Y109.975 E48.88781
G1 X88.709 Y109.649 E48.91722
G1 X88.581 Y109.662 E48.9215
G1 X88.047 Y109.585 E48.93945
G1 X87.276 Y109.699 E48.96537
G1 X86.576 Y109.975 E48.9904
G1 X86.097 Y110.31 E49.00984
G1 X85.598 Y110.873 E49.03486
G1 X85.218 Y111.578 E49.0615
G1 X85.042 Y112.579 E49.0953
G1 X85.162 Y113.403 E49.123
G1 X85.576 Y114.29 E49.15555
G1 X86.102 Y114.885 E49.18197
G1 X86.275 Y114.999 E49.18886
G1 X87.227 Y115.483 E49.22438
G1 X88.051 Y115.604 E49.25208
G0 F6000 X88.052 Y115.2
G1 F1200 X88.725 Y115.104 E49.27469
G1 X89.359 Y114.851 E49.29739
G1 X89.907 Y114.414 E49.32071
