;FLAVOR:Marlin
;TIME:10469
;Filament used: 7.63927m
;Layer height: 0.25
;MINX:41.487
;MINY:53.026
;MINZ:0.2
;MAXX:129.687
;MAXY:158.284
;MAXZ:19.95
;Generated with Cura_SteamEngine 4.12.0
M140 S60
M105
M190 S60
M104 S200
M105
M109 S200
M82 ;absolute extrusion mode
; Ender 3 Custom Start G-code
G92 E0 ; Reset Extruder
G28 ; Home all axes
G29 ; BLTOUCH
G1 Z2.0 F3000 ; Move Z Axis up little to prevent scratching of Heat Bed
G1 X0.1 Y20 Z0.3 F5000.0 ; Move to start position
G1 X0.1 Y200.0 Z0.3 F1500.0 E15 ; Draw the first line
G1 X0.4 Y200.0 Z0.3 F5000.0 ; Move to side a little
G1 X0.4 Y20 Z0.3 F1500.0 E30 ; Draw the second line
G92 E0 ; Reset Extruder
G1 Z2.0 F3000 ; Move Z Axis up little to prevent scratching of Heat Bed
G1 X5 Y20 Z0.3 F5000.0 ; Move over to prevent blob squish
G92 E0
G92 E0
G1 F1500 E-6.5
;LAYER_COUNT:80
;LAYER:0
M107
G0 F6000 X77.237 Y57.873 Z0.2
;TYPE:SKIRT
G1 F1500 E0
G1 F1200 X77.36 Y57.717 E0.00661
G1 X77.972 Y57.006 E0.03781
G1 X78.523 Y56.458 E0.06366
G1 X78.713 Y56.282 E0.07227
G1 X79.427 Y55.675 E0.10344
G1 X80.169 Y55.145 E0.13377
G1 X80.374 Y55.011 E0.14191
G1 X81.54 Y54.347 E0.18654
G1 X81.66 Y54.288 E0.19099
G1 X82.518 Y53.91 E0.22217
G1 X83.362 Y53.62 E0.25186
G1 X83.566 Y53.559 E0.25894
G1 X84.542 Y53.315 E0.2924
G1 X84.775 Y53.268 E0.3003
G1 X86.142 Y53.081 E0.3462
G1 X86.4 Y53.062 E0.3548
G1 X87.075 Y53.033 E0.37727
G1 X87.704 Y53.026 E0.39819
G1 X116.485 Y53.026 E1.35545
G1 X117.26 Y53.036 E1.38123
G1 X117.581 Y53.046 E1.39191
G1 X117.786 Y53.055 E1.39874
G1 X119.087 Y53.189 E1.44224
G1 X119.294 Y53.223 E1.44922
G1 X120.638 Y53.532 E1.49508
G1 X120.837 Y53.591 E1.50199
G1 X121.724 Y53.895 E1.53317
G1 X122.477 Y54.224 E1.5605
G1 X122.739 Y54.35 E1.57017
G1 X123.567 Y54.792 E1.60139
G1 X124.636 Y55.511 E1.64424
G1 X124.833 Y55.661 E1.65248
G1 X125.838 Y56.528 E1.69662
G1 X125.984 Y56.67 E1.7034
G1 X126.628 Y57.352 E1.73459
G1 X127.051 Y57.871 E1.75686
G1 X127.178 Y58.037 E1.76381
G1 X127.716 Y58.806 E1.79503
G1 X128.198 Y59.639 E1.82704
G1 X128.31 Y59.854 E1.8351
G1 X128.707 Y60.703 E1.86627
G1 X128.955 Y61.356 E1.88951
G1 X129.008 Y61.51 E1.89492
G1 X129.275 Y62.409 E1.92612
G1 X129.388 Y62.904 E1.943
G1 X129.447 Y63.195 E1.95288
G1 X129.636 Y64.568 E1.99898
G1 X129.642 Y64.649 E2.00168
G1 X129.67 Y65.28 E2.02269
G1 X129.687 Y66.366 E2.05881
G1 X129.686 Y94.989 E3.01081
G1 X129.679 Y95.456 E3.02635
G1 X129.668 Y95.801 E3.03783
G1 X129.645 Y96.297 E3.05434
G1 X129.592 Y96.982 E3.0772
G1 X129.549 Y97.374 E3.09031
G1 X129.309 Y99.9 E3.17471
G1 X129.141 Y102.434 E3.25917
G1 X129.045 Y104.958 E3.34318
G1 X129.019 Y107.121 E3.41513
G1 X129.018 Y142.7 E4.59849
G1 X129.008 Y143.406 E4.62197
G1 X128.926 Y144.597 E4.66168
G1 X128.888 Y144.905 E4.672
G1 X128.734 Y145.83 E4.70319
G1 X128.515 Y146.694 E4.73284
G1 X128.446 Y146.926 E4.74089
G1 X128.14 Y147.813 E4.7721
G1 X127.779 Y148.632 E4.80186
G1 X127.679 Y148.836 E4.80942
G1 X127.231 Y149.659 E4.84059
G1 X126.737 Y150.41 E4.87048
G1 X126.574 Y150.637 E4.87978
G1 X125.995 Y151.375 E4.91098
G1 X125.247 Y152.165 E4.94716
G1 X125.058 Y152.346 E4.95587
G1 X124.354 Y152.966 E4.98707
G1 X123.267 Y153.738 E5.03141
G1 X123.015 Y153.895 E5.04129
G1 X122.198 Y154.357 E5.0725
G1 X121.162 Y154.82 E5.11025
G1 X120.854 Y154.939 E5.12123
G1 X119.966 Y155.239 E5.1524
G1 X119.055 Y155.463 E5.18361
G1 X118.565 Y155.55 E5.20016
G1 X118.26 Y155.597 E5.21042
G1 X117.328 Y155.7 E5.24161
G1 X116.767 Y155.723 E5.26028
G1 X115.679 Y155.74 E5.29648
G1 X104.822 Y155.74 E5.65758
G1 X102.214 Y155.777 E5.74433
G1 X99.692 Y155.884 E5.82829
G1 X97.197 Y156.061 E5.91148
G1 X94.699 Y156.309 E5.99497
G1 X92.21 Y156.627 E6.07843
G1 X89.701 Y157.021 E6.1629
G1 X87.249 Y157.477 E6.24586
G1 X86.141 Y157.719 E6.28358
G1 X84.596 Y158.033 E6.33601
G1 X83.26 Y158.22 E6.38088
G1 X83.041 Y158.237 E6.38819
G1 X82.373 Y158.268 E6.41043
G1 X81.347 Y158.284 E6.44456
G1 X54.529 Y158.283 E7.33653
G1 X54.049 Y158.276 E7.3525
G1 X53.705 Y158.265 E7.36394
G1 X53.291 Y158.246 E7.37773
G1 X52.005 Y158.111 E7.42074
G1 X51.908 Y158.095 E7.42401
G1 X50.545 Y157.781 E7.47053
G1 X50.311 Y157.711 E7.47865
G1 X49.078 Y157.26 E7.52232
G1 X48.894 Y157.18 E7.52899
G1 X47.692 Y156.567 E7.57387
G1 X47.614 Y156.521 E7.57688
G1 X46.538 Y155.798 E7.62
G1 X46.341 Y155.648 E7.62823
G1 X45.62 Y155.048 E7.65943
G1 X44.994 Y154.434 E7.68859
G1 X44.803 Y154.231 E7.69786
G1 X44.19 Y153.521 E7.72906
G1 X43.503 Y152.549 E7.76865
G1 X43.364 Y152.328 E7.77734
G1 X42.696 Y151.1 E7.82383
G1 X42.6 Y150.893 E7.83142
G1 X42.242 Y150.026 E7.86262
G1 X41.872 Y148.787 E7.90563
G1 X41.811 Y148.528 E7.91448
G1 X41.635 Y147.607 E7.94566
G1 X41.552 Y146.872 E7.97026
G1 X41.534 Y146.644 E7.97787
G1 X41.501 Y145.955 E8.00081
G1 X41.488 Y145.145 E8.02776
G1 X41.487 Y104.962 E9.36425
G1 X41.494 Y104.375 E9.38377
G1 X41.506 Y104.002 E9.39619
G1 X41.53 Y103.5 E9.4129
G1 X41.614 Y102.566 E9.44409
G1 X41.778 Y101.642 E9.47531
G1 X41.957 Y100.945 E9.49924
G1 X42.048 Y100.633 E9.51005
G1 X42.349 Y99.745 E9.54124
G1 X42.606 Y99.135 E9.56325
G1 X42.698 Y98.934 E9.5706
G1 X43.124 Y98.099 E9.60178
G1 X43.62 Y97.303 E9.63298
G1 X43.912 Y96.895 E9.64966
G1 X44.104 Y96.64 E9.66028
G1 X44.7 Y95.916 E9.69147
G1 X45.399 Y95.203 E9.72468
G1 X45.6 Y95.016 E9.73381
G1 X46.577 Y94.208 E9.77598
G1 X47.246 Y93.717 E9.80358
G1 X48.447 Y92.864 E9.85258
G1 X50.462 Y91.344 E9.93652
G1 X52.436 Y89.766 E10.02058
G1 X54.325 Y88.166 E10.10292
G1 X56.226 Y86.461 E10.18785
G1 X58.03 Y84.75 E10.27055
G1 X59.838 Y82.932 E10.35582
G1 X61.531 Y81.134 E10.43796
G1 X63.22 Y79.234 E10.52252
G1 X64.829 Y77.318 E10.60573
G1 X66.406 Y75.329 E10.69016
G1 X67.91 Y73.316 E10.77373
G1 X69.362 Y71.255 E10.85759
G1 X70.736 Y69.18 E10.94036
G1 X72.087 Y67.011 E11.02535
G1 X73.339 Y64.868 E11.1079
G1 X74.542 Y62.671 E11.19121
G1 X75.344 Y61.082 E11.25041
G1 X76.13 Y59.581 E11.30677
G1 X76.6 Y58.77 E11.33794
G1 X77.237 Y57.873 E11.37453
G0 F6000 X77.551 Y58.121
G1 F1200 X77.674 Y57.965 E11.38114
G1 X78.275 Y57.267 E11.41178
G1 X78.795 Y56.752 E11.43612
G1 X78.985 Y56.576 E11.44473
G1 X79.687 Y55.98 E11.47536
G1 X80.388 Y55.479 E11.50402
G1 X80.593 Y55.345 E11.51216
G1 X81.716 Y54.706 E11.55514
G1 X81.836 Y54.647 E11.55959
G1 X82.679 Y54.277 E11.59021
G1 X83.476 Y54.003 E11.61824
G1 X83.68 Y53.942 E11.62532
G1 X84.621 Y53.707 E11.65758
G1 X84.854 Y53.66 E11.66548
G1 X86.171 Y53.48 E11.7097
G1 X86.429 Y53.461 E11.7183
G1 X87.08 Y53.433 E11.73997
G1 X87.704 Y53.426 E11.76073
G1 X116.485 Y53.426 E12.71799
G1 X117.254 Y53.436 E12.74357
G1 X117.564 Y53.445 E12.75388
G1 X117.769 Y53.454 E12.76071
G1 X119.022 Y53.584 E12.80261
G1 X119.229 Y53.618 E12.80958
G1 X120.524 Y53.915 E12.85377
G1 X120.723 Y53.974 E12.86068
G1 X121.594 Y54.274 E12.89132
G1 X122.304 Y54.584 E12.91708
G1 X122.566 Y54.71 E12.92675
G1 X123.378 Y55.145 E12.95739
G1 X124.393 Y55.829 E12.9981
G1 X124.59 Y55.979 E13.00634
G1 X125.56 Y56.814 E13.04891
G1 X125.706 Y56.956 E13.05568
G1 X126.337 Y57.626 E13.08629
G1 X126.734 Y58.114 E13.10721
G1 X126.861 Y58.28 E13.11417
G1 X127.388 Y59.035 E13.14479
G1 X127.843 Y59.824 E13.17508
G1 X127.955 Y60.039 E13.18315
G1 X128.344 Y60.873 E13.21375
G1 X128.577 Y61.487 E13.2356
G1 X128.63 Y61.641 E13.24101
G1 X128.892 Y62.523 E13.27162
G1 X128.996 Y62.984 E13.28733
G1 X129.055 Y63.275 E13.29721
G1 X129.237 Y64.598 E13.34163
G1 X129.243 Y64.679 E13.34433
G1 X129.271 Y65.286 E13.36454
G1 X129.286 Y66.19 E13.39461
G1 X129.287 Y94.824 E14.34698
G1 X129.279 Y95.45 E14.3678
G1 X129.269 Y95.782 E14.37885
G1 X129.246 Y96.278 E14.39537
G1 X129.194 Y96.939 E14.41742
G1 X129.155 Y97.298 E14.42943
G1 X128.91 Y99.871 E14.51539
G1 X128.741 Y102.426 E14.60056
G1 X128.645 Y104.938 E14.68417
G1 X128.619 Y107.116 E14.75662
G1 X128.618 Y142.694 E15.93995
G1 X128.608 Y143.4 E15.96343
G1 X128.529 Y144.548 E16.0017
G1 X128.491 Y144.856 E16.01202
G1 X128.339 Y145.764 E16.04264
G1 X128.131 Y146.58 E16.07065
G1 X128.062 Y146.812 E16.0787
G1 X127.762 Y147.682 E16.10931
G1 X127.42 Y148.456 E16.13746
G1 X127.32 Y148.66 E16.14501
G1 X126.879 Y149.468 E16.17563
G1 X126.412 Y150.177 E16.20387
G1 X126.249 Y150.404 E16.21316
G1 X125.68 Y151.127 E16.24376
G1 X124.971 Y151.877 E16.27809
G1 X124.782 Y152.058 E16.28679
G1 X124.09 Y152.665 E16.31741
G1 X123.055 Y153.399 E16.35961
G1 X122.803 Y153.556 E16.36949
G1 X122.001 Y154.008 E16.4001
G1 X121.018 Y154.447 E16.43591
G1 X120.71 Y154.566 E16.44689
G1 X119.838 Y154.86 E16.4775
G1 X118.504 Y155.154 E16.52293
G1 X118.199 Y155.201 E16.5332
G1 X117.284 Y155.302 E16.56382
G1 X116.76 Y155.324 E16.58126
G1 X115.854 Y155.339 E16.6114
G1 X104.816 Y155.34 E16.97852
G1 X102.191 Y155.377 E17.06584
G1 X99.683 Y155.484 E17.14933
G1 X97.166 Y155.662 E17.23326
G1 X94.642 Y155.912 E17.31762
G1 X92.134 Y156.233 E17.40171
G1 X89.672 Y156.62 E17.48461
G1 X87.157 Y157.088 E17.56969
G1 X85.902 Y157.36 E17.6124
G1 X84.517 Y157.641 E17.6594
G1 X83.229 Y157.821 E17.70266
G1 X83.01 Y157.838 E17.70997
G1 X82.366 Y157.869 E17.73141
G1 X81.523 Y157.883 E17.75945
G1 X54.689 Y157.884 E18.65196
G1 X54.054 Y157.876 E18.67308
G1 X53.723 Y157.866 E18.68409
G1 X53.309 Y157.847 E18.69788
G1 X52.07 Y157.717 E18.73931
G1 X51.973 Y157.701 E18.74258
G1 X50.66 Y157.397 E18.78741
G1 X50.426 Y157.327 E18.79553
G1 X49.238 Y156.893 E18.8376
G1 X49.054 Y156.813 E18.84427
G1 X47.895 Y156.222 E18.88754
G1 X47.817 Y156.176 E18.89055
G1 X46.781 Y155.48 E18.93206
G1 X46.584 Y155.33 E18.9403
G1 X45.876 Y154.741 E18.97093
G1 X45.285 Y154.16 E18.9985
G1 X45.094 Y153.957 E19.00777
G1 X44.493 Y153.259 E19.0384
G1 X43.841 Y152.337 E19.07596
G1 X43.702 Y152.116 E19.08464
G1 X43.059 Y150.932 E19.12946
G1 X42.963 Y150.725 E19.13705
G1 X42.612 Y149.873 E19.16769
G1 X42.261 Y148.695 E19.20858
G1 X42.2 Y148.436 E19.21743
G1 X42.028 Y147.532 E19.24803
G1 X41.951 Y146.84 E19.27119
G1 X41.933 Y146.612 E19.2788
G1 X41.901 Y145.948 E19.30091
G1 X41.888 Y145.138 E19.32785
G1 X41.887 Y104.962 E20.66411
G1 X41.894 Y104.381 E20.68344
G1 X41.905 Y104.021 E20.69542
G1 X41.929 Y103.519 E20.71213
G1 X42.013 Y102.602 E20.74276
G1 X42.176 Y101.696 E20.77338
G1 X42.341 Y101.057 E20.79533
G1 X42.432 Y100.745 E20.80614
G1 X42.728 Y99.873 E20.83677
G1 X42.97 Y99.301 E20.85742
G1 X43.062 Y99.1 E20.86478
G1 X43.481 Y98.281 E20.89537
G1 X44.232 Y97.136 E20.94092
G1 X44.424 Y96.881 E20.95153
G1 X45.009 Y96.17 E20.98216
G1 X45.672 Y95.496 E21.0136
G1 X45.873 Y95.309 E21.02273
G1 X46.814 Y94.53 E21.06336
G1 X47.478 Y94.043 E21.09075
G1 X48.697 Y93.177 E21.14049
G1 X50.707 Y91.661 E21.22422
G1 X52.678 Y90.086 E21.30814
G1 X54.588 Y88.468 E21.39139
G1 X56.505 Y86.749 E21.47703
G1 X58.306 Y85.04 E21.55961
G1 X60.112 Y83.224 E21.6448
G1 X61.838 Y81.392 E21.72851
G1 X63.509 Y79.511 E21.8122
G1 X65.165 Y77.54 E21.89782
G1 X66.712 Y75.588 E21.98066
G1 X68.237 Y73.547 E22.0654
G1 X69.678 Y71.501 E22.14863
G1 X71.082 Y69.382 E22.23318
G1 X72.423 Y67.228 E22.31757
G1 X73.701 Y65.041 E22.40182
G1 X74.886 Y62.877 E22.48388
G1 X75.623 Y61.414 E22.53836
G1 X76.485 Y59.767 E22.60019
G1 X76.947 Y58.97 E22.63083
G1 X77.551 Y58.121 E22.66549
G0 F6000 X77.865 Y58.369
G1 F1200 X77.988 Y58.213 E22.67209
G1 X78.578 Y57.529 E22.70214
G1 X79.066 Y57.045 E22.725
G1 X79.256 Y56.869 E22.73361
G1 X79.946 Y56.285 E22.76368
G1 X80.607 Y55.814 E22.79067
G1 X80.812 Y55.68 E22.79882
G1 X81.893 Y55.065 E22.84018
G1 X82.013 Y55.006 E22.84463
G1 X82.84 Y54.643 E22.87467
G1 X83.591 Y54.387 E22.90106
G1 X83.795 Y54.326 E22.90814
G1 X84.7 Y54.099 E22.93918
G1 X84.933 Y54.052 E22.94708
G1 X86.201 Y53.879 E22.98965
G1 X86.459 Y53.86 E22.99825
G1 X87.085 Y53.833 E23.01909
G1 X87.704 Y53.826 E23.03968
G1 X116.485 Y53.826 E23.99694
G1 X117.248 Y53.836 E24.02232
G1 X117.546 Y53.845 E24.03224
G1 X117.751 Y53.854 E24.03906
G1 X118.957 Y53.979 E24.07939
G1 X119.164 Y54.013 E24.08636
G1 X120.41 Y54.299 E24.12888
G1 X120.609 Y54.358 E24.13579
G1 X121.463 Y54.653 E24.16584
G1 X122.131 Y54.945 E24.19009
G1 X122.393 Y55.071 E24.19976
G1 X123.188 Y55.498 E24.22977
G1 X124.151 Y56.148 E24.26841
G1 X124.348 Y56.298 E24.27665
G1 X125.281 Y57.101 E24.31759
G1 X125.427 Y57.243 E24.32437
G1 X126.046 Y57.901 E24.35441
G1 X126.416 Y58.357 E24.37394
G1 X126.543 Y58.523 E24.3809
G1 X127.06 Y59.264 E24.41095
G1 X127.488 Y60.009 E24.43952
G1 X127.6 Y60.224 E24.44759
G1 X127.982 Y61.042 E24.47761
G1 X128.199 Y61.617 E24.49806
G1 X128.252 Y61.771 E24.50347
G1 X128.604 Y63.063 E24.54801
G1 X128.663 Y63.354 E24.55789
G1 X128.838 Y64.628 E24.60066
G1 X128.844 Y64.709 E24.60336
G1 X128.871 Y65.293 E24.6228
G1 X128.886 Y66.197 E24.65287
G1 X128.887 Y94.824 E25.60501
G1 X128.879 Y95.444 E25.62564
G1 X128.869 Y95.763 E25.63625
G1 X128.846 Y96.259 E25.65277
G1 X128.797 Y96.895 E25.67398
G1 X128.754 Y97.284 E25.687
G1 X128.511 Y99.84 E25.7724
G1 X128.343 Y102.386 E25.85726
G1 X128.245 Y104.957 E25.94283
G1 X128.219 Y107.111 E26.01448
G1 X128.218 Y142.688 E27.19778
G1 X128.208 Y143.394 E27.22126
G1 X128.132 Y144.499 E27.2581
G1 X128.094 Y144.807 E27.26842
G1 X127.944 Y145.698 E27.29847
G1 X127.748 Y146.466 E27.32484
G1 X127.679 Y146.698 E27.33289
G1 X127.383 Y147.551 E27.36292
G1 X127.061 Y148.28 E27.38942
G1 X126.961 Y148.484 E27.39698
G1 X126.528 Y149.276 E27.427
G1 X126.087 Y149.943 E27.4536
G1 X125.924 Y150.17 E27.46289
G1 X125.366 Y150.88 E27.49293
G1 X124.694 Y151.588 E27.52539
G1 X124.505 Y151.769 E27.5341
G1 X123.826 Y152.364 E27.56412
G1 X122.844 Y153.059 E27.60414
G1 X122.592 Y153.216 E27.61401
G1 X121.805 Y153.659 E27.64405
G1 X120.874 Y154.074 E27.67795
G1 X120.566 Y154.193 E27.68894
G1 X119.71 Y154.48 E27.71896
G1 X118.443 Y154.759 E27.76211
G1 X118.138 Y154.806 E27.77238
G1 X117.241 Y154.904 E27.80239
G1 X116.754 Y154.924 E27.8186
G1 X115.848 Y154.939 E27.84874
G1 X104.81 Y154.94 E28.21586
G1 X102.204 Y154.977 E28.30255
G1 X99.636 Y155.086 E28.38804
G1 X97.134 Y155.263 E28.47146
G1 X94.622 Y155.512 E28.55542
G1 X92.059 Y155.84 E28.64136
G1 X89.574 Y156.231 E28.72503
G1 X87.089 Y156.693 E28.8091
G1 X85.822 Y156.968 E28.85222
G1 X84.437 Y157.249 E28.89922
G1 X83.198 Y157.422 E28.94083
G1 X82.979 Y157.439 E28.94814
G1 X82.359 Y157.469 E28.96879
G1 X81.516 Y157.483 E28.99683
G1 X54.689 Y157.484 E29.8891
G1 X54.06 Y157.476 E29.91002
G1 X53.741 Y157.466 E29.92063
G1 X53.327 Y157.447 E29.93442
G1 X52.135 Y157.322 E29.97428
G1 X52.038 Y157.306 E29.97755
G1 X50.775 Y157.014 E30.02067
G1 X50.541 Y156.944 E30.02879
G1 X49.397 Y156.526 E30.0693
G1 X49.213 Y156.446 E30.07597
G1 X48.099 Y155.878 E30.11756
G1 X48.021 Y155.832 E30.12058
G1 X47.023 Y155.161 E30.16058
G1 X46.826 Y155.011 E30.16881
G1 X46.132 Y154.433 E30.19885
G1 X45.576 Y153.886 E30.22479
G1 X45.385 Y153.683 E30.23406
G1 X44.796 Y152.998 E30.26411
G1 X44.18 Y152.124 E30.29967
G1 X44.041 Y151.903 E30.30836
G1 X43.422 Y150.763 E30.3515
G1 X43.326 Y150.556 E30.35909
G1 X42.982 Y149.721 E30.38913
G1 X42.651 Y148.603 E30.42791
G1 X42.59 Y148.344 E30.43676
G1 X42.422 Y147.457 E30.46679
G1 X42.35 Y146.809 E30.48847
G1 X42.332 Y146.581 E30.49608
G1 X42.301 Y145.942 E30.51736
G1 X42.287 Y144.968 E30.54975
G1 X42.288 Y104.821 E31.88505
G1 X42.294 Y104.386 E31.89952
G1 X42.305 Y104.04 E31.91103
G1 X42.329 Y103.538 E31.92775
G1 X42.412 Y102.639 E31.95778
G1 X42.574 Y101.75 E31.98783
G1 X42.725 Y101.169 E32.0078
G1 X42.816 Y100.857 E32.01861
G1 X43.107 Y100.002 E32.04865
G1 X43.333 Y99.468 E32.06793
G1 X43.425 Y99.267 E32.07528
G1 X43.837 Y98.463 E32.10533
G1 X44.552 Y97.377 E32.14858
G1 X44.744 Y97.122 E32.1592
G1 X45.318 Y96.425 E32.18923
G1 X45.944 Y95.789 E32.21891
G1 X46.145 Y95.602 E32.22804
G1 X47.051 Y94.852 E32.26716
G1 X47.576 Y94.466 E32.28883
G1 X48.901 Y93.524 E32.3429
G1 X50.953 Y91.977 E32.42838
G1 X52.923 Y90.401 E32.51229
G1 X54.885 Y88.74 E32.59779
G1 X56.747 Y87.07 E32.68098
G1 X58.617 Y85.295 E32.76673
G1 X60.369 Y83.535 E32.84933
G1 X62.129 Y81.666 E32.93471
G1 X63.847 Y79.733 E33.02073
G1 X65.438 Y77.839 E33.103
G1 X67.042 Y75.814 E33.18892
G1 X68.556 Y73.788 E33.27304
G1 X70.006 Y71.73 E33.35678
G1 X71.422 Y69.593 E33.44204
G1 X72.755 Y67.451 E33.52595
G1 X74.063 Y65.213 E33.61217
G1 X75.249 Y63.047 E33.6943
G1 X76.053 Y61.453 E33.75368
