;FLAVOR:Marlin
;TIME:5177
;Filament used: 2.62349m
;Layer height: 0.16
;MINX:139.827
;MINY:31.915
;MINZ:0.2
;MAXX:172.204
;MAXY:137.074
;MAXZ:34.92
;Generated with Cura_SteamEngine 4.12.0
M140 S60
M105
M190 S60
M104 S200
M105
M109 S200
M82 ;absolute extrusion mode
; Ender 3 Custom Start G-code
G92 E0 ; Reset Extruder
G28 ; Home all axes
G29 ; BLTOUCH
G1 Z2.0 F3000 ; Move Z Axis up little to prevent scratching of Heat Bed
G1 X0.1 Y20 Z0.3 F5000.0 ; Move to start position
G1 X0.1 Y200.0 Z0.3 F1500.0 E15 ; Draw the first line
G1 X0.4 Y200.0 Z0.3 F5000.0 ; Move to side a little
G1 X0.4 Y20 Z0.3 F1500.0 E30 ; Draw the second line
G92 E0 ; Reset Extruder
G1 Z2.0 F3000 ; Move Z Axis up little to prevent scratching of Heat Bed
G1 X5 Y20 Z0.3 F5000.0 ; Move over to prevent blob squish
G92 E0
G92 E0
G1 F1500 E-6.5
;LAYER_COUNT:185
;LAYER:0
M107
G0 F6000 X147.873 Y40.17 Z0.2
;TYPE:SKIRT
G1 F1500 E0
G1 F1200 X148.149 Y39.274 E0.03118
G1 X148.5 Y38.404 E0.06239
G1 X148.924 Y37.568 E0.09356
G1 X149.418 Y36.77 E0.12478
G1 X149.978 Y36.018 E0.15596
G1 X150.599 Y35.316 E0.18714
G1 X151.279 Y34.669 E0.21836
G1 X152.011 Y34.083 E0.24954
G1 X152.79 Y33.561 E0.28073
G1 X153.611 Y33.108 E0.31192
G1 X154.468 Y32.726 E0.34313
G1 X155.354 Y32.418 E0.37432
G1 X156.263 Y32.187 E0.40552
G1 X157.188 Y32.034 E0.4367
G1 X158.084 Y31.962 E0.4666
G1 X158.925 Y31.929 E0.49459
G1 X159.253 Y31.921 E0.50551
G1 X159.892 Y31.915 E0.52676
G1 X160.829 Y31.947 E0.55794
G1 X161.76 Y32.058 E0.58913
G1 X162.679 Y32.247 E0.62033
G1 X163.578 Y32.515 E0.65153
G1 X164.451 Y32.858 E0.68273
G1 X165.291 Y33.274 E0.71391
G1 X166.093 Y33.76 E0.7451
G1 X166.851 Y34.313 E0.7763
G1 X167.559 Y34.928 E0.8075
G1 X168.212 Y35.601 E0.83869
G1 X168.805 Y36.328 E0.86989
G1 X169.334 Y37.102 E0.90107
G1 X169.795 Y37.919 E0.93227
G1 X170.185 Y38.772 E0.96347
G1 X170.501 Y39.655 E0.99466
G1 X170.725 Y40.491 E1.02345
G1 X170.863 Y41.107 E1.04444
G1 X171.246 Y42.93 E1.1064
G1 X171.588 Y44.392 E1.15634
G1 X171.757 Y45.09 E1.18023
G1 X171.939 Y46.01 E1.21142
G1 X172.059 Y47.297 E1.25441
G1 X172.095 Y48.331 E1.28882
G1 X172.101 Y48.555 E1.29627
G1 X172.115 Y49.612 E1.33143
G1 X172.115 Y49.714 E1.33483
G1 X172.152 Y51.634 E1.3987
G1 X172.142 Y52.061 E1.4129
G1 X172.158 Y53.017 E1.4447
G1 X172.171 Y54.419 E1.49134
G1 X172.168 Y55.214 E1.51778
G1 X172.188 Y56.956 E1.57572
G1 X172.181 Y57.193 E1.58361
G1 X172.201 Y58.704 E1.63387
G1 X172.204 Y60.247 E1.68519
G1 X172.187 Y61.678 E1.73279
G1 X172.184 Y63.636 E1.79791
G1 X172.193 Y64.82 E1.83729
G1 X172.181 Y66.337 E1.88775
G1 X172.162 Y67.134 E1.91426
G1 X172.149 Y68.657 E1.96492
G1 X172.133 Y68.977 E1.97558
G1 X172.116 Y70.253 E2.01802
G1 X172.09 Y71.384 E2.05565
G1 X172.071 Y72.054 E2.07794
G1 X172.007 Y73.565 E2.12824
G1 X171.924 Y75.05 E2.17771
G1 X171.859 Y77.164 E2.24806
G1 X171.825 Y77.825 E2.27007
G1 X171.726 Y79.022 E2.31002
G1 X171.706 Y79.236 E2.31717
G1 X171.642 Y79.861 E2.33806
G1 X171.389 Y82.273 E2.41873
G1 X171.351 Y82.639 E2.43097
G1 X171.292 Y83.255 E2.45155
G1 X171.143 Y84.696 E2.49973
G1 X170.912 Y86.856 E2.57198
G1 X170.793 Y88.09 E2.61322
G1 X170.646 Y89.504 E2.6605
G1 X170.411 Y91.71 E2.73429
G1 X170.304 Y92.833 E2.77181
G1 X170.162 Y94.205 E2.81768
G1 X170.116 Y94.601 E2.83094
G1 X169.921 Y96.413 E2.89156
G1 X169.846 Y97.184 E2.91732
G1 X169.809 Y97.512 E2.9283
G1 X169.772 Y97.801 E2.93799
G1 X169.731 Y98.092 E2.94777
G1 X169.501 Y99.571 E2.99755
G1 X169.287 Y100.899 E3.04229
G1 X169.208 Y101.369 E3.05814
G1 X168.853 Y103.328 E3.12436
G1 X168.749 Y103.862 E3.14245
G1 X168.452 Y105.603 E3.2012
G1 X168.186 Y107.254 E3.25682
G1 X168.15 Y107.466 E3.26397
G1 X168.023 Y108.168 E3.2877
G1 X167.609 Y110.402 E3.36326
G1 X167.225 Y112.295 E3.42751
G1 X167.206 Y112.383 E3.4305
G1 X166.728 Y114.899 E3.51568
G1 X166.645 Y115.388 E3.53218
G1 X166.426 Y116.573 E3.57226
G1 X165.831 Y119.591 E3.67457
G1 X165.55 Y120.914 E3.71956
G1 X165.088 Y123.213 E3.79755
G1 X164.897 Y124.235 E3.83213
G1 X164.278 Y127.276 E3.93535
G1 X164.238 Y127.466 E3.94181
G1 X164.085 Y128.154 E3.96525
G1 X163.842 Y129.06 E3.99645
G1 X163.524 Y129.942 E4.02763
G1 X163.131 Y130.794 E4.05884
G1 X162.667 Y131.609 E4.09003
G1 X162.135 Y132.381 E4.12121
G1 X161.54 Y133.106 E4.15241
G1 X160.885 Y133.777 E4.18359
G1 X160.175 Y134.39 E4.21479
G1 X159.416 Y134.941 E4.24599
G1 X158.612 Y135.424 E4.27718
G1 X157.77 Y135.838 E4.30839
G1 X156.607 Y136.272 E4.34968
G1 X156.251 Y136.379 E4.36204
G1 X155.288 Y136.654 E4.39535
G1 X154.377 Y136.873 E4.42652
G1 X153.449 Y137.013 E4.45773
G1 X152.513 Y137.074 E4.48893
G1 X151.576 Y137.055 E4.5201
G1 X150.405 Y136.918 E4.55931
G1 X150.149 Y136.874 E4.56795
G1 X149.805 Y136.809 E4.5796
G1 X149.108 Y136.665 E4.60327
G1 X148.459 Y136.522 E4.62537
G1 X147.553 Y136.282 E4.65654
G1 X146.67 Y135.965 E4.68775
G1 X145.817 Y135.574 E4.71896
G1 X145.001 Y135.111 E4.75016
G1 X144.228 Y134.581 E4.78133
G1 X143.502 Y133.987 E4.81253
G1 X142.829 Y133.334 E4.84372
G1 X142.215 Y132.625 E4.87492
G1 X141.663 Y131.866 E4.90613
G1 X141.178 Y131.064 E4.93731
G1 X140.763 Y130.223 E4.9685
G1 X140.421 Y129.349 E4.99971
G1 X140.155 Y128.45 E5.0309
G1 X139.966 Y127.532 E5.06207
G1 X139.857 Y126.6 E5.09328
G1 X139.827 Y125.663 E5.12446
G1 X139.877 Y124.726 E5.15567
G1 X140.003 Y123.812 E5.18636
G1 X140.183 Y122.822 E5.21982
G1 X140.229 Y122.589 E5.22772
G1 X140.738 Y120.097 E5.31232
G1 X141.271 Y117.467 E5.40157
G1 X141.899 Y114.323 E5.50821
G1 X142.357 Y112.002 E5.58689
G1 X143.105 Y108.14 E5.71773
G1 X143.425 Y106.441 E5.77523
G1 X143.763 Y104.628 E5.83657
G1 X144.118 Y102.68 E5.90243
G1 X144.537 Y100.322 E5.98208
G1 X144.714 Y99.296 E6.01671
G1 X145.042 Y97.347 E6.08245
G1 X145.412 Y94.889 E6.16512
G1 X145.774 Y91.866 E6.26639
G1 X147.118 Y78.821 E6.70256
G1 X147.344 Y76.269 E6.78777
G1 X147.538 Y72.757 E6.90476
G1 X147.564 Y71.958 E6.93135
G1 X147.596 Y70.782 E6.97048
G1 X147.624 Y69.594 E7.01
G1 X147.653 Y68.144 E7.05824
G1 X147.67 Y67.004 E7.09616
G1 X147.684 Y65.736 E7.13834
G1 X147.702 Y63.233 E7.22159
G1 X147.707 Y60.73 E7.30484
G1 X147.704 Y58.99 E7.36271
G1 X147.69 Y56.671 E7.43984
G1 X147.667 Y53.829 E7.53437
G1 X147.629 Y50.644 E7.64031
G1 X147.581 Y47.348 E7.74995
G1 X147.515 Y43.48 E7.87862
G1 X147.515 Y42.954 E7.89611
G1 X147.555 Y42.017 E7.92731
G1 X147.675 Y41.087 E7.9585
G1 X147.873 Y40.17 E7.9897
G0 F6000 X148.273 Y40.222
G1 F1200 X148.549 Y39.344 E8.02031
G1 X148.9 Y38.493 E8.05093
G1 X149.323 Y37.675 E8.08156
G1 X149.816 Y36.898 E8.11216
G1 X150.374 Y36.166 E8.14278
G1 X150.994 Y35.485 E8.17341
G1 X151.67 Y34.86 E8.20403
G1 X152.398 Y34.297 E8.23464
G1 X153.173 Y33.799 E8.26528
G1 X153.987 Y33.37 E8.29588
G1 X154.836 Y33.013 E8.32651
G1 X155.712 Y32.731 E8.35712
G1 X156.61 Y32.527 E8.38775
G1 X157.522 Y32.401 E8.41837
G1 X158.099 Y32.362 E8.43761
G1 X158.94 Y32.329 E8.4656
G1 X159.256 Y32.321 E8.47611
G1 X159.895 Y32.315 E8.49737
G1 X160.816 Y32.347 E8.52802
G1 X161.73 Y32.458 E8.55864
G1 X162.63 Y32.648 E8.58924
G1 X163.511 Y32.915 E8.61985
G1 X164.366 Y33.258 E8.65049
G1 X165.187 Y33.674 E8.68111
G1 X165.97 Y34.159 E8.71174
G1 X166.707 Y34.711 E8.74237
G1 X167.393 Y35.324 E8.77297
G1 X168.024 Y35.995 E8.8036
G1 X168.594 Y36.717 E8.8342
G1 X169.1 Y37.487 E8.86484
G1 X169.536 Y38.297 E8.89544
G1 X169.901 Y39.143 E8.92608
G1 X170.191 Y40.017 E8.95671
G1 X170.335 Y40.58 E8.97604
G1 X170.471 Y41.19 E8.99683
G1 X170.853 Y43.008 E9.05861
G1 X171.18 Y44.408 E9.10643
G1 X171.368 Y45.184 E9.13299
G1 X171.546 Y46.087 E9.1636
G1 X171.66 Y47.311 E9.20448
G1 X171.696 Y48.345 E9.2389
G1 X171.701 Y48.561 E9.24608
G1 X171.715 Y49.612 E9.28104
G1 X171.715 Y49.722 E9.2847
G1 X171.752 Y51.642 E9.34857
G1 X171.742 Y52.064 E9.36261
G1 X171.759 Y53.021 E9.39445
G1 X171.771 Y54.417 E9.44088
G1 X171.768 Y55.217 E9.46749
G1 X171.788 Y56.961 E9.5255
G1 X171.781 Y57.195 E9.53328
G1 X171.801 Y58.705 E9.58351
G1 X171.804 Y60.243 E9.63467
G1 X171.787 Y61.677 E9.68236
G1 X171.784 Y63.639 E9.74762
G1 X171.793 Y64.817 E9.7868
G1 X171.781 Y66.334 E9.83726
G1 X171.762 Y67.119 E9.86338
G1 X171.749 Y68.653 E9.9144
G1 X171.733 Y68.967 E9.92486
G1 X171.716 Y70.244 E9.96733
G1 X171.69 Y71.374 E10.00493
G1 X171.671 Y72.037 E10.02699
G1 X171.608 Y73.543 E10.07712
G1 X171.523 Y75.057 E10.12756
G1 X171.459 Y77.155 E10.19737
G1 X171.426 Y77.792 E10.21858
G1 X171.327 Y78.989 E10.25853
G1 X171.308 Y79.195 E10.26541
G1 X170.961 Y82.522 E10.37667
G1 X170.894 Y83.214 E10.39979
G1 X170.745 Y84.654 E10.44794
G1 X170.514 Y86.818 E10.52033
G1 X170.395 Y88.048 E10.56143
G1 X170.248 Y89.462 E10.60871
G1 X170.02 Y91.601 E10.68026
G1 X169.907 Y92.792 E10.72005
G1 X169.764 Y94.159 E10.76576
G1 X169.728 Y94.468 E10.77611
G1 X169.534 Y96.264 E10.83619
G1 X169.448 Y97.145 E10.86563
G1 X169.412 Y97.461 E10.87621
G1 X169.375 Y97.75 E10.8859
G1 X169.335 Y98.031 E10.89534
G1 X169.106 Y99.508 E10.94506
G1 X168.893 Y100.834 E10.98972
G1 X168.814 Y101.298 E11.00538
G1 X168.461 Y103.251 E11.07139
G1 X168.345 Y103.844 E11.09149
G1 X168.057 Y105.535 E11.14854
G1 X167.757 Y107.395 E11.2112
G1 X167.63 Y108.095 E11.23486
G1 X167.217 Y110.323 E11.31023
G1 X166.834 Y112.21 E11.37427
G1 X166.815 Y112.295 E11.37717
G1 X166.331 Y114.846 E11.46353
G1 X166.251 Y115.315 E11.47935
G1 X166.034 Y116.495 E11.51926
G1 X165.439 Y119.513 E11.62157
G1 X165.155 Y120.847 E11.66693
G1 X164.695 Y123.139 E11.74468
G1 X164.504 Y124.161 E11.77926
G1 X163.886 Y127.196 E11.88228
G1 X163.694 Y128.067 E11.91195
G1 X163.456 Y128.956 E11.94256
G1 X163.141 Y129.821 E11.97317
G1 X162.752 Y130.656 E12.00381
G1 X162.292 Y131.453 E12.03442
G1 X161.765 Y132.208 E12.06504
G1 X161.174 Y132.914 E12.09567
G1 X160.524 Y133.567 E12.12631
G1 X159.82 Y134.16 E12.15693
G1 X159.067 Y134.69 E12.18755
G1 X158.272 Y135.153 E12.21815
G1 X157.438 Y135.545 E12.2488
G1 X156.489 Y135.89 E12.28239
G1 X156.142 Y135.995 E12.29444
G1 X155.179 Y136.27 E12.32775
G1 X154.283 Y136.484 E12.35839
G1 X153.373 Y136.619 E12.38899
G1 X152.454 Y136.675 E12.41961
G1 X151.533 Y136.652 E12.45026
G1 X150.472 Y136.524 E12.4858
G1 X150.216 Y136.48 E12.49444
G1 X149.885 Y136.417 E12.50565
G1 X149.194 Y136.275 E12.52911
G1 X148.545 Y136.132 E12.55121
G1 X147.655 Y135.895 E12.58185
G1 X146.79 Y135.581 E12.61245
G1 X145.954 Y135.194 E12.64309
G1 X145.156 Y134.736 E12.6737
G1 X144.4 Y134.21 E12.70433
G1 X143.693 Y133.621 E12.73493
G1 X143.039 Y132.972 E12.76558
G1 X142.445 Y132.27 E12.79616
G1 X141.913 Y131.518 E12.8268
G1 X141.449 Y130.723 E12.85742
G1 X141.055 Y129.891 E12.88804
G1 X140.736 Y129.027 E12.91867
G1 X140.492 Y128.139 E12.9493
G1 X140.326 Y127.234 E12.9799
G1 X140.24 Y126.317 E13.01054
G1 X140.233 Y125.397 E13.04114
G1 X140.306 Y124.479 E13.07177
G1 X140.397 Y123.884 E13.09178
G1 X140.577 Y122.894 E13.12525
G1 X140.62 Y122.669 E13.13287
G1 X141.13 Y120.177 E13.21747
G1 X141.663 Y117.546 E13.30676
G1 X142.291 Y114.402 E13.41339
G1 X142.75 Y112.079 E13.49215
G1 X143.488 Y108.266 E13.62133
G1 X143.823 Y106.491 E13.6814
G1 X144.157 Y104.701 E13.74197
G1 X144.512 Y102.752 E13.80786
G1 X144.931 Y100.39 E13.88765
G1 X145.108 Y99.364 E13.92227
G1 X145.421 Y97.509 E13.98484
G1 X145.81 Y94.926 E14.07172
G1 X146.173 Y91.897 E14.17319
G1 X147.51 Y78.921 E14.60706
G1 X147.742 Y76.3 E14.69457
G1 X147.939 Y72.75 E14.81283
G1 X147.964 Y71.971 E14.83875
G1 X147.996 Y70.793 E14.87795
G1 X148.024 Y69.604 E14.9175
G1 X148.053 Y68.152 E14.96581
G1 X148.07 Y67.01 E15.00379
G1 X148.084 Y65.739 E15.04607
G1 X148.102 Y63.236 E15.12932
G1 X148.107 Y60.73 E15.21267
G1 X148.104 Y58.989 E15.27058
G1 X148.09 Y56.669 E15.34774
G1 X148.067 Y53.826 E15.44231
G1 X148.029 Y50.639 E15.54831
G1 X147.981 Y47.342 E15.65798
G1 X147.915 Y43.48 E15.78645
G1 X147.915 Y42.954 E15.80395
G1 X147.955 Y42.034 E15.83458
G1 X148.075 Y41.121 E15.8652
G1 X148.273 Y40.222 E15.89582
G0 F6000 X148.673 Y40.276
G1 F1200 X148.948 Y39.416 E15.92585
G1 X149.299 Y38.583 E15.95592
G1 X149.722 Y37.785 E15.98596
G1 X150.213 Y37.028 E16.01597
G1 X150.77 Y36.317 E16.04601
G1 X151.388 Y35.657 E16.07608
G1 X152.061 Y35.056 E16.10609
G1 X152.785 Y34.516 E16.13613
G1 X153.554 Y34.042 E16.16618
G1 X154.361 Y33.638 E16.19619
G1 X155.202 Y33.307 E16.22625
G1 X156.068 Y33.052 E16.25628
G1 X156.953 Y32.874 E16.2863
G1 X158.115 Y32.762 E16.32513
G1 X158.956 Y32.729 E16.35312
G1 X159.26 Y32.721 E16.36324
G1 X159.899 Y32.715 E16.38449
G1 X160.802 Y32.747 E16.41455
G1 X161.698 Y32.858 E16.44458
G1 X162.581 Y33.048 E16.47462
G1 X163.444 Y33.316 E16.50467
G1 X164.279 Y33.658 E16.53468
G1 X165.081 Y34.074 E16.56473
G1 X165.843 Y34.558 E16.59476
G1 X166.559 Y35.108 E16.62479
G1 X167.224 Y35.719 E16.65482
G1 X167.832 Y36.387 E16.68487
G1 X168.379 Y37.106 E16.71491
G1 X168.86 Y37.87 E16.74494
G1 X169.272 Y38.674 E16.77499
G1 X169.61 Y39.511 E16.80501
G1 X169.944 Y40.668 E16.84506
G1 X170.08 Y41.272 E16.86566
G1 X170.463 Y43.094 E16.92758
G1 X170.811 Y44.583 E16.97844
G1 X170.979 Y45.278 E17.00222
G1 X171.153 Y46.165 E17.03229
G1 X171.26 Y47.325 E17.07103
G1 X171.296 Y48.359 E17.10544
G1 X171.301 Y48.566 E17.11233
G1 X171.315 Y49.612 E17.14712
G1 X171.315 Y49.729 E17.15101
G1 X171.352 Y51.649 E17.21489
G1 X171.342 Y52.066 E17.22876
G1 X171.359 Y53.025 E17.26066
G1 X171.371 Y54.416 E17.30693
G1 X171.368 Y55.2 E17.333
G1 X171.388 Y56.965 E17.39171
G1 X171.381 Y57.196 E17.3994
G1 X171.401 Y58.706 E17.44963
G1 X171.404 Y60.238 E17.50058
G1 X171.387 Y61.677 E17.54844
G1 X171.384 Y63.643 E17.61383
G1 X171.393 Y64.814 E17.65278
G1 X171.378 Y66.512 E17.70926
G1 X171.361 Y67.163 E17.73092
G1 X171.349 Y68.65 E17.78038
G1 X171.333 Y68.956 E17.79057
G1 X171.316 Y70.235 E17.83312
G1 X171.29 Y71.363 E17.87064
G1 X171.271 Y72.021 E17.89254
G1 X171.208 Y73.521 E17.94247
G1 X171.124 Y75.023 E17.99251
G1 X171.059 Y77.146 E18.06315
G1 X171.027 Y77.759 E18.08357
G1 X170.91 Y79.154 E18.13013
G1 X170.555 Y82.557 E18.24393
G1 X170.496 Y83.173 E18.26451
G1 X170.347 Y84.611 E18.31259
G1 X170.11 Y86.829 E18.38678
G1 X169.997 Y88.007 E18.42614
G1 X169.851 Y89.419 E18.47336
G1 X169.616 Y91.625 E18.54714
G1 X169.509 Y92.751 E18.58476
G1 X169.367 Y94.113 E18.63031
G1 X169.321 Y94.509 E18.64357
G1 X169.136 Y96.225 E18.70097
G1 X169.05 Y97.106 E18.73042
G1 X169.015 Y97.41 E18.74059
G1 X168.978 Y97.699 E18.75028
G1 X168.94 Y97.969 E18.75935
G1 X168.711 Y99.444 E18.809
G1 X168.508 Y100.708 E18.85158
G1 X168.421 Y101.227 E18.86908
G1 X168.068 Y103.174 E18.93489
G1 X167.958 Y103.739 E18.95404
G1 X167.679 Y105.374 E19.00921
G1 X167.397 Y107.127 E19.06826
G1 X167.243 Y107.987 E19.09732
G1 X166.825 Y110.244 E19.17366
G1 X166.477 Y111.965 E19.23206
G1 X166.425 Y112.206 E19.24026
G1 X165.942 Y114.75 E19.32639
G1 X165.858 Y115.243 E19.34302
G1 X165.641 Y116.418 E19.38276
G1 X165.014 Y119.593 E19.4904
G1 X164.775 Y120.71 E19.5284
G1 X164.276 Y123.198 E19.6128
G1 X164.078 Y124.252 E19.64846
G1 X163.457 Y127.292 E19.75166
G1 X163.304 Y127.98 E19.77511
G1 X163.069 Y128.852 E19.80514
G1 X162.758 Y129.7 E19.83518
G1 X162.373 Y130.517 E19.86522
G1 X161.917 Y131.297 E19.89528
G1 X161.394 Y132.033 E19.92531
G1 X160.809 Y132.72 E19.95532
G1 X160.164 Y133.353 E19.98538
G1 X159.466 Y133.926 E20.01541
G1 X158.721 Y134.436 E20.04544
G1 X157.933 Y134.877 E20.07547
G1 X157.109 Y135.247 E20.10552
G1 X156.37 Y135.508 E20.13158
G1 X156.032 Y135.61 E20.14333
G1 X155.069 Y135.885 E20.17664
G1 X154.19 Y136.094 E20.20669
G1 X153.297 Y136.225 E20.23671
G1 X152.395 Y136.276 E20.26675
G1 X151.492 Y136.247 E20.2968
G1 X150.54 Y136.13 E20.32871
G1 X150.284 Y136.086 E20.33735
G1 X149.965 Y136.026 E20.34814
G1 X149.28 Y135.884 E20.37141
G1 X148.631 Y135.741 E20.39351
G1 X147.759 Y135.508 E20.42353
G1 X146.91 Y135.198 E20.45359
G1 X146.093 Y134.815 E20.48361
G1 X145.312 Y134.361 E20.51365
G1 X144.574 Y133.84 E20.5437
G1 X143.886 Y133.255 E20.57374
G1 X143.252 Y132.612 E20.60377
G1 X142.677 Y131.915 E20.63382
G1 X142.167 Y131.17 E20.66385
G1 X141.724 Y130.383 E20.69389
G1 X141.352 Y129.56 E20.72393
G1 X141.055 Y128.707 E20.75397
G1 X140.834 Y127.832 E20.78399
G1 X140.692 Y126.94 E20.81403
G1 X140.629 Y126.039 E20.84407
G1 X140.646 Y125.136 E20.87411
G1 X140.791 Y123.955 E20.91368
