;FLAVOR:Marlin
;TIME:5203
;Filament used: 2.71466m
;Layer height: 0.2
;MINX:160.025
;MINY:79.89
;MINZ:0.2
;MAXX:188.418
;MAXY:159.343
;MAXZ:50
;Generated with Cura_SteamEngine 4.12.0
M140 S60
M105
M190 S60
M104 S200
M105
M109 S200
M82 ;absolute extrusion mode
; Ender 3 Custom Start G-code
G92 E0 ; Reset Extruder
G28 ; Home all axes
G29 ; BLTOUCH
G1 Z2.0 F3000 ; Move Z Axis up little to prevent scratching of Heat Bed
G1 X0.1 Y20 Z0.3 F5000.0 ; Move to start position
G1 X0.1 Y200.0 Z0.3 F1500.0 E15 ; Draw the first line
G1 X0.4 Y200.0 Z0.3 F5000.0 ; Move to side a little
G1 X0.4 Y20 Z0.3 F1500.0 E30 ; Draw the second line
G92 E0 ; Reset Extruder
G1 Z2.0 F3000 ; Move Z Axis up little to prevent scratching of Heat Bed
G1 X5 Y20 Z0.3 F5000.0 ; Move over to prevent blob squish
G92 E0
G92 E0
G1 F1500 E-6.5
;LAYER_COUNT:250
;LAYER:0
M107
G0 F6000 X164.993 Y85.969 Z0.2
;TYPE:SKIRT
G1 F1500 E0
G1 F1200 X165.455 Y85.153 E0.03119
G1 X165.986 Y84.38 E0.06238
G1 X166.58 Y83.654 E0.09358
G1 X167.234 Y82.982 E0.12477
G1 X168.084 Y82.258 E0.1619
G1 X168.209 Y82.162 E0.16715
G1 X168.976 Y81.623 E0.19833
G1 X169.787 Y81.151 E0.22954
G1 X170.635 Y80.75 E0.26073
G1 X171.514 Y80.423 E0.29193
G1 X172.417 Y80.172 E0.3231
G1 X173.339 Y79.999 E0.3543
G1 X174.272 Y79.904 E0.38549
G1 X175.21 Y79.89 E0.4167
G1 X175.869 Y79.928 E0.43865
G1 X176.322 Y79.971 E0.45378
G1 X176.582 Y80 E0.46249
G1 X176.863 Y80.035 E0.4719
G1 X177.546 Y80.129 E0.49483
G1 X178.469 Y80.296 E0.52603
G1 X179.374 Y80.541 E0.55722
G1 X180.255 Y80.863 E0.58841
G1 X181.105 Y81.258 E0.61959
G1 X181.919 Y81.725 E0.6508
G1 X182.69 Y82.259 E0.682
G1 X183.412 Y82.857 E0.71318
G1 X184.082 Y83.514 E0.74439
G1 X184.692 Y84.226 E0.77557
G1 X185.207 Y84.937 E0.80477
G1 X185.534 Y85.429 E0.82442
G1 X186.118 Y86.34 E0.86041
G1 X186.624 Y87.113 E0.89114
G1 X187.103 Y87.919 E0.92232
G1 X187.513 Y88.763 E0.95353
G1 X187.849 Y89.639 E0.98474
G1 X188.109 Y90.54 E1.01593
G1 X188.291 Y91.46 E1.04712
G1 X188.395 Y92.392 E1.07831
G1 X188.418 Y93.33 E1.10952
G1 X188.395 Y93.885 E1.12799
G1 X188.385 Y94.032 E1.13289
G1 X188.336 Y94.563 E1.15063
G1 X188.258 Y95.223 E1.17273
G1 X188.036 Y97.041 E1.23365
G1 X188.026 Y97.188 E1.23855
G1 X187.929 Y97.997 E1.26565
G1 X187.901 Y98.166 E1.27135
G1 X187.818 Y98.844 E1.29407
G1 X187.432 Y102.103 E1.40322
G1 X187.006 Y105.779 E1.5263
G1 X186.772 Y107.844 E1.59542
G1 X186.493 Y110.383 E1.68038
G1 X186.191 Y113.221 E1.77531
G1 X186.092 Y114.184 E1.8075
G1 X185.887 Y116.245 E1.87639
G1 X185.721 Y117.982 E1.93443
G1 X185.593 Y119.38 E1.98112
G1 X185.467 Y120.819 E2.02916
G1 X185.372 Y121.948 E2.06685
G1 X185.223 Y123.856 E2.1305
G1 X185.176 Y124.487 E2.15155
G1 X185.123 Y125.256 E2.17718
G1 X184.992 Y127.788 E2.26151
G1 X184.925 Y131.287 E2.37791
G1 X184.924 Y146.538 E2.88516
G1 X184.914 Y147.254 E2.90898
G1 X184.861 Y148.19 E2.94016
G1 X184.728 Y149.118 E2.97134
G1 X184.517 Y150.032 E3.00254
G1 X184.229 Y150.925 E3.03375
G1 X183.865 Y151.789 E3.06493
G1 X183.43 Y152.62 E3.09613
G1 X182.715 Y153.7 E3.13921
G1 X182.616 Y153.832 E3.14469
G1 X182.022 Y154.558 E3.17589
G1 X181.368 Y155.23 E3.20708
G1 X180.659 Y155.844 E3.23828
G1 X179.901 Y156.396 E3.26946
G1 X179.352 Y156.737 E3.29096
G1 X178.454 Y157.26 E3.32552
G1 X178.256 Y157.373 E3.33311
G1 X177.674 Y157.696 E3.35524
G1 X176.835 Y158.116 E3.38645
G1 X175.964 Y158.463 E3.41763
G1 X174.983 Y158.755 E3.45168
G1 X174.228 Y158.944 E3.47756
G1 X173.78 Y159.05 E3.49288
G1 X172.859 Y159.227 E3.52407
G1 X171.926 Y159.325 E3.55527
G1 X170.988 Y159.343 E3.58648
G1 X170.052 Y159.281 E3.61767
G1 X169.125 Y159.139 E3.64887
G1 X168.214 Y158.919 E3.68004
G1 X167.324 Y158.623 E3.71123
G1 X166.463 Y158.251 E3.74243
G1 X165.636 Y157.808 E3.77363
G1 X164.8 Y157.259 E3.8069
G1 X164.641 Y157.144 E3.81342
G1 X163.906 Y156.563 E3.84459
G1 X163.222 Y155.92 E3.87581
G1 X162.596 Y155.222 E3.90699
G1 X162.031 Y154.474 E3.93817
G1 X161.532 Y153.679 E3.96939
G1 X161.103 Y152.846 E4.00056
G1 X160.746 Y151.978 E4.03177
G1 X160.464 Y151.084 E4.06295
G1 X160.26 Y150.168 E4.09416
G1 X160.132 Y149.216 E4.12611
G1 X160.124 Y149.127 E4.12908
G1 X160.089 Y148.576 E4.14745
G1 X160.079 Y148.323 E4.15587
G1 X160.071 Y148.033 E4.16552
G1 X160.062 Y147.293 E4.19013
G1 X160.059 Y145.217 E4.25918
G1 X160.027 Y143.411 E4.31926
G1 X160.025 Y143.206 E4.32608
G1 X160.027 Y141.99 E4.36652
G1 X160.034 Y141.49 E4.38315
G1 X160.039 Y139.043 E4.46454
G1 X160.025 Y137.743 E4.50778
G1 X160.027 Y135.636 E4.57786
G1 X160.035 Y135.053 E4.59725
G1 X160.039 Y132.639 E4.67754
G1 X160.025 Y131.347 E4.72052
G1 X160.027 Y129.132 E4.79419
G1 X160.043 Y128.03 E4.83084
G1 X160.075 Y126.993 E4.86535
G1 X160.096 Y126.509 E4.88146
G1 X160.148 Y125.6 E4.91175
G1 X160.191 Y124.929 E4.93411
G1 X160.342 Y122.985 E4.99896
G1 X160.426 Y121.649 E5.04349
G1 X160.515 Y120.412 E5.08474
G1 X160.603 Y119.33 E5.12084
G1 X160.691 Y118.323 E5.15446
G1 X160.851 Y116.736 E5.20751
G1 X161.014 Y114.944 E5.26736
G1 X161.102 Y113.873 E5.3031
G1 X161.12 Y113.675 E5.30972
G1 X161.3 Y111.889 E5.36942
G1 X161.431 Y110.756 E5.40736
G1 X161.607 Y108.934 E5.46824
G1 X161.637 Y108.717 E5.47552
G1 X161.761 Y107.489 E5.51657
G1 X162.012 Y105.212 E5.59277
G1 X162.147 Y104.148 E5.62844
G1 X162.427 Y101.671 E5.71135
G1 X162.51 Y100.843 E5.73903
G1 X162.726 Y99.002 E5.80068
G1 X162.807 Y98.397 E5.82098
G1 X163.097 Y95.994 E5.90148
G1 X163.202 Y95.03 E5.93374
G1 X163.349 Y93.825 E5.97411
G1 X163.433 Y93.087 E5.99882
G1 X163.489 Y92.66 E6.01314
G1 X163.763 Y90.415 E6.08836
G1 X163.88 Y89.534 E6.11792
G1 X164.043 Y88.61 E6.14913
G1 X164.284 Y87.704 E6.18031
G1 X164.601 Y86.821 E6.21152
G1 X164.993 Y85.969 E6.24271
G0 F6000 X165.38 Y86.091
G1 F1200 X165.84 Y85.294 E6.27332
G1 X166.367 Y84.539 E6.30394
G1 X166.958 Y83.833 E6.33456
G1 X167.608 Y83.181 E6.36518
G1 X168.328 Y82.575 E6.39648
G1 X168.453 Y82.479 E6.40173
G1 X169.206 Y81.951 E6.43231
G1 X170.003 Y81.49 E6.46294
G1 X170.837 Y81.099 E6.49357
G1 X171.702 Y80.783 E6.5242
G1 X172.59 Y80.543 E6.5548
G1 X173.497 Y80.381 E6.58544
G1 X174.414 Y80.298 E6.61607
G1 X175.334 Y80.295 E6.64667
G1 X175.834 Y80.326 E6.66333
G1 X176.278 Y80.368 E6.67816
G1 X176.538 Y80.397 E6.68686
G1 X176.808 Y80.431 E6.69591
G1 X177.491 Y80.525 E6.71884
G1 X178.397 Y80.69 E6.74947
G1 X179.285 Y80.933 E6.78009
G1 X180.149 Y81.252 E6.81073
G1 X180.981 Y81.645 E6.84133
G1 X181.777 Y82.109 E6.87198
G1 X182.529 Y82.639 E6.90258
G1 X183.232 Y83.234 E6.93321
G1 X183.881 Y83.887 E6.96383
G1 X184.471 Y84.593 E6.99443
G1 X184.874 Y85.159 E7.01754
G1 X185.306 Y85.812 E7.04358
G1 X185.815 Y86.608 E7.07501
G1 X186.289 Y87.333 E7.10382
G1 X186.759 Y88.124 E7.13442
G1 X187.159 Y88.953 E7.16503
G1 X187.485 Y89.814 E7.19566
G1 X187.736 Y90.7 E7.22628
G1 X187.908 Y91.604 E7.25689
G1 X188.002 Y92.52 E7.28752
G1 X187.996 Y93.857 E7.33199
G1 X187.986 Y94.004 E7.33689
G1 X187.938 Y94.516 E7.35399
G1 X187.861 Y95.175 E7.37606
G1 X187.646 Y96.942 E7.43526
G1 X187.629 Y97.14 E7.44187
G1 X187.532 Y97.949 E7.46897
G1 X187.505 Y98.111 E7.47443
G1 X187.421 Y98.796 E7.49739
G1 X187.035 Y102.057 E7.60661
G1 X186.609 Y105.733 E7.72969
G1 X186.375 Y107.799 E7.79884
G1 X186.096 Y110.339 E7.88383
G1 X185.793 Y113.178 E7.97879
G1 X185.694 Y114.143 E8.01106
G1 X185.489 Y116.206 E8.08001
G1 X185.323 Y117.944 E8.13808
G1 X185.195 Y119.343 E8.18481
G1 X185.068 Y120.784 E8.23292
G1 X184.973 Y121.917 E8.27074
G1 X184.824 Y123.825 E8.33439
G1 X184.781 Y124.408 E8.35383
G1 X184.726 Y125.207 E8.38047
G1 X184.591 Y127.789 E8.46647
G1 X184.525 Y131.28 E8.5826
G1 X184.524 Y146.532 E9.08988
G1 X184.514 Y147.248 E9.1137
G1 X184.461 Y148.167 E9.14432
G1 X184.329 Y149.078 E9.17493
G1 X184.118 Y149.974 E9.20555
G1 X183.83 Y150.849 E9.23619
G1 X183.467 Y151.695 E9.26681
G1 X183.032 Y152.507 E9.29744
G1 X182.395 Y153.46 E9.33557
G1 X182.296 Y153.592 E9.34106
G1 X181.712 Y154.304 E9.37169
G1 X181.069 Y154.962 E9.40229
G1 X180.371 Y155.563 E9.43292
G1 X179.623 Y156.1 E9.46355
G1 X179.151 Y156.392 E9.48201
G1 X178.253 Y156.915 E9.51657
G1 X177.48 Y157.346 E9.54601
G1 X176.656 Y157.758 E9.57665
G1 X175.8 Y158.096 E9.60726
G1 X174.886 Y158.367 E9.63897
G1 X174.136 Y158.555 E9.66468
G1 X173.688 Y158.661 E9.67999
G1 X172.783 Y158.834 E9.71064
G1 X171.868 Y158.928 E9.74123
G1 X170.947 Y158.942 E9.77187
G1 X170.029 Y158.876 E9.80248
G1 X169.12 Y158.73 E9.8331
G1 X168.227 Y158.507 E9.86372
G1 X167.356 Y158.206 E9.89437
G1 X166.515 Y157.831 E9.92499
G1 X165.71 Y157.385 E9.9556
G1 X165.035 Y156.935 E9.98258
G1 X164.876 Y156.82 E9.98911
G1 X164.154 Y156.248 E10.01975
G1 X163.484 Y155.617 E10.05036
G1 X162.872 Y154.929 E10.08098
G1 X162.322 Y154.191 E10.1116
G1 X161.838 Y153.408 E10.14221
G1 X161.424 Y152.586 E10.17283
G1 X161.082 Y151.731 E10.20345
G1 X160.816 Y150.849 E10.23409
G1 X160.628 Y149.948 E10.26471
G1 X160.531 Y149.18 E10.29045
G1 X160.523 Y149.091 E10.29343
G1 X160.488 Y148.561 E10.31109
G1 X160.478 Y148.308 E10.31951
G1 X160.471 Y148.028 E10.32883
G1 X160.462 Y147.293 E10.35328
G1 X160.459 Y145.21 E10.42256
G1 X160.425 Y143.206 E10.48922
G1 X160.427 Y141.996 E10.52947
G1 X160.434 Y141.496 E10.5461
G1 X160.439 Y139.022 E10.62838
G1 X160.425 Y137.744 E10.67089
G1 X160.427 Y135.642 E10.74081
G1 X160.435 Y135.059 E10.7602
G1 X160.439 Y132.64 E10.84065
G1 X160.425 Y131.347 E10.88366
G1 X160.427 Y129.138 E10.95713
G1 X160.447 Y127.852 E10.99991
G1 X160.474 Y127.005 E11.0281
G1 X160.501 Y126.416 E11.04771
G1 X160.547 Y125.625 E11.07406
G1 X160.59 Y124.96 E11.09623
G1 X160.744 Y122.974 E11.16248
G1 X160.825 Y121.678 E11.20567
G1 X160.914 Y120.444 E11.24682
G1 X161.002 Y119.364 E11.28286
G1 X161.089 Y118.363 E11.31628
G1 X161.257 Y116.692 E11.37213
G1 X161.404 Y115.078 E11.42604
G1 X161.5 Y113.905 E11.46518
G1 X161.68 Y112.095 E11.52568
G1 X161.829 Y110.79 E11.56937
G1 X162.005 Y108.972 E11.63012
G1 X162.035 Y108.759 E11.63727
G1 X162.159 Y107.532 E11.67829
G1 X162.409 Y105.263 E11.75421
G1 X162.537 Y104.252 E11.78811
G1 X162.827 Y101.686 E11.874
G1 X162.907 Y100.889 E11.90064
G1 X163.101 Y99.227 E11.95629
G1 X163.211 Y98.395 E11.9842
G1 X163.486 Y96.116 E12.06055
G1 X163.599 Y95.078 E12.09528
G1 X163.746 Y93.873 E12.13566
G1 X163.83 Y93.132 E12.16046
G1 X163.888 Y92.689 E12.17532
G1 X164.159 Y90.468 E12.24974
G1 X164.276 Y89.587 E12.2793
G1 X164.437 Y88.68 E12.30994
G1 X164.676 Y87.791 E12.34056
G1 X164.991 Y86.926 E12.37117
G1 X165.38 Y86.091 E12.40181
G0 F6000 X165.767 Y86.215
G1 F1200 X166.224 Y85.436 E12.43185
G1 X166.748 Y84.7 E12.4619
G1 X167.335 Y84.014 E12.49193
G1 X167.98 Y83.383 E12.52194
G1 X168.571 Y82.892 E12.5475
G1 X168.696 Y82.796 E12.55274
G1 X169.436 Y82.279 E12.58276
G1 X170.219 Y81.828 E12.61282
G1 X171.038 Y81.449 E12.64283
G1 X171.888 Y81.144 E12.67287
G1 X172.762 Y80.915 E12.70292
G1 X173.652 Y80.764 E12.73294
G1 X174.553 Y80.692 E12.76301
G1 X175.799 Y80.725 E12.80446
G1 X176.234 Y80.766 E12.819
G1 X176.494 Y80.795 E12.8277
G1 X176.754 Y80.827 E12.83641
G1 X177.437 Y80.921 E12.85934
G1 X178.325 Y81.084 E12.88937
G1 X179.196 Y81.324 E12.91942
G1 X180.041 Y81.641 E12.94944
G1 X180.856 Y82.031 E12.97949
G1 X181.633 Y82.492 E13.00954
G1 X182.366 Y83.02 E13.03958
G1 X183.049 Y83.61 E13.0696
G1 X183.677 Y84.258 E13.09961
G1 X184.246 Y84.96 E13.12967
G1 X184.541 Y85.38 E13.14674
G1 X184.969 Y86.027 E13.17254
G1 X185.503 Y86.862 E13.20551
G1 X185.954 Y87.552 E13.23292
G1 X186.415 Y88.328 E13.26295
G1 X186.805 Y89.143 E13.293
G1 X187.122 Y89.989 E13.32304
G1 X187.362 Y90.859 E13.35306
G1 X187.525 Y91.747 E13.38309
G1 X187.608 Y92.647 E13.41315
G1 X187.596 Y93.83 E13.4525
G1 X187.586 Y93.977 E13.4574
G1 X187.541 Y94.47 E13.47387
G1 X187.464 Y95.126 E13.49583
G1 X187.236 Y96.994 E13.55843
G1 X187.231 Y97.092 E13.56169
G1 X187.134 Y97.901 E13.58879
G1 X187.107 Y98.063 E13.59425
G1 X186.634 Y102.039 E13.72743
G1 X186.211 Y105.687 E13.84957
G1 X185.977 Y107.754 E13.91876
G1 X185.698 Y110.296 E14.00382
G1 X185.396 Y113.136 E14.09881
G1 X185.296 Y114.102 E14.13111
G1 X185.091 Y116.166 E14.20009
G1 X184.925 Y117.906 E14.25823
G1 X184.796 Y119.307 E14.30502
G1 X184.67 Y120.75 E14.3532
G1 X184.569 Y121.95 E14.39325
G1 X184.381 Y124.381 E14.47435
G1 X184.324 Y125.22 E14.50232
G1 X184.192 Y127.76 E14.58692
G1 X184.125 Y131.272 E14.70375
G1 X184.124 Y146.526 E15.2111
G1 X184.114 Y147.242 E15.23491
G1 X184.061 Y148.144 E15.26497
G1 X183.929 Y149.037 E15.29499
G1 X183.719 Y149.916 E15.32505
G1 X183.431 Y150.772 E15.35509
G1 X183.069 Y151.599 E15.38511
G1 X182.635 Y152.391 E15.41515
G1 X182.075 Y153.22 E15.44843
G1 X181.976 Y153.352 E15.45391
G1 X181.403 Y154.05 E15.48395
G1 X180.77 Y154.694 E15.51398
G1 X180.083 Y155.28 E15.54402
G1 X179.346 Y155.803 E15.57407
G1 X178.949 Y156.046 E15.58956
G1 X177.868 Y156.674 E15.63114
G1 X177.286 Y156.997 E15.65328
G1 X176.477 Y157.399 E15.68332
G1 X175.637 Y157.729 E15.71334
G1 X174.79 Y157.978 E15.7427
G1 X174.456 Y158.061 E15.75415
G1 X174.044 Y158.166 E15.76829
G1 X173.596 Y158.272 E15.7836
G1 X172.708 Y158.441 E15.81367
G1 X171.81 Y158.53 E15.84368
G1 X170.907 Y158.54 E15.87372
G1 X170.006 Y158.47 E15.90377
G1 X169.116 Y158.321 E15.93379
G1 X168.242 Y158.093 E15.96383
G1 X167.391 Y157.789 E15.99389
G1 X166.571 Y157.411 E16.02392
G1 X165.788 Y156.962 E16.05394
G1 X165.269 Y156.611 E16.07478
G1 X165.11 Y156.496 E16.0813
G1 X164.403 Y155.935 E16.11132
G1 X163.747 Y155.313 E16.14139
G1 X163.15 Y154.636 E16.17141
G1 X162.614 Y153.909 E16.20145
G1 X162.145 Y153.137 E16.2315
G1 X161.746 Y152.327 E16.26153
G1 X161.421 Y151.484 E16.29158
G1 X161.171 Y150.617 E16.32159
G1 X160.999 Y149.73 E16.35164
G1 X160.929 Y149.144 E16.37127
G1 X160.921 Y149.055 E16.37424
G1 X160.888 Y148.545 E16.39124
G1 X160.878 Y148.292 E16.39966
G1 X160.871 Y148.023 E16.40861
G1 X160.862 Y147.292 E16.43293
G1 X160.859 Y145.202 E16.50244
G1 X160.825 Y143.206 E16.56884
G1 X160.827 Y142.001 E16.60892
G1 X160.834 Y141.502 E16.62551
G1 X160.839 Y139.023 E16.70797
G1 X160.825 Y137.744 E16.75051
G1 X160.827 Y135.647 E16.82026
G1 X160.835 Y135.065 E16.83961
G1 X160.839 Y132.641 E16.92024
G1 X160.825 Y131.347 E16.96328
G1 X160.827 Y129.144 E17.03655
G1 X160.847 Y127.865 E17.0791
G1 X160.88 Y126.867 E17.11231
G1 X160.901 Y126.439 E17.12656
G1 X160.946 Y125.65 E17.15284
G1 X160.988 Y124.991 E17.17481
G1 X161.145 Y122.963 E17.24246
G1 X161.224 Y121.706 E17.28435
G1 X161.313 Y120.477 E17.32534
G1 X161.4 Y119.398 E17.36134
G1 X161.487 Y118.403 E17.39456
G1 X161.649 Y116.787 E17.44858
G1 X161.811 Y115.016 E17.50773
G1 X161.899 Y113.938 E17.5437
G1 X162.078 Y112.135 E17.60396
G1 X162.094 Y111.981 E17.60911
G1 X162.228 Y110.818 E17.64805
G1 X162.403 Y109.011 E17.70843
G1 X162.433 Y108.798 E17.71559
G1 X162.557 Y107.576 E17.75644
G1 X162.806 Y105.313 E17.83216
G1 X162.929 Y104.342 E17.86472
G1 X163.23 Y101.679 E17.95385
G1 X163.305 Y100.935 E17.97872
G1 X163.519 Y99.108 E18.0399
G1 X163.607 Y98.448 E18.06205
G1 X163.878 Y96.207 E18.13713
G1 X163.996 Y95.127 E18.17326
G1 X164.143 Y93.922 E18.21364
G1 X164.228 Y93.177 E18.23858
G1 X164.256 Y92.948 E18.24625
G1 X164.299 Y92.634 E18.25679
G1 X164.556 Y90.52 E18.32762
G1 X164.673 Y89.639 E18.35718
G1 X164.831 Y88.75 E18.38721
G1 X165.068 Y87.878 E18.41727
G1 X165.38 Y87.031 E18.44729
G1 X165.767 Y86.215 E18.47733
G0 F6000 X175.912 Y94.032
G1 F1200 X175.891 Y94.203 E18.48306
G1 X175.829 Y94.19 E18.48517
G1 X175.912 Y94.032 E18.4911
G0 F6000 X176.173 Y93.703
G1 F1200 X176.341 Y93.811 E18.49774
G1 X176.24 Y94.649 E18.52582
G1 X175.344 Y94.537 E18.55585
G1 X175.398 Y94.098 E18.57056
G1 X175.475 Y94.005 E18.57458
G1 X175.659 Y93.652 E18.58782
G1 X175.755 Y93.308 E18.5997
G1 X175.872 Y93.444 E18.60566
G1 X176.173 Y93.703 E18.61887
G0 F6000 X176.434 Y93.4
G1 F1200 X176.749 Y93.54 E18.63034
G1 X176.778 Y93.544 E18.63131
G1 X176.588 Y95.096 E18.68331
G1 X174.902 Y94.886 E18.73982
G1 X174.944 Y94.515 E18.75224
G1 X175.013 Y93.95 E18.77117
G1 X175.12 Y93.82 E18.77677
G1 X175.304 Y93.467 E18.79001
G1 X175.371 Y93.229 E18.79824
G1 X175.444 Y92.103 E18.83577
G1 X175.412 Y91.869 E18.84362
G1 X175.309 Y91.57 E18.85414
G1 X175.314 Y91.53 E18.85548
G1 X175.583 Y91.563 E18.8645
G1 X175.947 Y92.849 E18.90895
