;FLAVOR:Marlin
;TIME:7086
;Filament used: 3.80384m
;Layer height: 0.16
;MINX:44.765
;MINY:90.875
;MINZ:0.2
;MAXX:178.855
;MAXY:134.125
;MAXZ:19.84
;Generated with Cura_SteamEngine 4.12.0
M140 S60
M105
M190 S60
M104 S200
M105
M109 S200
M82 ;absolute extrusion mode
; Ender 3 Custom Start G-code
G92 E0 ; Reset Extruder
G28 ; Home all axes
G29 ; BLTOUCH
G1 Z2.0 F3000 ; Move Z Axis up little to prevent scratching of Heat Bed
G1 X0.1 Y20 Z0.3 F5000.0 ; Move to start position
G1 X0.1 Y200.0 Z0.3 F1500.0 E15 ; Draw the first line
G1 X0.4 Y200.0 Z0.3 F5000.0 ; Move to side a little
G1 X0.4 Y20 Z0.3 F1500.0 E30 ; Draw the second line
G92 E0 ; Reset Extruder
G1 Z2.0 F3000 ; Move Z Axis up little to prevent scratching of Heat Bed
G1 X5 Y20 Z0.3 F5000.0 ; Move over to prevent blob squish
G92 E0
G92 E0
G1 F1500 E-6.5
;LAYER_COUNT:115
;LAYER:0
M107
G0 F6000 X53.469 Y93.588 Z0.2
;TYPE:SKIRT
G1 F1500 E0
G1 F1200 X54.548 Y92.971 E0.04134
G1 X54.833 Y92.829 E0.05193
G1 X55.14 Y92.682 E0.06325
G1 X56.004 Y92.294 E0.09475
G1 X57.203 Y91.84 E0.1374
G1 X57.639 Y91.705 E0.15258
G1 X57.833 Y91.648 E0.1593
G1 X58.12 Y91.568 E0.16921
G1 X58.77 Y91.396 E0.19157
G1 X59.701 Y91.192 E0.22327
G1 X59.96 Y91.147 E0.23202
G1 X60.386 Y91.082 E0.24635
G1 X60.977 Y91.003 E0.26618
G1 X62.21 Y90.908 E0.30731
G1 X63.732 Y90.877 E0.35795
G1 X63.956 Y90.875 E0.3654
G1 X73.546 Y90.875 E0.68436
G1 X74.549 Y90.888 E0.71772
G1 X75.125 Y90.911 E0.7369
G1 X75.47 Y90.934 E0.7484
G1 X76.558 Y91.062 E0.78483
G1 X76.862 Y91.113 E0.79509
G1 X77.225 Y91.18 E0.80736
G1 X77.709 Y91.278 E0.82379
G1 X78.619 Y91.503 E0.85497
G1 X79.256 Y91.711 E0.87725
G1 X80.005 Y91.981 E0.90373
G1 X80.376 Y92.122 E0.91694
G1 X81.328 Y92.504 E0.95105
G1 X83.774 Y93.448 E1.03826
G1 X86.116 Y94.276 E1.12088
G1 X88.515 Y95.048 E1.2047
G1 X90.948 Y95.757 E1.28898
G1 X93.38 Y96.391 E1.37258
G1 X95.821 Y96.955 E1.4559
G1 X98.346 Y97.463 E1.54157
G1 X100.773 Y97.878 E1.62346
G1 X103.268 Y98.234 E1.70729
G1 X105.761 Y98.518 E1.79074
G1 X108.285 Y98.734 E1.875
G1 X110.804 Y98.878 E1.95891
G1 X113.31 Y98.95 E2.0423
G1 X114.688 Y98.96 E2.08813
G1 X118.414 Y98.96 E2.21206
G1 X120.984 Y98.924 E2.29755
G1 X123.267 Y98.817 E2.37356
G1 X124.535 Y98.77 E2.41577
G1 X124.894 Y98.762 E2.42771
G1 X126.005 Y98.757 E2.46466
G1 X128.543 Y98.714 E2.54909
G1 X131.076 Y98.599 E2.63342
G1 X133.621 Y98.413 E2.7183
G1 X136.09 Y98.161 E2.80084
G1 X138.637 Y97.827 E2.88628
G1 X139.117 Y97.753 E2.90243
G1 X140.423 Y97.56 E2.94634
G1 X141.683 Y97.448 E2.98842
G1 X142.125 Y97.434 E3.00312
G1 X142.535 Y97.428 E3.01676
G1 X143.216 Y97.433 E3.03941
G1 X144.568 Y97.458 E3.08439
G1 X146.179 Y97.434 E3.13798
G1 X146.41 Y97.44 E3.14566
G1 X147.172 Y97.435 E3.17101
G1 X148.497 Y97.445 E3.21508
G1 X149.278 Y97.456 E3.24106
G1 X151.809 Y97.458 E3.32524
G1 X152.903 Y97.445 E3.36163
G1 X153.452 Y97.445 E3.37989
G1 X154.109 Y97.455 E3.40174
G1 X156.712 Y97.457 E3.48832
G1 X157.044 Y97.45 E3.49936
G1 X157.78 Y97.444 E3.52384
G1 X158.395 Y97.444 E3.5443
G1 X158.942 Y97.452 E3.56249
G1 X161.605 Y97.461 E3.65107
G1 X161.823 Y97.456 E3.65832
G1 X162.849 Y97.447 E3.69244
G1 X163.6 Y97.449 E3.71742
G1 X164.243 Y97.462 E3.73881
G1 X165.179 Y97.521 E3.77001
G1 X166.107 Y97.66 E3.80122
G1 X167.019 Y97.877 E3.8324
G1 X167.91 Y98.17 E3.86359
G1 X169.01 Y98.657 E3.9036
G1 X170.281 Y99.305 E3.95105
G1 X170.518 Y99.43 E3.95997
G1 X171.554 Y99.945 E3.99845
G1 X171.956 Y100.153 E4.0135
G1 X172.493 Y100.451 E4.03393
G1 X172.742 Y100.598 E4.04354
G1 X173.011 Y100.761 E4.05401
G1 X173.227 Y100.897 E4.0625
G1 X173.999 Y101.431 E4.09372
G1 X174.722 Y102.027 E4.12488
G1 X175.392 Y102.684 E4.15609
G1 X176.214 Y103.671 E4.19881
G1 X176.392 Y103.912 E4.20878
G1 X176.911 Y104.68 E4.23961
G1 X177.076 Y104.948 E4.25008
G1 X177.533 Y105.767 E4.28127
G1 X177.799 Y106.334 E4.3021
G1 X178.139 Y107.208 E4.33329
G1 X178.374 Y107.993 E4.36055
G1 X178.449 Y108.282 E4.37048
G1 X178.615 Y109.023 E4.39573
G1 X178.661 Y109.269 E4.40406
G1 X178.794 Y110.198 E4.43527
G1 X178.84 Y110.879 E4.45797
G1 X178.846 Y111.039 E4.4633
G1 X178.854 Y111.424 E4.47611
G1 X178.855 Y111.938 E4.4932
G1 X178.848 Y112.907 E4.52543
G1 X178.829 Y113.798 E4.55507
G1 X178.769 Y114.734 E4.58627
G1 X178.629 Y115.661 E4.61745
G1 X178.49 Y116.277 E4.63845
G1 X178.393 Y116.657 E4.6515
G1 X178.295 Y117.016 E4.66387
G1 X178.26 Y117.136 E4.66803
G1 X177.959 Y118.024 E4.69922
G1 X177.584 Y118.884 E4.73042
G1 X177.137 Y119.708 E4.7616
G1 X176.638 Y120.469 E4.79187
G1 X176.318 Y120.915 E4.81013
G1 X176.126 Y121.173 E4.82082
G1 X175.766 Y121.645 E4.84057
G1 X175.166 Y122.366 E4.87176
G1 X174.507 Y123.033 E4.90295
G1 X173.793 Y123.641 E4.93414
G1 X173.03 Y124.187 E4.96535
G1 X172.224 Y124.665 E4.99651
G1 X171.372 Y125.076 E5.02798
G1 X170.649 Y125.387 E5.05415
G1 X170.619 Y125.404 E5.0553
G1 X170.043 Y125.668 E5.07638
G1 X168.43 Y126.355 E5.13469
G1 X167.638 Y126.668 E5.16301
G1 X166.74 Y126.939 E5.19421
G1 X165.822 Y127.133 E5.22542
G1 X164.891 Y127.247 E5.25661
G1 X164.252 Y127.279 E5.27789
G1 X163.278 Y127.3 E5.3103
G1 X162.894 Y127.302 E5.32307
G1 X161.854 Y127.288 E5.35766
G1 X159.011 Y127.293 E5.45222
G1 X158.312 Y127.304 E5.47547
G1 X157.983 Y127.304 E5.48642
G1 X157.263 Y127.294 E5.51036
G1 X154.596 Y127.295 E5.59907
G1 X154.418 Y127.298 E5.60499
G1 X153.255 Y127.306 E5.64367
G1 X153.026 Y127.305 E5.65129
G1 X152.241 Y127.294 E5.6774
G1 X149.549 Y127.297 E5.76694
G1 X149.411 Y127.3 E5.77153
G1 X148.532 Y127.307 E5.80077
G1 X148.013 Y127.304 E5.81803
G1 X147.415 Y127.293 E5.83792
G1 X144.344 Y127.284 E5.94006
G1 X143.167 Y127.3 E5.97921
G1 X142.781 Y127.298 E5.99205
G1 X142.228 Y127.286 E6.01045
G1 X140.993 Y127.19 E6.05165
G1 X140.321 Y127.098 E6.07421
G1 X138.747 Y126.866 E6.12713
G1 X136.248 Y126.567 E6.21084
G1 X133.739 Y126.34 E6.29463
G1 X131.342 Y126.188 E6.37451
G1 X129.566 Y126.099 E6.43366
G1 X126.91 Y126.003 E6.52205
G1 X124.978 Y125.982 E6.58631
G1 X121.283 Y125.987 E6.70921
G1 X118.83 Y125.987 E6.7908
G1 X116.222 Y126.024 E6.87755
G1 X113.7 Y126.131 E6.96151
G1 X111.205 Y126.308 E7.0447
G1 X108.707 Y126.556 E7.12819
G1 X106.218 Y126.874 E7.21165
G1 X103.709 Y127.268 E7.29612
G1 X101.243 Y127.727 E7.37955
G1 X98.792 Y128.254 E7.46293
G1 X96.332 Y128.857 E7.54718
G1 X93.898 Y129.527 E7.63114
G1 X91.519 Y130.255 E7.71389
G1 X89.116 Y131.066 E7.79824
G1 X86.756 Y131.936 E7.8819
G1 X84.261 Y132.938 E7.97133
G1 X83.476 Y133.266 E7.99962
G1 X82.596 Y133.59 E8.03081
G1 X81.618 Y133.854 E8.06451
G1 X80.695 Y134.018 E8.09569
G1 X79.543 Y134.112 E8.13413
G1 X79.225 Y134.121 E8.14471
G1 X78.914 Y134.125 E8.15505
G1 X75.794 Y134.124 E8.25883
G1 X75.095 Y134.114 E8.28208
G1 X74.158 Y134.06 E8.31329
G1 X73.23 Y133.928 E8.34447
G1 X72.316 Y133.716 E8.37568
G1 X71.424 Y133.427 E8.40686
G1 X70.559 Y133.064 E8.43806
G1 X69.765 Y132.649 E8.46786
G1 X68.566 Y131.959 E8.51387
G1 X66.521 Y130.814 E8.59182
G1 X64.293 Y129.644 E8.67552
G1 X62.031 Y128.537 E8.75929
G1 X59.742 Y127.495 E8.84294
G1 X57.412 Y126.513 E8.92703
G1 X55.914 Y125.921 E8.98061
G1 X55.156 Y125.588 E9.00814
G1 X54.921 Y125.474 E9.01683
G1 X54.451 Y125.232 E9.03441
G1 X53.94 Y124.953 E9.05378
G1 X53.45 Y124.669 E9.07261
G1 X53.315 Y124.586 E9.07788
G1 X52.788 Y124.24 E9.09885
G1 X52.422 Y123.985 E9.11369
G1 X51.97 Y123.653 E9.13234
G1 X51.792 Y123.515 E9.13983
G1 X51.376 Y123.176 E9.15768
G1 X50.923 Y122.788 E9.17752
G1 X50.229 Y122.14 E9.2091
G1 X49.898 Y121.799 E9.22491
G1 X49.73 Y121.62 E9.23307
G1 X49.551 Y121.424 E9.2419
G1 X49.188 Y121.018 E9.26001
G1 X48.382 Y120.002 E9.30315
G1 X47.849 Y119.242 E9.33402
G1 X47.624 Y118.909 E9.34739
G1 X47.449 Y118.639 E9.35809
G1 X46.834 Y117.56 E9.3994
G1 X46.603 Y117.091 E9.41679
G1 X46.429 Y116.715 E9.43057
G1 X46.158 Y116.104 E9.4528
G1 X45.814 Y115.231 E9.48401
G1 X45.62 Y114.61 E9.50565
G1 X45.403 Y113.835 E9.53241
G1 X45.324 Y113.537 E9.54267
G1 X45.173 Y112.933 E9.56338
G1 X44.957 Y111.834 E9.60063
G1 X44.924 Y111.605 E9.60832
G1 X44.874 Y111.204 E9.62176
G1 X44.836 Y110.848 E9.63367
G1 X44.783 Y110.124 E9.65782
G1 X44.772 Y109.799 E9.66863
G1 X44.767 Y109.547 E9.67702
G1 X44.765 Y109.299 E9.68526
G1 X44.766 Y108.927 E9.69764
G1 X44.818 Y107.891 E9.73214
G1 X44.906 Y106.987 E9.76235
G1 X44.947 Y106.625 E9.77446
G1 X44.991 Y106.289 E9.78574
G1 X45.237 Y105.007 E9.82915
G1 X45.343 Y104.59 E9.84346
G1 X45.459 Y104.169 E9.85799
G1 X45.66 Y103.492 E9.88148
G1 X46.074 Y102.337 E9.92229
G1 X46.184 Y102.077 E9.93167
G1 X46.355 Y101.692 E9.94569
G1 X46.75 Y100.861 E9.97629
G1 X47.19 Y100.033 E10.00748
G1 X47.535 Y99.484 E10.02904
G1 X47.958 Y98.852 E10.05434
G1 X48.143 Y98.583 E10.06519
G1 X48.531 Y98.039 E10.08742
G1 X49.294 Y97.086 E10.12802
G1 X49.492 Y96.865 E10.13789
G1 X49.701 Y96.639 E10.14813
G1 X49.9 Y96.429 E10.15775
G1 X50.451 Y95.886 E10.18348
G1 X50.655 Y95.699 E10.19269
G1 X50.962 Y95.428 E10.20631
G1 X51.403 Y95.053 E10.22556
G1 X52.13 Y94.485 E10.25625
G1 X52.302 Y94.362 E10.26328
G1 X52.703 Y94.087 E10.27945
G1 X52.883 Y93.968 E10.28663
G1 X53.469 Y93.588 E10.30986
G0 F6000 X53.687 Y93.923
G1 F1200 X54.727 Y93.329 E10.34969
G1 X55.012 Y93.187 E10.36028
G1 X55.311 Y93.044 E10.37131
G1 X55.5 Y92.957 E10.37823
G1 X56.167 Y92.659 E10.40252
G1 X57.322 Y92.222 E10.4436
G1 X57.752 Y92.089 E10.45857
G1 X57.946 Y92.032 E10.46529
G1 X58.222 Y91.955 E10.47482
G1 X58.872 Y91.783 E10.49719
G1 X59.769 Y91.586 E10.52773
G1 X60.028 Y91.541 E10.53648
G1 X60.439 Y91.478 E10.55031
G1 X61.03 Y91.399 E10.57014
G1 X62.218 Y91.308 E10.60977
G1 X63.74 Y91.277 E10.6604
G1 X63.956 Y91.275 E10.66758
G1 X73.546 Y91.275 E10.98655
G1 X74.543 Y91.288 E11.01971
G1 X75.098 Y91.31 E11.03818
G1 X75.443 Y91.333 E11.04968
G1 X76.492 Y91.456 E11.08481
G1 X76.796 Y91.507 E11.09507
G1 X77.146 Y91.572 E11.10691
G1 X77.63 Y91.67 E11.12333
G1 X78.523 Y91.892 E11.15394
G1 X79.121 Y92.087 E11.17486
G1 X79.87 Y92.357 E11.20134
G1 X80.227 Y92.493 E11.21404
G1 X81.183 Y92.877 E11.24831
G1 X83.633 Y93.822 E11.33565
G1 X86.008 Y94.662 E11.41944
G1 X88.376 Y95.424 E11.50217
G1 X90.85 Y96.145 E11.58788
G1 X93.294 Y96.782 E11.67189
G1 X95.724 Y97.343 E11.75483
G1 X98.27 Y97.856 E11.84122
G1 X100.72 Y98.275 E11.92389
G1 X103.202 Y98.629 E12.00727
G1 X105.749 Y98.919 E12.09253
G1 X108.229 Y99.131 E12.17532
G1 X110.769 Y99.276 E12.25994
G1 X113.344 Y99.35 E12.34562
G1 X114.685 Y99.36 E12.39022
G1 X118.42 Y99.36 E12.51445
G1 X121.008 Y99.323 E12.60053
G1 X123.281 Y99.216 E12.67622
G1 X124.549 Y99.169 E12.71842
G1 X124.896 Y99.162 E12.72996
G1 X126.014 Y99.157 E12.76715
G1 X128.568 Y99.114 E12.85211
G1 X131.087 Y99 E12.93598
G1 X133.654 Y98.811 E13.02159
G1 X136.15 Y98.557 E13.10503
G1 X138.663 Y98.228 E13.18933
G1 X139.175 Y98.149 E13.20656
G1 X140.481 Y97.956 E13.25047
G1 X141.695 Y97.847 E13.29101
G1 X142.137 Y97.833 E13.30572
G1 X142.532 Y97.828 E13.31886
G1 X143.208 Y97.833 E13.34134
G1 X144.572 Y97.858 E13.38671
G1 X146.185 Y97.834 E13.44037
G1 X146.405 Y97.84 E13.44769
G1 X147.169 Y97.835 E13.4731
G1 X148.491 Y97.845 E13.51707
G1 X149.271 Y97.856 E13.54302
G1 X151.814 Y97.858 E13.6276
G1 X152.905 Y97.845 E13.66389
G1 X153.445 Y97.845 E13.68185
G1 X154.102 Y97.855 E13.7037
G1 X156.72 Y97.857 E13.79078
G1 X157.048 Y97.85 E13.80169
G1 X157.784 Y97.844 E13.82617
G1 X158.395 Y97.844 E13.84649
G1 X158.934 Y97.852 E13.86442
G1 X161.613 Y97.861 E13.95352
G1 X161.826 Y97.856 E13.96061
G1 X162.852 Y97.847 E13.99474
G1 X163.378 Y97.847 E14.01223
G1 X163.592 Y97.849 E14.01935
G1 X164.235 Y97.862 E14.04074
G1 X165.154 Y97.921 E14.07137
G1 X166.064 Y98.059 E14.10198
G1 X166.959 Y98.275 E14.13261
G1 X167.832 Y98.569 E14.16324
G1 X168.829 Y99.013 E14.19954
G1 X169.945 Y99.581 E14.24119
G1 X170.317 Y99.777 E14.25518
G1 X171.205 Y100.217 E14.28814
G1 X171.772 Y100.509 E14.30935
G1 X172.29 Y100.795 E14.32903
G1 X172.539 Y100.942 E14.33865
G1 X172.798 Y101.1 E14.34874
G1 X173.014 Y101.236 E14.35723
G1 X173.771 Y101.76 E14.38785
G1 X174.48 Y102.347 E14.41847
G1 X175.135 Y102.994 E14.44909
G1 X175.892 Y103.908 E14.48856
G1 X176.07 Y104.149 E14.49853
G1 X176.57 Y104.89 E14.52826
G1 X176.735 Y105.158 E14.53872
G1 X177.184 Y105.962 E14.56935
G1 X177.433 Y106.495 E14.58892
G1 X177.766 Y107.353 E14.61953
G1 X177.987 Y108.093 E14.64522
G1 X178.062 Y108.382 E14.65515
G1 X178.221 Y109.097 E14.67951
G1 X178.267 Y109.343 E14.68783
G1 X178.397 Y110.254 E14.71844
G1 X178.441 Y110.894 E14.73978
G1 X178.447 Y111.054 E14.7451
G1 X178.454 Y111.425 E14.75744
G1 X178.455 Y111.936 E14.77444
G1 X178.448 Y112.905 E14.80667
G1 X178.429 Y113.789 E14.83608
G1 X178.369 Y114.708 E14.86671
G1 X178.23 Y115.618 E14.89733
G1 X178.103 Y116.178 E14.91643
G1 X178.006 Y116.558 E14.92947
G1 X177.911 Y116.904 E14.94141
G1 X177.876 Y117.024 E14.94556
G1 X177.58 Y117.896 E14.97619
G1 X177.21 Y118.739 E15.00681
G1 X176.767 Y119.546 E15.03743
G1 X176.313 Y120.235 E15.06487
G1 X175.993 Y120.681 E15.08313
G1 X175.808 Y120.93 E15.09345
G1 X175.448 Y121.402 E15.11319
G1 X174.859 Y122.109 E15.1438
G1 X174.21 Y122.763 E15.17444
G1 X173.507 Y123.357 E15.20505
G1 X172.755 Y123.889 E15.23569
G1 X171.96 Y124.353 E15.26631
G1 X171.214 Y124.709 E15.2938
G1 X170.18 Y125.154 E15.33124
G1 X169.887 Y125.3 E15.34213
G1 X168.273 Y125.986 E15.40046
G1 X167.49 Y126.296 E15.42847
G1 X166.608 Y126.56 E15.45909
G1 X165.706 Y126.746 E15.48972
G1 X164.792 Y126.853 E15.52033
G1 X164.243 Y126.88 E15.53861
G1 X163.269 Y126.901 E15.57101
G1 X162.9 Y126.902 E15.58329
G1 X161.859 Y126.888 E15.61791
G1 X159.004 Y126.893 E15.71287
G1 X158.305 Y126.904 E15.73612
G1 X157.989 Y126.904 E15.74663
G1 X157.269 Y126.894 E15.77058
G1 X154.587 Y126.895 E15.85979
G1 X154.415 Y126.898 E15.86551
G1 X153.252 Y126.906 E15.90419
G1 X153.031 Y126.905 E15.91154
G1 X152.246 Y126.894 E15.93765
G1 X149.54 Y126.897 E16.02765
G1 X149.407 Y126.9 E16.03208
G1 X148.533 Y126.907 E16.06115
G1 X148.02 Y126.904 E16.07821
G1 X147.423 Y126.893 E16.09807
G1 X144.34 Y126.884 E16.20061
G1 X143.162 Y126.9 E16.2398
G1 X142.79 Y126.899 E16.25217
G1 X142.237 Y126.887 E16.27057
G1 X141.047 Y126.793 E16.31027
G1 X140.379 Y126.702 E16.33269
G1 X138.816 Y126.471 E16.38524
G1 X136.295 Y126.17 E16.46969
G1 X133.764 Y125.941 E16.55421
G1 X131.387 Y125.79 E16.63343
G1 X129.528 Y125.697 E16.69534
G1 X126.93 Y125.603 E16.78181
G1 X124.982 Y125.582 E16.8466
G1 X121.282 Y125.587 E16.96966
G1 X118.824 Y125.587 E17.05142
G1 X116.199 Y125.624 E17.13873
G1 X113.691 Y125.731 E17.22223
G1 X111.174 Y125.909 E17.30615
G1 X108.65 Y126.159 E17.39051
G1 X106.142 Y126.48 E17.47461
G1 X103.68 Y126.867 E17.5575
G1 X101.158 Y127.336 E17.64282
G1 X98.684 Y127.868 E17.72699
G1 X96.236 Y128.468 E17.81082
G1 X93.813 Y129.135 E17.8944
G1 X91.379 Y129.88 E17.97907
G1 X88.954 Y130.698 E18.06419
G1 X86.614 Y131.561 E18.14714
G1 X84.172 Y132.542 E18.23467
G1 X83.322 Y132.897 E18.26531
G1 X82.458 Y133.214 E18.29592
G1 X81.531 Y133.464 E18.32785
G1 X80.625 Y133.624 E18.35845
G1 X79.532 Y133.712 E18.39492
G1 X79.214 Y133.721 E18.4055
G1 X78.914 Y133.725 E18.41548
G1 X75.799 Y133.724 E18.51909
G1 X75.1 Y133.714 E18.54234
G1 X74.181 Y133.661 E18.57296
G1 X73.27 Y133.528 E18.60358
G1 X72.374 Y133.317 E18.63419
G1 X71.5 Y133.029 E18.6648
G1 X70.654 Y132.666 E18.69542
G1 X69.965 Y132.302 E18.72134
G1 X68.817 Y131.641 E18.7654
G1 X66.708 Y130.461 E18.84577
G1 X64.476 Y129.288 E18.92964
G1 X62.207 Y128.178 E19.01365
G1 X59.913 Y127.134 E19.09748
G1 X57.535 Y126.132 E19.18331
G1 X56.061 Y125.549 E19.23603
G1 X55.331 Y125.228 E19.26255
G1 X55.096 Y125.114 E19.27124
G1 X54.642 Y124.881 E19.28821
G1 X54.131 Y124.602 E19.30758
G1 X53.659 Y124.328 E19.32573
G1 X53.524 Y124.245 E19.331
G1 X53.016 Y123.912 E19.3512
G1 X52.65 Y123.657 E19.36604
G1 X52.215 Y123.337 E19.384
G1 X52.037 Y123.199 E19.39149
G1 X51.637 Y122.873 E19.40865
G1 X51.184 Y122.485 E19.42849
G1 X50.514 Y121.859 E19.45899
G1 X50.19 Y121.525 E19.47447
G1 X50.022 Y121.346 E19.48263
G1 X49.849 Y121.157 E19.49115
G1 X49.486 Y120.751 E19.50927
G1 X48.71 Y119.772 E19.55082
G1 X48.177 Y119.012 E19.58169
G1 X47.96 Y118.691 E19.59458
G1 X47.785 Y118.421 E19.60528
G1 X47.192 Y117.382 E19.64507
G1 X47.063 Y117.123 E19.65469
