;FLAVOR:Marlin
;TIME:7029
;Filament used: 4.25401m
;Layer height: 0.16
;MINX:11.712
;MINY:19.644
;MINZ:0.2
;MAXX:213.479
;MAXY:66.633
;MAXZ:7.96
;Generated with Cura_SteamEngine 4.12.0
M140 S60
M105
M190 S60
M104 S200
M105
M109 S200
M82 ;absolute extrusion mode
; Ender 3 Custom Start G-code
G92 E0 ; Reset Extruder
G28 ; Home all axes
G29 ; BLTOUCH
G1 Z2.0 F3000 ; Move Z Axis up little to prevent scratching of Heat Bed
G1 X0.1 Y20 Z0.3 F5000.0 ; Move to start position
G1 X0.1 Y200.0 Z0.3 F1500.0 E15 ; Draw the first line
G1 X0.4 Y200.0 Z0.3 F5000.0 ; Move to side a little
G1 X0.4 Y20 Z0.3 F1500.0 E30 ; Draw the second line
G92 E0 ; Reset Extruder
G1 Z2.0 F3000 ; Move Z Axis up little to prevent scratching of Heat Bed
G1 X5 Y20 Z0.3 F5000.0 ; Move over to prevent blob squish
G92 E0
G92 E0
G1 F1500 E-6.5
;LAYER_COUNT:48
;LAYER:0
M107
G0 F6000 X17.977 Y22.951 Z0.2
;TYPE:SKIRT
G1 F1500 E0
G1 F1200 X18.19 Y22.791 E0.00886
G1 X18.521 Y22.552 E0.02244
G1 X18.77 Y22.379 E0.03252
G1 X19.627 Y21.84 E0.0662
G1 X19.892 Y21.69 E0.07632
G1 X20.33 Y21.452 E0.0929
G1 X21.201 Y21.03 E0.1251
G1 X21.41 Y20.94 E0.13266
G1 X21.67 Y20.832 E0.14203
G1 X21.972 Y20.711 E0.15285
G1 X22.902 Y20.386 E0.18561
G1 X23.162 Y20.308 E0.19464
G1 X23.475 Y20.219 E0.20547
G1 X23.807 Y20.13 E0.2169
G1 X24.762 Y19.919 E0.24943
G1 X25.127 Y19.857 E0.26174
G1 X25.467 Y19.804 E0.27319
G1 X26.416 Y19.698 E0.30495
G1 X26.696 Y19.679 E0.31428
G1 X26.971 Y19.664 E0.32344
G1 X27.228 Y19.653 E0.332
G1 X27.863 Y19.644 E0.35312
G1 X28.063 Y19.647 E0.35977
G1 X28.352 Y19.655 E0.36939
G1 X28.793 Y19.674 E0.38407
G1 X38.636 Y20.172 E0.71187
G1 X46.22 Y20.55 E0.96443
G1 X54.584 Y20.958 E1.24294
G1 X61.323 Y21.278 E1.46734
G1 X65.446 Y21.468 E1.60461
G1 X69.828 Y21.663 E1.7505
G1 X73.98 Y21.845 E1.88873
G1 X77.569 Y21.995 E2.00821
G1 X81.169 Y22.139 E2.12804
G1 X85.692 Y22.309 E2.27858
G1 X88.682 Y22.412 E2.37809
G1 X90.841 Y22.483 E2.44994
G1 X94.362 Y22.588 E2.5671
G1 X96.316 Y22.64 E2.63211
G1 X97.83 Y22.678 E2.68248
G1 X99.529 Y22.715 E2.739
G1 X101.293 Y22.749 E2.79769
G1 X103.052 Y22.779 E2.8562
G1 X105.869 Y22.817 E2.9499
G1 X107.556 Y22.834 E3.00601
G1 X108.764 Y22.84 E3.04619
G1 X112.031 Y22.848 E3.15485
G1 X114.683 Y22.839 E3.24306
G1 X116.077 Y22.831 E3.28943
G1 X118.916 Y22.801 E3.38386
G1 X120.532 Y22.778 E3.43761
G1 X123.694 Y22.721 E3.5428
G1 X126.865 Y22.647 E3.64829
G1 X130.646 Y22.544 E3.7741
G1 X132.433 Y22.489 E3.83356
G1 X137.496 Y22.32 E4.00205
G1 X140.673 Y22.201 E4.10779
G1 X143.032 Y22.109 E4.18631
G1 X146.704 Y21.961 E4.30854
G1 X151.479 Y21.758 E4.4675
G1 X157.118 Y21.507 E4.65524
G1 X161.523 Y21.305 E4.80191
G1 X167.678 Y21.015 E5.00685
G1 X170.983 Y20.855 E5.1169
G1 X177.715 Y20.524 E5.34108
G1 X177.912 Y20.517 E5.34764
G1 X178.765 Y20.478 E5.37604
G1 X179.966 Y20.444 E5.416
G1 X180.188 Y20.44 E5.42338
G1 X181.344 Y20.432 E5.46183
G1 X181.582 Y20.433 E5.46975
G1 X182.598 Y20.448 E5.50355
G1 X182.85 Y20.455 E5.51193
G1 X183.964 Y20.497 E5.54901
G1 X184.182 Y20.507 E5.55627
G1 X185.242 Y20.568 E5.59158
G1 X185.483 Y20.585 E5.59962
G1 X186.614 Y20.675 E5.63735
G1 X186.859 Y20.697 E5.64553
G1 X187.838 Y20.797 E5.67827
G1 X188.064 Y20.822 E5.68583
G1 X189.161 Y20.957 E5.72259
G1 X189.398 Y20.989 E5.73054
G1 X190.486 Y21.147 E5.76711
G1 X190.725 Y21.185 E5.77516
G1 X191.774 Y21.361 E5.81054
G1 X192.001 Y21.401 E5.8182
G1 X193.057 Y21.601 E5.85395
G1 X193.285 Y21.647 E5.86169
G1 X194.321 Y21.866 E5.89691
G1 X194.564 Y21.92 E5.90519
G1 X195.657 Y22.177 E5.94253
G1 X196.326 Y22.346 E5.96548
G1 X198.379 Y22.83 E6.03564
G1 X198.546 Y22.877 E6.04141
G1 X199.226 Y23.044 E6.06469
G1 X199.85 Y23.197 E6.08606
G1 X200.225 Y23.296 E6.09896
G1 X200.473 Y23.366 E6.10753
G1 X200.943 Y23.51 E6.12388
G1 X201.405 Y23.663 E6.14007
G1 X201.846 Y23.819 E6.15563
G1 X202.152 Y23.935 E6.16651
G1 X202.578 Y24.107 E6.18179
G1 X203.034 Y24.302 E6.19829
G1 X203.54 Y24.534 E6.2168
G1 X203.855 Y24.688 E6.22846
G1 X204.131 Y24.827 E6.23874
G1 X204.482 Y25.011 E6.25192
G1 X204.85 Y25.213 E6.26589
G1 X205.161 Y25.393 E6.27784
G1 X205.342 Y25.502 E6.28487
G1 X205.555 Y25.634 E6.2932
G1 X205.899 Y25.852 E6.30675
G1 X206.407 Y26.194 E6.32711
G1 X206.726 Y26.422 E6.34016
G1 X207.02 Y26.639 E6.35231
G1 X207.221 Y26.793 E6.36073
G1 X207.723 Y27.201 E6.38225
G1 X207.848 Y27.309 E6.38774
G1 X208.183 Y27.611 E6.40274
G1 X208.507 Y27.915 E6.41752
G1 X208.938 Y28.343 E6.43772
G1 X209.063 Y28.474 E6.44374
G1 X209.446 Y28.897 E6.46272
G1 X209.587 Y29.061 E6.46992
G1 X210.005 Y29.578 E6.49203
G1 X210.479 Y30.202 E6.51809
G1 X211.029 Y30.997 E6.55025
G1 X211.136 Y31.167 E6.55693
G1 X211.411 Y31.627 E6.57475
G1 X211.611 Y31.982 E6.5883
G1 X211.877 Y32.484 E6.6072
G1 X211.965 Y32.661 E6.61377
G1 X212.186 Y33.133 E6.63111
G1 X212.349 Y33.504 E6.64459
G1 X212.566 Y34.036 E6.6637
G1 X212.636 Y34.221 E6.67028
G1 X212.817 Y34.736 E6.68843
G1 X212.938 Y35.111 E6.70154
G1 X213.187 Y36.015 E6.73272
G1 X213.359 Y36.937 E6.76392
G1 X213.464 Y38.142 E6.80415
G1 X213.474 Y38.459 E6.8147
G1 X213.479 Y38.806 E6.82624
G1 X213.478 Y49.884 E7.1947
G1 X213.467 Y50.595 E7.21835
G1 X213.412 Y51.531 E7.24953
G1 X213.278 Y52.46 E7.28075
G1 X213.018 Y53.539 E7.31767
G1 X212.938 Y53.81 E7.32706
G1 X212.821 Y54.183 E7.34007
G1 X212.692 Y54.569 E7.3536
G1 X212.469 Y55.175 E7.37508
G1 X212.38 Y55.397 E7.38303
G1 X212.192 Y55.838 E7.39898
G1 X211.997 Y56.269 E7.41471
G1 X211.74 Y56.798 E7.43427
G1 X211.642 Y56.987 E7.44135
G1 X211.394 Y57.441 E7.45856
G1 X211.143 Y57.874 E7.47521
G1 X210.841 Y58.364 E7.49435
G1 X210.723 Y58.545 E7.50154
G1 X210.415 Y58.993 E7.51962
G1 X210.128 Y59.389 E7.53589
G1 X209.772 Y59.854 E7.55536
G1 X209.632 Y60.027 E7.56277
G1 X209.309 Y60.408 E7.57938
G1 X209.002 Y60.754 E7.59476
G1 X208.531 Y61.252 E7.61756
G1 X208.345 Y61.437 E7.62629
G1 X208.035 Y61.734 E7.64057
G1 X207.698 Y62.044 E7.6558
G1 X207.226 Y62.454 E7.67659
G1 X207.037 Y62.609 E7.68472
G1 X206.627 Y62.929 E7.70202
G1 X206.268 Y63.196 E7.7169
G1 X205.774 Y63.543 E7.73698
G1 X205.564 Y63.682 E7.74536
G1 X205.156 Y63.939 E7.76139
G1 X204.733 Y64.193 E7.7778
G1 X204.214 Y64.486 E7.79763
G1 X204.042 Y64.577 E7.8041
G1 X203.578 Y64.809 E7.82135
G1 X203.159 Y65.006 E7.83675
G1 X202.669 Y65.222 E7.85456
G1 X202.436 Y65.318 E7.86295
G1 X201.892 Y65.525 E7.8823
G1 X201.448 Y65.681 E7.89796
G1 X200.842 Y65.875 E7.91912
G1 X200.609 Y65.942 E7.92718
G1 X200.153 Y66.062 E7.94287
G1 X199.702 Y66.171 E7.9583
G1 X199.165 Y66.287 E7.97657
G1 X198.938 Y66.33 E7.98426
G1 X198.385 Y66.42 E8.00289
G1 X197.911 Y66.485 E8.0188
G1 X197.274 Y66.554 E8.04011
G1 X197.031 Y66.573 E8.04822
G1 X196.594 Y66.598 E8.06278
G1 X195.992 Y66.621 E8.08282
G1 X195.685 Y66.628 E8.09303
G1 X195.181 Y66.633 E8.10979
G1 X170.918 Y66.631 E8.91678
G1 X168.666 Y66.62 E8.99169
G1 X166.402 Y66.595 E9.06699
G1 X164.954 Y66.568 E9.11516
G1 X163.931 Y66.542 E9.1492
G1 X163.17 Y66.517 E9.17452
G1 X162.591 Y66.494 E9.1938
G1 X161.55 Y66.446 E9.22846
G1 X160.687 Y66.395 E9.25721
G1 X159.962 Y66.342 E9.28139
G1 X159.489 Y66.302 E9.29718
G1 X158.419 Y66.199 E9.33293
G1 X157.728 Y66.119 E9.35606
G1 X157.217 Y66.052 E9.37321
G1 X156.951 Y66.013 E9.38215
G1 X155.881 Y65.846 E9.41817
G1 X155.583 Y65.796 E9.42822
G1 X154.563 Y65.608 E9.46271
G1 X154.305 Y65.557 E9.47146
G1 X153.594 Y65.408 E9.49562
G1 X152.564 Y65.185 E9.53067
G1 X150.065 Y64.679 E9.61548
G1 X147.558 Y64.245 E9.7001
G1 X145.093 Y63.89 E9.78293
G1 X142.59 Y63.602 E9.86673
G1 X140.041 Y63.38 E9.95183
G1 X137.574 Y63.237 E10.03402
G1 X135.043 Y63.161 E10.11824
G1 X132.52 Y63.157 E10.20216
G1 X130.004 Y63.224 E10.28587
G1 X127.477 Y63.364 E10.37005
G1 X125.385 Y63.532 E10.43985
G1 X124.045 Y63.661 E10.48463
G1 X119.718 Y64.098 E10.62928
G1 X115.518 Y64.514 E10.76965
G1 X112.525 Y64.803 E10.86966
G1 X109.799 Y65.059 E10.96073
G1 X106.138 Y65.392 E11.083
G1 X103.842 Y65.591 E11.15965
G1 X101.869 Y65.757 E11.2255
G1 X98.864 Y65.996 E11.32577
G1 X97.212 Y66.12 E11.38087
G1 X95.526 Y66.24 E11.43708
G1 X93.99 Y66.343 E11.48829
G1 X91.788 Y66.479 E11.56166
G1 X89.913 Y66.581 E11.62412
G1 X88.887 Y66.62 E11.65827
G1 X88.612 Y66.627 E11.66742
G1 X88.066 Y66.633 E11.68558
G1 X70.222 Y66.632 E12.27907
G1 X69.482 Y66.622 E12.30369
G1 X69.161 Y66.613 E12.31437
G1 X68.38 Y66.579 E12.34037
G1 X67.528 Y66.53 E12.36875
G1 X66.154 Y66.444 E12.41454
G1 X64.493 Y66.331 E12.46992
G1 X63.105 Y66.229 E12.51621
G1 X61.287 Y66.082 E12.57687
G1 X58.946 Y65.88 E12.65502
G1 X56.87 Y65.688 E12.72436
G1 X54.546 Y65.461 E12.80203
G1 X52.229 Y65.226 E12.87949
G1 X49.624 Y64.949 E12.96662
G1 X48.475 Y64.823 E13.00506
G1 X45.628 Y64.507 E13.10034
G1 X43.327 Y64.243 E13.17737
G1 X38.883 Y63.721 E13.32619
G1 X34.823 Y63.232 E13.46221
G1 X30.753 Y62.731 E13.5986
G1 X29.89 Y62.614 E13.62756
G1 X29.602 Y62.572 E13.63724
G1 X29.122 Y62.494 E13.65342
G1 X28.639 Y62.404 E13.66976
G1 X28.203 Y62.313 E13.68457
G1 X27.725 Y62.202 E13.70089
G1 X27.283 Y62.089 E13.71607
G1 X26.802 Y61.954 E13.73268
G1 X26.395 Y61.83 E13.74684
G1 X25.923 Y61.675 E13.76336
G1 X25.472 Y61.515 E13.77928
G1 X25.003 Y61.336 E13.79597
G1 X24.578 Y61.163 E13.81123
G1 X24.107 Y60.959 E13.82831
G1 X23.707 Y60.774 E13.84296
G1 X23.296 Y60.573 E13.85818
G1 X22.903 Y60.371 E13.87288
G1 X22.442 Y60.12 E13.89034
G1 X22.06 Y59.9 E13.905
G1 X21.636 Y59.643 E13.92149
G1 X21.222 Y59.379 E13.93782
G1 X20.801 Y59.097 E13.95467
G1 X20.466 Y58.861 E13.9683
G1 X20.093 Y58.586 E13.98372
G1 X19.707 Y58.289 E13.99991
G1 X19.305 Y57.965 E14.01709
G1 X18.965 Y57.677 E14.03191
G1 X18.596 Y57.349 E14.04833
G1 X18.28 Y57.056 E14.06266
G1 X17.911 Y56.698 E14.07976
G1 X17.58 Y56.361 E14.09547
G1 X17.24 Y55.999 E14.11199
G1 X16.952 Y55.678 E14.12633
G1 X16.649 Y55.325 E14.14181
G1 X16.355 Y54.968 E14.15719
G1 X16.034 Y54.559 E14.17448
G1 X15.765 Y54.199 E14.18943
G1 X15.476 Y53.794 E14.20598
G1 X15.218 Y53.414 E14.22125
G1 X14.944 Y52.989 E14.23807
G1 X14.704 Y52.598 E14.25333
G1 X14.464 Y52.188 E14.26913
G1 X14.255 Y51.812 E14.28344
G1 X14.031 Y51.387 E14.29942
G1 X13.829 Y50.983 E14.31444
G1 X13.591 Y50.474 E14.33313
G1 X13.398 Y50.033 E14.34914
G1 X13.227 Y49.621 E14.36398
G1 X13.069 Y49.216 E14.37844
G1 X12.891 Y48.725 E14.39581
G1 X12.745 Y48.291 E14.41104
G1 X12.598 Y47.819 E14.42748
G1 X12.476 Y47.394 E14.44219
G1 X12.353 Y46.928 E14.45822
G1 X12.249 Y46.495 E14.47303
G1 X12.141 Y45.993 E14.49011
G1 X12.053 Y45.533 E14.50568
G1 X11.97 Y45.036 E14.52244
G1 X11.907 Y44.599 E14.53713
G1 X11.847 Y44.109 E14.55355
G1 X11.803 Y43.663 E14.56845
G1 X11.767 Y43.192 E14.58416
G1 X11.737 Y42.651 E14.60219
G1 X11.721 Y42.157 E14.61862
G1 X11.712 Y41.278 E14.64786
G1 X11.713 Y36.179 E14.81746
G1 X11.724 Y35.426 E14.8425
G1 X11.738 Y34.981 E14.85731
G1 X11.756 Y34.646 E14.86847
G1 X11.779 Y34.314 E14.87954
G1 X11.88 Y33.404 E14.90999
G1 X11.921 Y33.137 E14.91898
G1 X11.979 Y32.8 E14.93035
G1 X12.033 Y32.509 E14.94019
G1 X12.231 Y31.639 E14.96987
G1 X12.302 Y31.377 E14.9789
G1 X12.385 Y31.086 E14.98896
G1 X12.465 Y30.82 E14.9982
G1 X12.803 Y29.859 E15.03208
G1 X12.901 Y29.617 E15.04077
G1 X13.121 Y29.101 E15.05942
G1 X13.512 Y28.286 E15.08949
G1 X13.629 Y28.066 E15.09778
G1 X13.801 Y27.754 E15.10963
G1 X13.956 Y27.484 E15.11998
G1 X14.432 Y26.729 E15.14967
G1 X14.564 Y26.537 E15.15742
G1 X14.737 Y26.292 E15.16739
G1 X14.906 Y26.06 E15.17694
G1 X15.517 Y25.296 E15.20948
G1 X15.733 Y25.049 E15.22039
G1 X15.915 Y24.845 E15.22948
G1 X16.086 Y24.659 E15.23789
G1 X16.705 Y24.038 E15.26705
G1 X16.911 Y23.847 E15.27639
G1 X17.214 Y23.576 E15.28991
G1 X17.408 Y23.409 E15.29843
G1 X17.977 Y22.951 E15.32272
G0 F6000 X18.218 Y23.271
G1 F1200 X18.431 Y23.111 E15.33158
G1 X18.749 Y22.881 E15.34463
G1 X18.998 Y22.708 E15.35472
G1 X19.824 Y22.188 E15.38718
G1 X20.089 Y22.038 E15.39731
G1 X20.52 Y21.804 E15.41362
G1 X21.36 Y21.397 E15.44467
G1 X21.569 Y21.307 E15.45224
G1 X21.819 Y21.203 E15.46124
G1 X22.121 Y21.082 E15.47206
G1 X23.017 Y20.769 E15.50363
G1 X23.277 Y20.691 E15.51266
G1 X23.578 Y20.606 E15.52306
G1 X23.91 Y20.517 E15.53449
G1 X24.831 Y20.313 E15.56587
G1 X25.188 Y20.252 E15.57791
G1 X25.528 Y20.199 E15.58936
G1 X26.443 Y20.097 E15.61998
G1 X26.723 Y20.078 E15.62931
G1 X27.245 Y20.053 E15.6467
G1 X27.857 Y20.044 E15.66705
G1 X28.057 Y20.047 E15.67371
G1 X28.335 Y20.055 E15.68296
G1 X28.773 Y20.074 E15.69754
G1 X38.608 Y20.571 E16.02507
G1 X46.212 Y20.951 E16.27829
G1 X54.565 Y21.358 E16.55645
G1 X61.293 Y21.676 E16.78047
G1 X65.446 Y21.869 E16.91875
G1 X69.811 Y22.063 E17.06407
G1 X73.945 Y22.243 E17.2017
G1 X77.553 Y22.394 E17.32181
G1 X81.138 Y22.538 E17.44114
G1 X85.677 Y22.708 E17.59222
G1 X88.686 Y22.813 E17.69236
G1 X90.812 Y22.883 E17.76311
G1 X94.346 Y22.988 E17.8807
G1 X96.306 Y23.04 E17.94591
G1 X97.82 Y23.078 E17.99628
G1 X99.521 Y23.115 E18.05287
G1 X101.285 Y23.149 E18.11155
G1 X103.047 Y23.179 E18.17017
G1 X105.864 Y23.217 E18.26387
G1 X107.554 Y23.234 E18.32008
G1 X108.762 Y23.24 E18.36026
G1 X112.031 Y23.248 E18.46899
G1 X114.686 Y23.239 E18.55729
G1 X116.08 Y23.231 E18.60366
G1 X118.922 Y23.201 E18.69819
G1 X120.538 Y23.178 E18.75194
G1 X123.704 Y23.121 E18.85726
G1 X126.875 Y23.047 E18.96276
G1 X130.667 Y22.943 E19.08893
G1 X132.445 Y22.889 E19.14809
G1 X137.476 Y22.72 E19.31552
G1 X140.709 Y22.6 E19.42312
G1 X143.048 Y22.509 E19.50098
G1 X146.72 Y22.361 E19.62321
G1 X151.517 Y22.158 E19.7829
G1 X157.123 Y21.907 E19.96954
G1 X161.557 Y21.704 E20.11717
G1 X167.688 Y21.414 E20.32132
G1 X171.014 Y21.254 E20.43207
G1 X177.734 Y20.924 E20.65585
G1 X177.951 Y20.916 E20.66307
G1 X178.783 Y20.878 E20.69077
G1 X179.977 Y20.844 E20.7305
G1 X180.191 Y20.84 E20.73762
G1 X181.347 Y20.832 E20.77607
G1 X181.576 Y20.833 E20.78368
G1 X182.592 Y20.848 E20.81748
G1 X182.835 Y20.855 E20.82557
G1 X183.949 Y20.897 E20.86264
G1 X184.159 Y20.907 E20.86964
G1 X185.451 Y20.983 E20.91268
G1 X186.582 Y21.073 E20.95042
G1 X186.818 Y21.095 E20.9583
G1 X188.015 Y21.219 E20.99833
G1 X189.112 Y21.354 E21.03509
G1 X189.34 Y21.385 E21.04274
G1 X190.428 Y21.543 E21.07931
G1 X190.659 Y21.579 E21.08708
G1 X191.708 Y21.755 E21.12246
G1 X191.927 Y21.794 E21.12986
G1 X192.983 Y21.994 E21.16561
G1 X193.202 Y22.038 E21.17304
G1 X194.238 Y22.257 E21.20826
G1 X194.472 Y22.309 E21.21623
G1 X195.565 Y22.566 E21.25357
G1 X196.28 Y22.747 E21.2781
G1 X198.287 Y23.22 E21.34669
G1 X198.421 Y23.258 E21.35132
G1 X199.755 Y23.585 E21.397
G1 X200.116 Y23.681 E21.40943
G1 X200.364 Y23.751 E21.418
G1 X200.817 Y23.889 E21.43375
G1 X201.279 Y24.042 E21.44993
G1 X201.704 Y24.193 E21.46494
G1 X202.01 Y24.309 E21.47582
G1 X202.421 Y24.475 E21.49056
G1 X202.877 Y24.67 E21.50706
G1 X203.365 Y24.893 E21.5249
G1 X203.68 Y25.047 E21.53657
G1 X203.945 Y25.182 E21.54646
G1 X204.296 Y25.366 E21.55964
G1 X204.655 Y25.562 E21.57324
G1 X204.954 Y25.735 E21.58473
G1 X205.341 Y25.971 E21.59981
G1 X205.685 Y26.189 E21.61335
G1 X206.175 Y26.519 E21.633
G1 X206.494 Y26.747 E21.64604
G1 X206.777 Y26.957 E21.65776
G1 X206.978 Y27.111 E21.66619
G1 X207.461 Y27.504 E21.6869
G1 X207.586 Y27.612 E21.69239
G1 X207.909 Y27.903 E21.70685
G1 X208.233 Y28.207 E21.72163
G1 X208.649 Y28.619 E21.7411
G1 X208.774 Y28.75 E21.74712
G1 X209.143 Y29.158 E21.76542
G1 X209.284 Y29.322 E21.77261
G1 X209.687 Y29.82 E21.79392
G1 X210.161 Y30.444 E21.81999
G1 X210.691 Y31.21 E21.85097
G1 X210.798 Y31.38 E21.85765
G1 X211.062 Y31.823 E21.8748
G1 X211.262 Y32.178 E21.88835
G1 X211.519 Y32.662 E21.90658
G1 X211.607 Y32.839 E21.91315
G1 X211.82 Y33.294 E21.92986
G1 X211.983 Y33.665 E21.94334
G1 X212.192 Y34.178 E21.96176
G1 X212.262 Y34.363 E21.96834
G1 X212.436 Y34.859 E21.98583
G1 X212.557 Y35.234 E21.99893
G1 X212.801 Y36.122 E22.02956
G1 X212.968 Y37.027 E22.06017
G1 X213.064 Y38.155 E22.09782
G1 X213.074 Y38.472 E22.10837
G1 X213.079 Y38.806 E22.11948
G1 X213.078 Y49.878 E22.48774
G1 X213.067 Y50.589 E22.51139
G1 X213.013 Y51.508 E22.54201
G1 X212.879 Y52.419 E22.57263
G1 X212.634 Y53.426 E22.6071
G1 X212.554 Y53.697 E22.6165
G1 X212.441 Y54.056 E22.62902
G1 X212.312 Y54.442 E22.64256
G1 X212.098 Y55.026 E22.66324
G1 X212.009 Y55.248 E22.6712
G1 X211.828 Y55.673 E22.68656
