;FLAVOR:Marlin
;TIME:7024
;Filament used: 4.26309m
;Layer height: 0.16
;MINX:11.785
;MINY:29.899
;MINZ:0.2
;MAXX:213.785
;MAXY:76.887
;MAXZ:7.96
;Generated with Cura_SteamEngine 4.12.0
M140 S60
M105
M190 S60
M104 S200
M105
M109 S200
M82 ;absolute extrusion mode
; Ender 3 Custom Start G-code
G92 E0 ; Reset Extruder
G28 ; Home all axes
G29 ; BLTOUCH
G1 Z2.0 F3000 ; Move Z Axis up little to prevent scratching of Heat Bed
G1 X0.1 Y20 Z0.3 F5000.0 ; Move to start position
G1 X0.1 Y200.0 Z0.3 F1500.0 E15 ; Draw the first line
G1 X0.4 Y200.0 Z0.3 F5000.0 ; Move to side a little
G1 X0.4 Y20 Z0.3 F1500.0 E30 ; Draw the second line
G92 E0 ; Reset Extruder
G1 Z2.0 F3000 ; Move Z Axis up little to prevent scratching of Heat Bed
G1 X5 Y20 Z0.3 F5000.0 ; Move over to prevent blob squish
G92 E0
G92 E0
G1 F1500 E-6.5
;LAYER_COUNT:48
;LAYER:0
M107
G0 F6000 X22.148 Y36.625 Z0.2
;TYPE:SKIRT
G1 F1500 E0
G1 F1200 X22.251 Y36.564 E0.00398
G1 X22.642 Y36.343 E0.01892
G1 X23.047 Y36.125 E0.03422
G1 X23.455 Y35.916 E0.04946
G1 X23.84 Y35.729 E0.0637
G1 X24.341 Y35.501 E0.08201
G1 X24.769 Y35.319 E0.09748
G1 X25.203 Y35.146 E0.11302
G1 X25.61 Y34.993 E0.12748
G1 X26.113 Y34.817 E0.1452
G1 X26.567 Y34.671 E0.16106
G1 X27.019 Y34.537 E0.17674
G1 X27.43 Y34.424 E0.19092
G1 X27.913 Y34.302 E0.20749
G1 X28.376 Y34.197 E0.22328
G1 X28.857 Y34.1 E0.2396
G1 X29.356 Y34.01 E0.25647
G1 X29.84 Y33.933 E0.27277
G1 X30.726 Y33.815 E0.3025
G1 X33.827 Y33.432 E0.40642
G1 X37.063 Y33.039 E0.51484
G1 X40.836 Y32.59 E0.64122
G1 X44.453 Y32.169 E0.76233
G1 X45.83 Y32.012 E0.80843
G1 X48.699 Y31.692 E0.90444
G1 X51.463 Y31.395 E0.9969
G1 X53.69 Y31.164 E1.07137
G1 X56.017 Y30.933 E1.14914
G1 X56.866 Y30.851 E1.17751
G1 X58.887 Y30.664 E1.24502
G1 X61.523 Y30.436 E1.33302
G1 X63.191 Y30.304 E1.38867
G1 X64.898 Y30.178 E1.4456
G1 X66.511 Y30.07 E1.49937
G1 X67.913 Y29.984 E1.54609
G1 X68.563 Y29.949 E1.56774
G1 X69.298 Y29.918 E1.59221
G1 X69.612 Y29.909 E1.60266
G1 X70.423 Y29.899 E1.62963
G1 X88.133 Y29.9 E2.21867
G1 X88.939 Y29.911 E2.24548
G1 X89.248 Y29.92 E2.25576
G1 X89.881 Y29.947 E2.27683
G1 X90.696 Y29.989 E2.30398
G1 X92.342 Y30.082 E2.35881
G1 X94.33 Y30.205 E2.42506
G1 X96.811 Y30.377 E2.50777
G1 X99.297 Y30.562 E2.59069
G1 X102.065 Y30.785 E2.68305
G1 X104.089 Y30.955 E2.7506
G1 X106.444 Y31.162 E2.82923
G1 X108.657 Y31.359 E2.90313
G1 X111.327 Y31.609 E2.99232
G1 X114.298 Y31.892 E3.09159
G1 X118.123 Y32.267 E3.21942
G1 X120.939 Y32.548 E3.31354
G1 X124.149 Y32.874 E3.42086
G1 X125.393 Y32.993 E3.46242
G1 X127.978 Y33.197 E3.54867
G1 X130.51 Y33.325 E3.63299
G1 X132.989 Y33.379 E3.71546
G1 X135.519 Y33.363 E3.79961
G1 X138.065 Y33.276 E3.88434
G1 X140.532 Y33.12 E3.96656
G1 X143.065 Y32.889 E4.05115
G1 X145.592 Y32.586 E4.1358
G1 X148.044 Y32.221 E4.21826
G1 X150.527 Y31.78 E4.30213
G1 X152.611 Y31.348 E4.37292
G1 X152.694 Y31.334 E4.37572
G1 X153.412 Y31.179 E4.40015
G1 X153.855 Y31.09 E4.41518
G1 X154.441 Y30.965 E4.43511
G1 X154.734 Y30.907 E4.44504
G1 X155.658 Y30.736 E4.4763
G1 X155.97 Y30.683 E4.48682
G1 X157.031 Y30.518 E4.52254
G1 X157.288 Y30.481 E4.53117
G1 X157.997 Y30.389 E4.55495
G1 X158.484 Y30.334 E4.57125
G1 X159.501 Y30.236 E4.60523
G1 X159.677 Y30.22 E4.61111
G1 X160.371 Y30.165 E4.63427
G1 X161.393 Y30.099 E4.66833
G1 X162.23 Y30.057 E4.6962
G1 X162.762 Y30.034 E4.71391
G1 X163.985 Y29.991 E4.75462
G1 X164.564 Y29.975 E4.77388
G1 X166.114 Y29.943 E4.82545
G1 X167.015 Y29.93 E4.85542
G1 X168.44 Y29.913 E4.90282
G1 X170.529 Y29.903 E4.9723
G1 X172.752 Y29.899 E5.04623
G1 X195.232 Y29.9 E5.79392
G1 X196.088 Y29.912 E5.8224
G1 X196.564 Y29.929 E5.83824
G1 X196.93 Y29.95 E5.85043
G1 X197.68 Y30.019 E5.87548
G1 X198.376 Y30.107 E5.89881
G1 X199.461 Y30.3 E5.93547
G1 X200.148 Y30.458 E5.95891
G1 X201.171 Y30.746 E5.99426
G1 X201.841 Y30.97 E6.01776
G1 X202.548 Y31.233 E6.04285
G1 X202.851 Y31.358 E6.05375
G1 X203.474 Y31.638 E6.07647
G1 X203.749 Y31.772 E6.08664
G1 X204.392 Y32.112 E6.11083
G1 X204.997 Y32.458 E6.13401
G1 X205.902 Y33.036 E6.16973
G1 X206.522 Y33.476 E6.19502
G1 X206.879 Y33.74 E6.20978
G1 X206.958 Y33.801 E6.2131
G1 X207.425 Y34.183 E6.23317
G1 X207.579 Y34.316 E6.23994
G1 X207.896 Y34.601 E6.25412
G1 X208.092 Y34.784 E6.26304
G1 X208.583 Y35.272 E6.28606
G1 X209.09 Y35.809 E6.31062
G1 X209.786 Y36.622 E6.34622
G1 X210.203 Y37.16 E6.36886
G1 X210.814 Y38.032 E6.40427
G1 X211.21 Y38.66 E6.42897
G1 X211.45 Y39.059 E6.44445
G1 X211.505 Y39.155 E6.44813
G1 X211.768 Y39.643 E6.46657
G1 X211.866 Y39.836 E6.47377
G1 X212.088 Y40.299 E6.49085
G1 X212.206 Y40.561 E6.50041
G1 X212.447 Y41.141 E6.5213
G1 X212.708 Y41.822 E6.54555
G1 X212.873 Y42.28 E6.56174
G1 X212.909 Y42.388 E6.56553
G1 X213.055 Y42.863 E6.58206
G1 X213.12 Y43.092 E6.58998
G1 X213.245 Y43.572 E6.60647
G1 X213.348 Y44.009 E6.62141
G1 X213.475 Y44.627 E6.64239
G1 X213.513 Y44.843 E6.64969
G1 X213.582 Y45.288 E6.66466
G1 X213.621 Y45.579 E6.67443
G1 X213.692 Y46.282 E6.69793
G1 X213.745 Y47.049 E6.7235
G1 X213.763 Y47.394 E6.73499
G1 X213.773 Y47.66 E6.74384
G1 X213.78 Y47.951 E6.75353
G1 X213.785 Y48.435 E6.76962
G1 X213.783 Y55.855 E7.01641
G1 X213.773 Y56.573 E7.0403
G1 X213.764 Y56.888 E7.05078
G1 X213.752 Y57.17 E7.06017
G1 X213.735 Y57.47 E7.07016
G1 X213.71 Y57.827 E7.08206
G1 X213.624 Y58.634 E7.10906
G1 X213.589 Y58.876 E7.11719
G1 X213.53 Y59.241 E7.12949
G1 X213.456 Y59.654 E7.14344
G1 X213.29 Y60.419 E7.16948
G1 X213.238 Y60.624 E7.17651
G1 X213.122 Y61.048 E7.19113
G1 X213.006 Y61.439 E7.2047
G1 X212.815 Y62.022 E7.2251
G1 X212.705 Y62.319 E7.23564
G1 X212.614 Y62.555 E7.24405
G1 X212.467 Y62.917 E7.25704
G1 X212.309 Y63.287 E7.27043
G1 X212.005 Y63.939 E7.29435
G1 X211.929 Y64.089 E7.29995
G1 X211.749 Y64.429 E7.31274
G1 X211.54 Y64.808 E7.32714
G1 X211.082 Y65.566 E7.35659
G1 X210.906 Y65.832 E7.3672
G1 X210.709 Y66.119 E7.37878
G1 X210.51 Y66.4 E7.39023
G1 X210.113 Y66.927 E7.41218
G1 X209.979 Y67.094 E7.4193
G1 X209.625 Y67.513 E7.43754
G1 X209.324 Y67.852 E7.45262
G1 X208.733 Y68.467 E7.48099
G1 X208.537 Y68.656 E7.49004
G1 X208.288 Y68.889 E7.50139
G1 X208.011 Y69.14 E7.51382
G1 X207.491 Y69.583 E7.53654
G1 X207.317 Y69.722 E7.54395
G1 X206.906 Y70.035 E7.56113
G1 X206.688 Y70.193 E7.57009
G1 X206.142 Y70.564 E7.59204
G1 X205.517 Y70.962 E7.61669
G1 X205.212 Y71.15 E7.6286
G1 X205.087 Y71.224 E7.63343
G1 X204.647 Y71.473 E7.65025
G1 X204.122 Y71.749 E7.66998
G1 X203.621 Y71.995 E7.68854
G1 X203.13 Y72.221 E7.70652
G1 X202.824 Y72.353 E7.7176
G1 X202.483 Y72.494 E7.72987
G1 X202.103 Y72.643 E7.74345
G1 X201.67 Y72.802 E7.75879
G1 X201.342 Y72.915 E7.77033
G1 X200.946 Y73.043 E7.78417
G1 X200.533 Y73.168 E7.79852
G1 X200.213 Y73.26 E7.8096
G1 X199.804 Y73.367 E7.82366
G1 X199.125 Y73.533 E7.84691
G1 X198.819 Y73.615 E7.85745
G1 X196.713 Y74.116 E7.92945
G1 X195.897 Y74.325 E7.95746
G1 X195.676 Y74.379 E7.96503
G1 X194.756 Y74.595 E7.99646
G1 X194.526 Y74.646 E8.0043
G1 X193.4 Y74.885 E8.04258
G1 X193.172 Y74.931 E8.05032
G1 X192.147 Y75.126 E8.08502
G1 X191.906 Y75.169 E8.09316
G1 X190.794 Y75.355 E8.13066
G1 X190.564 Y75.391 E8.13841
G1 X189.541 Y75.54 E8.17279
G1 X189.303 Y75.572 E8.18078
G1 X188.16 Y75.713 E8.21908
G1 X187.919 Y75.74 E8.22715
G1 X186.91 Y75.842 E8.26088
G1 X186.679 Y75.863 E8.26859
G1 X185.601 Y75.949 E8.30456
G1 X185.363 Y75.966 E8.3125
G1 X184.259 Y76.03 E8.34928
G1 X184.021 Y76.041 E8.3572
G1 X182.975 Y76.079 E8.39201
G1 X182.744 Y76.085 E8.3997
G1 X181.699 Y76.101 E8.43446
G1 X181.455 Y76.102 E8.44258
G1 X180.304 Y76.094 E8.48086
G1 X180.072 Y76.09 E8.48858
G1 X178.97 Y76.058 E8.52525
G1 X178.446 Y76.038 E8.54269
G1 X169.681 Y75.612 E8.83456
G1 X162.443 Y75.266 E9.07557
G1 X157.157 Y75.023 E9.25157
G1 X152.496 Y74.814 E9.40675
G1 X147.21 Y74.589 E9.58272
G1 X143.396 Y74.433 E9.70968
G1 X140.279 Y74.312 E9.81343
G1 X137.077 Y74.194 E9.92
G1 X134.307 Y74.099 E10.01219
G1 X130.359 Y73.976 E10.14356
G1 X126.894 Y73.883 E10.25885
G1 X123.946 Y73.814 E10.35693
G1 X121.355 Y73.767 E10.44312
G1 X118.776 Y73.727 E10.52891
G1 X117.255 Y73.712 E10.5795
G1 X114.535 Y73.693 E10.66997
G1 X110.415 Y73.687 E10.807
G1 X109.828 Y73.688 E10.82652
G1 X107.143 Y73.703 E10.91583
G1 X104.926 Y73.725 E10.98957
G1 X102.302 Y73.765 E11.07685
G1 X99.425 Y73.819 E11.17256
G1 X96.786 Y73.879 E11.26036
G1 X93.553 Y73.966 E11.36792
G1 X90.515 Y74.059 E11.46902
G1 X87.606 Y74.156 E11.56582
G1 X83.784 Y74.292 E11.69302
G1 X80.695 Y74.412 E11.79584
G1 X77.012 Y74.559 E11.91844
G1 X71.866 Y74.779 E12.08975
G1 X67.468 Y74.974 E12.23617
G1 X62.322 Y75.21 E12.40751
G1 X56.421 Y75.489 E12.604
G1 X49.634 Y75.818 E12.83
G1 X41.455 Y76.221 E13.10236
G1 X33.794 Y76.607 E13.35749
G1 X28.874 Y76.857 E13.52134
G1 X28.186 Y76.882 E13.54424
G1 X27.57 Y76.887 E13.56473
G1 X27.418 Y76.884 E13.56979
G1 X26.876 Y76.86 E13.58783
G1 X26.471 Y76.832 E13.60133
G1 X25.552 Y76.729 E13.63209
G1 X25.254 Y76.683 E13.64212
G1 X24.907 Y76.624 E13.65383
G1 X24.656 Y76.577 E13.66232
G1 X24.042 Y76.444 E13.68321
G1 X23.701 Y76.356 E13.69493
G1 X23.505 Y76.302 E13.70169
G1 X23.25 Y76.228 E13.71052
G1 X22.955 Y76.139 E13.72077
G1 X22.031 Y75.815 E13.75334
G1 X21.802 Y75.723 E13.76155
G1 X21.528 Y75.608 E13.77143
G1 X21.212 Y75.471 E13.78288
G1 X20.393 Y75.075 E13.81314
G1 X19.958 Y74.838 E13.82962
G1 X19.666 Y74.671 E13.84081
G1 X18.872 Y74.17 E13.87203
G1 X18.629 Y74.002 E13.88186
G1 X18.404 Y73.843 E13.89102
G1 X18.201 Y73.695 E13.89938
G1 X17.512 Y73.149 E13.92862
G1 X17.32 Y72.984 E13.93704
G1 X17.035 Y72.73 E13.94973
G1 X16.793 Y72.507 E13.96068
G1 X16.163 Y71.877 E13.99031
G1 X15.984 Y71.683 E13.99909
G1 X15.732 Y71.401 E14.01167
G1 X15.54 Y71.178 E14.02146
G1 X14.993 Y70.489 E14.05072
G1 X14.844 Y70.285 E14.05912
G1 X14.631 Y69.983 E14.07141
G1 X14.446 Y69.711 E14.08235
G1 X13.988 Y68.977 E14.11113
G1 X13.875 Y68.779 E14.11871
G1 X13.718 Y68.494 E14.12953
G1 X13.577 Y68.229 E14.13952
G1 X13.183 Y67.409 E14.16977
G1 X13.072 Y67.151 E14.17912
G1 X12.943 Y66.836 E14.19044
G1 X12.839 Y66.572 E14.19988
G1 X12.584 Y65.852 E14.22528
G1 X12.518 Y65.643 E14.23257
G1 X12.394 Y65.222 E14.24717
G1 X12.312 Y64.921 E14.25754
G1 X12.108 Y64.026 E14.28807
G1 X12.046 Y63.69 E14.29944
G1 X11.985 Y63.326 E14.31171
G1 X11.949 Y63.086 E14.31979
G1 X11.861 Y62.32 E14.34543
G1 X11.843 Y62.092 E14.35304
G1 X11.819 Y61.695 E14.36627
G1 X11.805 Y61.367 E14.37719
G1 X11.796 Y61.051 E14.3877
G1 X11.785 Y60.177 E14.41677
G1 X11.786 Y55.101 E14.5856
G1 X11.793 Y54.511 E14.60522
G1 X11.799 Y54.246 E14.61404
G1 X11.818 Y53.717 E14.63165
G1 X11.849 Y53.198 E14.64894
G1 X11.884 Y52.778 E14.66296
G1 X11.935 Y52.296 E14.67908
G1 X11.995 Y51.827 E14.6948
G1 X12.068 Y51.342 E14.71112
G1 X12.144 Y50.904 E14.7259
G1 X12.24 Y50.417 E14.74241
G1 X12.339 Y49.968 E14.7577
G1 X12.456 Y49.488 E14.77414
G1 X12.571 Y49.059 E14.78891
G1 X12.722 Y48.545 E14.80673
G1 X12.861 Y48.112 E14.82185
G1 X13.009 Y47.683 E14.83695
G1 X13.161 Y47.269 E14.85162
G1 X13.355 Y46.778 E14.86917
G1 X13.538 Y46.345 E14.88481
G1 X13.724 Y45.929 E14.89997
G1 X13.912 Y45.531 E14.91461
G1 X14.146 Y45.064 E14.93198
G1 X14.355 Y44.671 E14.94678
G1 X14.602 Y44.231 E14.96357
G1 X14.846 Y43.819 E14.97949
G1 X15.101 Y43.409 E14.99555
G1 X15.325 Y43.066 E15.00918
G1 X15.623 Y42.633 E15.02666
G1 X15.916 Y42.228 E15.04329
G1 X16.189 Y41.866 E15.05837
G1 X16.431 Y41.559 E15.07137
G1 X16.771 Y41.149 E15.08908
G1 X17.099 Y40.772 E15.1057
G1 X17.418 Y40.421 E15.12148
G1 X17.733 Y40.089 E15.1367
G1 X18.096 Y39.724 E15.15382
G1 X18.395 Y39.437 E15.16761
G1 X18.755 Y39.106 E15.18387
G1 X19.107 Y38.797 E15.19945
G1 X19.492 Y38.474 E15.21617
G1 X19.857 Y38.182 E15.23171
G1 X20.235 Y37.894 E15.24752
G1 X20.451 Y37.736 E15.25642
G1 X20.96 Y37.385 E15.27698
G1 X21.768 Y36.861 E15.30901
G1 X22.148 Y36.625 E15.32389
G0 F6000 X22.352 Y36.969
G1 F1200 X22.455 Y36.908 E15.32787
G1 X22.832 Y36.695 E15.34228
G1 X23.237 Y36.477 E15.35757
G1 X23.63 Y36.276 E15.37226
G1 X24.015 Y36.089 E15.38649
G1 X24.498 Y35.869 E15.40414
G1 X24.926 Y35.687 E15.41961
G1 X25.344 Y35.52 E15.43458
G1 X25.751 Y35.367 E15.44905
G1 X26.236 Y35.198 E15.46613
G1 X26.69 Y35.052 E15.48199
G1 X27.125 Y34.922 E15.49709
G1 X27.536 Y34.809 E15.51127
G1 X28.002 Y34.692 E15.52725
G1 X28.465 Y34.587 E15.54304
G1 X28.928 Y34.493 E15.55875
G1 X29.427 Y34.403 E15.57562
G1 X29.894 Y34.33 E15.59134
G1 X30.775 Y34.212 E15.6209
G1 X33.875 Y33.829 E15.72479
G1 X37.11 Y33.437 E15.83318
G1 X40.882 Y32.987 E15.95952
G1 X44.498 Y32.567 E16.0806
G1 X45.875 Y32.409 E16.1267
G1 X48.741 Y32.09 E16.22261
G1 X51.504 Y31.793 E16.31504
G1 X53.729 Y31.562 E16.38944
G1 X56.055 Y31.331 E16.46718
G1 X56.903 Y31.249 E16.49552
G1 X58.921 Y31.062 E16.56293
G1 X61.555 Y30.835 E16.65086
G1 X63.22 Y30.703 E16.70641
G1 X64.925 Y30.577 E16.76327
G1 X66.536 Y30.469 E16.81698
G1 X67.935 Y30.383 E16.86359
G1 X68.58 Y30.348 E16.88508
G1 X69.315 Y30.317 E16.90955
G1 X69.618 Y30.309 E16.91963
G1 X70.423 Y30.299 E16.9464
G1 X88.128 Y30.3 E17.53528
G1 X88.934 Y30.311 E17.56209
G1 X89.231 Y30.319 E17.57197
G1 X89.861 Y30.346 E17.59294
G1 X90.673 Y30.388 E17.61998
G1 X92.318 Y30.481 E17.67478
G1 X94.303 Y30.604 E17.74093
G1 X96.781 Y30.776 E17.82355
G1 X99.265 Y30.961 E17.9064
G1 X102.032 Y31.183 E17.99872
G1 X104.054 Y31.354 E18.06621
G1 X106.408 Y31.56 E18.14481
G1 X108.618 Y31.758 E18.21861
G1 X111.289 Y32.007 E18.30783
G1 X114.259 Y32.29 E18.40706
G1 X118.083 Y32.665 E18.53486
G1 X120.899 Y32.946 E18.62898
G1 X124.109 Y33.272 E18.7363
G1 X125.386 Y33.394 E18.77896
G1 X127.96 Y33.597 E18.86484
G1 X130.482 Y33.724 E18.94883
G1 X132.983 Y33.779 E19.03203
G1 X135.535 Y33.763 E19.11691
G1 X138.069 Y33.676 E19.20125
G1 X140.593 Y33.517 E19.28536
G1 X143.112 Y33.287 E19.36949
G1 X145.597 Y32.989 E19.45273
G1 X148.136 Y32.611 E19.53811
G1 X150.607 Y32.172 E19.62159
G1 X152.692 Y31.74 E19.69241
G1 X152.772 Y31.727 E19.6951
G1 X153.497 Y31.57 E19.71977
G1 X153.892 Y31.491 E19.73317
G1 X154.524 Y31.356 E19.75467
G1 X154.807 Y31.3 E19.76426
G1 X155.731 Y31.129 E19.79552
G1 X156.031 Y31.078 E19.80564
G1 X157.092 Y30.913 E19.84135
G1 X157.34 Y30.877 E19.84969
G1 X157.85 Y30.81 E19.86679
G1 X158.528 Y30.732 E19.88949
G1 X159.539 Y30.634 E19.92328
G1 X160.403 Y30.564 E19.95211
G1 X161.276 Y30.507 E19.98121
G1 X162.248 Y30.456 E20.01358
G1 X162.776 Y30.433 E20.03116
G1 X163.996 Y30.391 E20.07176
G1 X164.573 Y30.375 E20.09096
G1 X166.12 Y30.343 E20.14242
G1 X167.02 Y30.33 E20.17236
G1 X168.442 Y30.313 E20.21966
G1 X170.53 Y30.303 E20.28911
G1 X172.753 Y30.299 E20.36304
G1 X195.227 Y30.3 E21.11053
G1 X196.083 Y30.312 E21.139
G1 X196.541 Y30.328 E21.15425
G1 X196.907 Y30.349 E21.16644
G1 X197.63 Y30.416 E21.19059
G1 X198.326 Y30.504 E21.21392
G1 X199.372 Y30.69 E21.24926
G1 X200.059 Y30.848 E21.27271
G1 X201.044 Y31.125 E21.30674
G1 X201.714 Y31.349 E21.33023
G1 X202.395 Y31.603 E21.35441
G1 X202.698 Y31.728 E21.36531
G1 X203.299 Y31.998 E21.38722
G1 X203.574 Y32.132 E21.3974
G1 X204.193 Y32.459 E21.42068
G1 X204.798 Y32.805 E21.44386
G1 X205.671 Y33.363 E21.47832
G1 X206.291 Y33.803 E21.50361
G1 X206.634 Y34.057 E21.51781
G1 X206.713 Y34.118 E21.52113
G1 X207.163 Y34.486 E21.54046
G1 X207.317 Y34.619 E21.54723
G1 X207.623 Y34.893 E21.56089
G1 X207.819 Y35.076 E21.56981
G1 X208.293 Y35.547 E21.59203
G1 X208.8 Y36.084 E21.6166
G1 X209.47 Y36.867 E21.65087
G1 X209.887 Y37.405 E21.67351
G1 X210.475 Y38.245 E21.70762
G1 X210.871 Y38.873 E21.73231
G1 X211.102 Y39.258 E21.74724
G1 X211.157 Y39.354 E21.75092
G1 X211.411 Y39.824 E21.76869
G1 X211.509 Y40.017 E21.77589
G1 X211.723 Y40.463 E21.79234
G1 X211.841 Y40.725 E21.8019
G1 X212.074 Y41.285 E21.82207
G1 X212.335 Y41.966 E21.84633
G1 X212.493 Y42.407 E21.86191
G1 X212.529 Y42.515 E21.8657
G1 X212.67 Y42.973 E21.88164
G1 X212.735 Y43.202 E21.88955
G1 X212.855 Y43.664 E21.90543
G1 X212.958 Y44.101 E21.92036
G1 X213.081 Y44.696 E21.94057
G1 X213.119 Y44.912 E21.94787
G1 X213.185 Y45.341 E21.9623
G1 X213.224 Y45.632 E21.97207
G1 X213.293 Y46.309 E21.9947
G1 X213.346 Y47.076 E22.02027
G1 X213.364 Y47.409 E22.03137
G1 X213.374 Y47.675 E22.04022
G1 X213.38 Y47.955 E22.04953
G1 X213.385 Y48.434 E22.06547
