;FLAVOR:Marlin
;TIME:9830
;Filament used: 8.51486m
;Layer height: 0.16
;MINX:23.777
;MINY:93.564
;MINZ:0.2
;MAXX:201.206
;MAXY:132.104
;MAXZ:14.4
;Generated with Cura_SteamEngine 4.12.0
M140 S60
M105
M190 S60
M104 S200
M105
M109 S200
M82 ;absolute extrusion mode
; Ender 3 Custom Start G-code
G92 E0 ; Reset Extruder
G28 ; Home all axes
G29 ; BLTOUCH
G1 Z2.0 F3000 ; Move Z Axis up little to prevent scratching of Heat Bed
G1 X0.1 Y20 Z0.3 F5000.0 ; Move to start position
G1 X0.1 Y200.0 Z0.3 F1500.0 E15 ; Draw the first line
G1 X0.4 Y200.0 Z0.3 F5000.0 ; Move to side a little
G1 X0.4 Y20 Z0.3 F1500.0 E30 ; Draw the second line
G92 E0 ; Reset Extruder
G1 Z2.0 F3000 ; Move Z Axis up little to prevent scratching of Heat Bed
G1 X5 Y20 Z0.3 F5000.0 ; Move over to prevent blob squish
G92 E0
G92 E0
G1 F1500 E-6.5
;LAYER_COUNT:73
;LAYER:0
M107
G0 F6000 X31.783 Y98.568 Z0.2
;TYPE:SKIRT
G1 F1500 E0
G1 F1200 X32.695 Y98.351 E0.03118
G1 X33.623 Y98.212 E0.06239
G1 X34.505 Y98.154 E0.09179
G1 X34.877 Y98.146 E0.10416
G1 X35.351 Y98.144 E0.11993
G1 X99.165 Y98.589 E2.24244
G1 X101.778 Y98.57 E2.32935
G1 X104.266 Y98.482 E2.41216
G1 X106.816 Y98.319 E2.49714
G1 X109.271 Y98.093 E2.57914
G1 X111.799 Y97.787 E2.66384
G1 X114.299 Y97.413 E2.74791
G1 X116.778 Y96.97 E2.83167
G1 X119.222 Y96.461 E2.9147
G1 X121.638 Y95.888 E2.99729
G1 X124.128 Y95.221 E3.08303
G1 X126.581 Y94.487 E3.16819
G1 X127.887 Y94.077 E3.21372
G1 X128.793 Y93.834 E3.24491
G1 X129.716 Y93.67 E3.27609
G1 X130.975 Y93.573 E3.31809
G1 X131.34 Y93.566 E3.33024
G1 X131.627 Y93.564 E3.33978
G1 X180.797 Y93.907 E4.97522
G1 X182.124 Y93.933 E5.01937
G1 X183.233 Y93.969 E5.05627
G1 X183.952 Y94.001 E5.08021
G1 X184.886 Y94.082 E5.11139
G1 X185.81 Y94.243 E5.14259
G1 X186.699 Y94.477 E5.17316
G1 X187.454 Y94.71 E5.19944
G1 X188.476 Y95.041 E5.23517
G1 X189.164 Y95.274 E5.25933
G1 X190.039 Y95.613 E5.29054
G1 X190.882 Y96.024 E5.32174
G1 X191.654 Y96.485 E5.35164
G1 X192.358 Y96.947 E5.37965
G1 X193.264 Y97.561 E5.41605
G1 X193.823 Y97.951 E5.43872
G1 X194.569 Y98.52 E5.46993
G1 X195.263 Y99.15 E5.5011
G1 X195.866 Y99.796 E5.53049
G1 X196.389 Y100.405 E5.55719
G1 X197.084 Y101.24 E5.59333
G1 X197.528 Y101.787 E5.61676
G1 X198.087 Y102.539 E5.64792
G1 X198.715 Y103.585 E5.6885
G1 X199.009 Y104.18 E5.71058
G1 X199.306 Y104.83 E5.73435
G1 X199.704 Y105.732 E5.76714
G1 X200.035 Y106.511 E5.79529
G1 X200.364 Y107.389 E5.82647
G1 X200.617 Y108.292 E5.85766
G1 X200.73 Y108.836 E5.87614
G1 X200.796 Y109.23 E5.88943
G1 X200.91 Y110.004 E5.91545
G1 X201.044 Y111.01 E5.94921
G1 X201.134 Y111.76 E5.97433
G1 X201.206 Y112.696 E6.00555
G1 X201.198 Y113.633 E6.03672
G1 X201.15 Y114.238 E6.05691
G1 X201.107 Y114.607 E6.06926
G1 X201.038 Y115.122 E6.08654
G1 X200.837 Y116.472 E6.13194
G1 X200.728 Y117.13 E6.15412
G1 X200.536 Y118.048 E6.18532
G1 X200.104 Y119.381 E6.23192
G1 X199.923 Y119.817 E6.24762
G1 X199.636 Y120.464 E6.27117
G1 X199.157 Y121.511 E6.30946
G1 X198.868 Y122.12 E6.33188
G1 X198.43 Y122.949 E6.36307
G1 X197.923 Y123.738 E6.39426
G1 X197.373 Y124.455 E6.42431
G1 X196.826 Y125.108 E6.45265
G1 X196.182 Y125.857 E6.4855
G1 X195.672 Y126.433 E6.51109
G1 X195.021 Y127.108 E6.54228
G1 X194.314 Y127.725 E6.57349
G1 X193.58 Y128.265 E6.6038
G1 X192.874 Y128.739 E6.63208
G1 X192.026 Y129.294 E6.66579
G1 X191.415 Y129.681 E6.68984
G1 X190.602 Y130.148 E6.72103
G1 X189.752 Y130.545 E6.75223
G1 X188.933 Y130.848 E6.78128
G1 X188.172 Y131.094 E6.80788
G1 X187.08 Y131.429 E6.84587
G1 X186.423 Y131.62 E6.86862
G1 X185.512 Y131.843 E6.89982
G1 X184.585 Y131.988 E6.93102
G1 X183.998 Y132.038 E6.95062
G1 X183.638 Y132.056 E6.96261
G1 X183.037 Y132.075 E6.98261
G1 X181.747 Y132.097 E7.02552
G1 X180.379 Y132.104 E7.07102
G1 X131.564 Y131.764 E8.69465
G1 X130.846 Y131.749 E8.71854
G1 X129.91 Y131.689 E8.74973
G1 X128.983 Y131.55 E8.78091
G1 X127.641 Y131.201 E8.82703
G1 X125.057 Y130.352 E8.91749
G1 X122.63 Y129.629 E9.00172
G1 X120.242 Y128.992 E9.08393
G1 X117.73 Y128.396 E9.16979
G1 X115.276 Y127.889 E9.25314
G1 X112.826 Y127.453 E9.33591
G1 X110.354 Y127.085 E9.41903
G1 X107.817 Y126.781 E9.50402
G1 X105.319 Y126.552 E9.58745
G1 X102.863 Y126.397 E9.6693
G1 X98.973 Y126.288 E9.79873
G1 X35.419 Y125.846 E11.9126
G1 X34.543 Y125.827 E11.94174
G1 X33.607 Y125.766 E11.97294
G1 X32.68 Y125.625 E12.00412
G1 X31.768 Y125.406 E12.03532
G1 X30.879 Y125.11 E12.06648
G1 X30.017 Y124.739 E12.0977
G1 X29.19 Y124.296 E12.1289
G1 X28.404 Y123.784 E12.1601
G1 X27.665 Y123.207 E12.19128
G1 X26.977 Y122.569 E12.22249
G1 X26.346 Y121.875 E12.25369
G1 X25.777 Y121.13 E12.28487
G1 X25.273 Y120.339 E12.31606
G1 X24.838 Y119.508 E12.34726
G1 X24.476 Y118.643 E12.37845
G1 X24.189 Y117.75 E12.40964
G1 X23.979 Y116.836 E12.44084
G1 X23.847 Y115.908 E12.47201
G1 X23.796 Y115.032 E12.5012
G1 X23.777 Y113.903 E12.53875
G1 X23.778 Y109.658 E12.67994
G1 X23.788 Y108.986 E12.7023
G1 X23.842 Y108.05 E12.73348
G1 X23.976 Y107.122 E12.76466
G1 X24.188 Y106.208 E12.79587
G1 X24.477 Y105.316 E12.82706
G1 X24.841 Y104.452 E12.85824
G1 X25.277 Y103.621 E12.88945
G1 X25.783 Y102.831 E12.92066
G1 X26.354 Y102.087 E12.95185
G1 X26.986 Y101.395 E12.98302
G1 X27.675 Y100.758 E13.01423
G1 X28.416 Y100.183 E13.04543
G1 X29.203 Y99.673 E13.07662
G1 X30.03 Y99.232 E13.10779
G1 X30.892 Y98.863 E13.13898
G1 X31.783 Y98.568 E13.17019
G0 F6000 X32.137 Y98.887
G1 F1200 X33.037 Y98.695 E13.2008
G1 X33.951 Y98.583 E13.23143
G1 X34.515 Y98.553 E13.25021
G1 X34.879 Y98.546 E13.26232
G1 X35.348 Y98.544 E13.27792
G1 X99.165 Y98.989 E15.40053
G1 X101.795 Y98.97 E15.48801
G1 X104.304 Y98.881 E15.57151
G1 X106.81 Y98.721 E15.65503
G1 X109.319 Y98.49 E15.73884
G1 X111.87 Y98.182 E15.8243
G1 X114.363 Y97.808 E15.90814
G1 X116.817 Y97.369 E15.99106
G1 X119.323 Y96.848 E16.07619
G1 X121.769 Y96.268 E16.1598
G1 X124.209 Y95.614 E16.24382
G1 X126.733 Y94.859 E16.33145
G1 X128.007 Y94.459 E16.37586
G1 X128.896 Y94.221 E16.40647
G1 X129.803 Y94.062 E16.43709
G1 X130.983 Y93.973 E16.47645
G1 X131.348 Y93.966 E16.4886
G1 X131.625 Y93.964 E16.49781
G1 X180.789 Y94.307 E18.13305
G1 X182.111 Y94.332 E18.17703
G1 X183.215 Y94.368 E18.21377
G1 X183.934 Y94.4 E18.2377
G1 X184.851 Y94.481 E18.26832
G1 X185.758 Y94.641 E18.29895
G1 X186.581 Y94.859 E18.32727
G1 X187.332 Y95.091 E18.35341
G1 X188.348 Y95.42 E18.38893
G1 X189.036 Y95.653 E18.41309
G1 X189.894 Y95.986 E18.44371
G1 X190.721 Y96.392 E18.47435
G1 X191.436 Y96.82 E18.50206
G1 X192.134 Y97.278 E18.52983
G1 X192.905 Y97.799 E18.56078
G1 X193.594 Y98.279 E18.58871
G1 X194.326 Y98.838 E18.61934
G1 X195.006 Y99.458 E18.64995
G1 X195.563 Y100.057 E18.67715
G1 X196.082 Y100.661 E18.70364
G1 X196.682 Y101.38 E18.73479
G1 X197.217 Y102.039 E18.76302
G1 X197.766 Y102.778 E18.79364
G1 X198.361 Y103.771 E18.83214
G1 X198.646 Y104.346 E18.85349
G1 X198.94 Y104.992 E18.87709
G1 X199.399 Y106.035 E18.91499
G1 X199.667 Y106.667 E18.93783
G1 X199.989 Y107.529 E18.96843
G1 X200.329 Y108.866 E19.01432
G1 X200.401 Y109.289 E19.02859
G1 X200.514 Y110.057 E19.05441
G1 X200.629 Y110.918 E19.0833
G1 X200.736 Y111.808 E19.11311
G1 X200.806 Y112.726 E19.14373
G1 X200.796 Y113.647 E19.17437
G1 X200.752 Y114.195 E19.19265
G1 X200.71 Y114.554 E19.20468
G1 X200.621 Y115.214 E19.22683
G1 X200.471 Y116.227 E19.26089
G1 X200.333 Y117.064 E19.2891
G1 X200.144 Y117.965 E19.31972
G1 X199.732 Y119.233 E19.36406
G1 X199.557 Y119.655 E19.37926
G1 X199.272 Y120.298 E19.40265
G1 X198.795 Y121.339 E19.44074
G1 X198.506 Y121.948 E19.46316
G1 X198.076 Y122.762 E19.49378
G1 X197.577 Y123.536 E19.52441
G1 X197.066 Y124.199 E19.55225
G1 X196.523 Y124.848 E19.58039
G1 X195.99 Y125.469 E19.60761
G1 X195.372 Y126.168 E19.63864
G1 X194.733 Y126.83 E19.66925
G1 X194.038 Y127.434 E19.69987
G1 X193.357 Y127.933 E19.72795
G1 X192.655 Y128.405 E19.75609
G1 X191.812 Y128.956 E19.78958
G1 X191.201 Y129.343 E19.81364
G1 X190.402 Y129.801 E19.84427
G1 X189.567 Y130.189 E19.87489
G1 X188.809 Y130.468 E19.90176
G1 X188.055 Y130.712 E19.92812
G1 X186.968 Y131.045 E19.96593
G1 X186.311 Y131.236 E19.98869
G1 X185.417 Y131.454 E20.01929
G1 X184.507 Y131.594 E20.04991
G1 X183.972 Y131.639 E20.06777
G1 X183.625 Y131.656 E20.07933
G1 X183.024 Y131.675 E20.09933
G1 X181.744 Y131.697 E20.14191
G1 X180.381 Y131.704 E20.18724
G1 X131.573 Y131.364 E21.81064
G1 X130.855 Y131.349 E21.83453
G1 X129.936 Y131.29 E21.86515
G1 X129.026 Y131.151 E21.89577
G1 X127.766 Y130.821 E21.93909
G1 X125.159 Y129.964 E22.03037
G1 X122.774 Y129.254 E22.11313
G1 X120.29 Y128.592 E22.19864
G1 X117.839 Y128.01 E22.28242
G1 X115.39 Y127.504 E22.3656
G1 X112.884 Y127.058 E22.45026
G1 X110.393 Y126.687 E22.53402
G1 X107.861 Y126.383 E22.61884
G1 X105.348 Y126.153 E22.70277
G1 X102.871 Y125.997 E22.78532
G1 X98.986 Y125.888 E22.91459
G1 X35.422 Y125.446 E25.02879
G1 X34.552 Y125.427 E25.05773
G1 X33.634 Y125.366 E25.08833
G1 X32.724 Y125.226 E25.11895
G1 X31.83 Y125.007 E25.14957
G1 X30.958 Y124.711 E25.18019
G1 X30.115 Y124.341 E25.21081
G1 X29.307 Y123.899 E25.24145
G1 X28.541 Y123.389 E25.27205
G1 X27.822 Y122.814 E25.30268
G1 X27.155 Y122.179 E25.33331
G1 X26.546 Y121.489 E25.36392
G1 X26 Y120.748 E25.39453
G1 X25.519 Y119.962 E25.42518
G1 X25.109 Y119.138 E25.45579
G1 X24.772 Y118.282 E25.48639
G1 X24.51 Y117.399 E25.51702
G1 X24.326 Y116.497 E25.54764
G1 X24.221 Y115.582 E25.57827
G1 X24.196 Y115.024 E25.59685
G1 X24.177 Y113.903 E25.63414
G1 X24.178 Y109.664 E25.77513
G1 X24.188 Y108.992 E25.79748
G1 X24.242 Y108.073 E25.8281
G1 X24.375 Y107.162 E25.85872
G1 X24.587 Y106.266 E25.88935
G1 X24.876 Y105.392 E25.91997
G1 X25.239 Y104.546 E25.95058
G1 X25.674 Y103.735 E25.98119
G1 X26.179 Y102.965 E26.01182
G1 X26.748 Y102.241 E26.04245
G1 X27.378 Y101.57 E26.07306
G1 X28.063 Y100.955 E26.10368
G1 X28.8 Y100.403 E26.1343
G1 X29.581 Y99.916 E26.16492
G1 X30.402 Y99.499 E26.19554
G1 X31.256 Y99.155 E26.22617
G1 X32.137 Y98.887 E26.25679
G0 F6000 X31.618 Y99.455
G1 F1200 X32.488 Y99.213 E26.28683
G1 X33.376 Y99.048 E26.31687
G1 X34.526 Y98.953 E26.35525
G1 X34.881 Y98.946 E26.36706
G1 X35.345 Y98.944 E26.38249
G1 X99.165 Y99.389 E28.5052
G1 X101.776 Y99.37 E28.59205
G1 X104.343 Y99.279 E28.67748
G1 X106.839 Y99.12 E28.76067
G1 X109.403 Y98.883 E28.84631
G1 X111.871 Y98.585 E28.92899
G1 X114.421 Y98.203 E29.01475
G1 X116.938 Y97.753 E29.09979
G1 X119.384 Y97.245 E29.18288
G1 X121.86 Y96.657 E29.26753
G1 X124.331 Y95.995 E29.35261
G1 X126.885 Y95.231 E29.44128
G1 X128.127 Y94.841 E29.48457
G1 X129 Y94.608 E29.51463
G1 X129.89 Y94.454 E29.54467
G1 X130.99 Y94.373 E29.58135
G1 X131.355 Y94.366 E29.5935
G1 X131.622 Y94.364 E29.60238
G1 X180.782 Y94.707 E31.23748
G1 X182.098 Y94.732 E31.28126
G1 X183.198 Y94.768 E31.31787
G1 X183.917 Y94.8 E31.34181
G1 X184.816 Y94.88 E31.37183
G1 X185.705 Y95.039 E31.40186
G1 X186.464 Y95.241 E31.42799
G1 X187.209 Y95.472 E31.45393
G1 X188.22 Y95.799 E31.48927
G1 X188.908 Y96.032 E31.51343
G1 X189.75 Y96.359 E31.54347
G1 X190.559 Y96.76 E31.5735
G1 X191.217 Y97.155 E31.59903
G1 X191.91 Y97.61 E31.6266
G1 X192.806 Y98.217 E31.6626
G1 X193.365 Y98.607 E31.68527
G1 X194.082 Y99.156 E31.7153
G1 X194.748 Y99.766 E31.74534
G1 X195.26 Y100.318 E31.77038
G1 X195.674 Y100.799 E31.79149
G1 X196.462 Y101.744 E31.83242
G1 X196.906 Y102.291 E31.85585
G1 X197.444 Y103.016 E31.88588
G1 X198.008 Y103.958 E31.92239
G1 X198.282 Y104.513 E31.94298
G1 X198.574 Y105.153 E31.96638
G1 X199.031 Y106.191 E32.0041
G1 X199.299 Y106.823 E32.02693
G1 X199.614 Y107.669 E32.05696
G1 X199.936 Y108.939 E32.10053
G1 X200.005 Y109.348 E32.11433
G1 X200.117 Y110.11 E32.13995
G1 X200.249 Y111.106 E32.17336
G1 X200.339 Y111.856 E32.19849
G1 X200.407 Y112.756 E32.22851
G1 X200.395 Y113.659 E32.25854
G1 X200.354 Y114.153 E32.27503
G1 X200.314 Y114.5 E32.28665
G1 X200.225 Y115.155 E32.30863
G1 X200.048 Y116.341 E32.34852
G1 X199.939 Y116.999 E32.3707
G1 X199.752 Y117.883 E32.40075
G1 X199.36 Y119.086 E32.44284
G1 X199.191 Y119.494 E32.45752
G1 X198.908 Y120.132 E32.48074
G1 X198.434 Y121.168 E32.51863
G1 X198.145 Y121.777 E32.54105
G1 X197.722 Y122.575 E32.57109
G1 X197.23 Y123.332 E32.60112
G1 X196.759 Y123.942 E32.62675
G1 X196.219 Y124.587 E32.65473
G1 X195.583 Y125.327 E32.68718
G1 X195.073 Y125.903 E32.71277
G1 X194.445 Y126.552 E32.74281
G1 X193.762 Y127.143 E32.77285
G1 X193.134 Y127.601 E32.7987
G1 X192.436 Y128.07 E32.82667
G1 X191.598 Y128.618 E32.85997
G1 X190.987 Y129.005 E32.88403
G1 X190.203 Y129.454 E32.91408
G1 X189.383 Y129.832 E32.94411
G1 X188.685 Y130.087 E32.96883
G1 X187.937 Y130.329 E32.99497
G1 X186.856 Y130.661 E33.03259
G1 X186.199 Y130.852 E33.05534
G1 X185.322 Y131.065 E33.08536
G1 X184.009 Y131.236 E33.1294
G1 X183.612 Y131.256 E33.14262
G1 X182.862 Y131.279 E33.16758
G1 X181.742 Y131.297 E33.20483
G1 X180.384 Y131.304 E33.25
G1 X131.581 Y130.964 E34.87324
G1 X130.863 Y130.949 E34.89712
G1 X129.962 Y130.89 E34.92715
G1 X129.069 Y130.752 E34.95721
G1 X127.891 Y130.441 E34.99773
G1 X125.292 Y129.587 E35.08872
G1 X122.854 Y128.861 E35.17333
G1 X120.414 Y128.21 E35.25732
G1 X117.914 Y127.617 E35.34278
G1 X115.463 Y127.111 E35.42602
G1 X112.942 Y126.661 E35.51119
G1 X110.429 Y126.288 E35.59569
G1 X107.912 Y125.986 E35.68001
G1 X105.408 Y125.756 E35.76364
G1 X102.877 Y125.597 E35.84799
G1 X99.001 Y125.488 E35.97695
G1 X35.425 Y125.046 E38.09155
G1 X34.562 Y125.027 E38.12026
G1 X33.661 Y124.967 E38.1503
G1 X32.768 Y124.827 E38.18036
G1 X31.892 Y124.608 E38.21039
G1 X31.038 Y124.313 E38.24044
G1 X30.214 Y123.944 E38.27047
G1 X29.426 Y123.503 E38.30051
G1 X28.68 Y122.994 E38.33054
G1 X27.982 Y122.422 E38.36056
G1 X27.337 Y121.789 E38.39062
G1 X26.751 Y121.102 E38.42065
G1 X26.227 Y120.366 E38.4507
G1 X25.771 Y119.587 E38.48072
G1 X25.386 Y118.77 E38.51076
G1 X25.074 Y117.923 E38.54078
G1 X24.839 Y117.051 E38.57082
G1 X24.681 Y116.161 E38.60089
G1 X24.596 Y115.017 E38.63904
G1 X24.577 Y113.903 E38.6761
G1 X24.578 Y109.67 E38.81689
G1 X24.588 Y108.998 E38.83924
G1 X24.642 Y108.097 E38.86926
G1 X24.774 Y107.203 E38.89932
G1 X24.986 Y106.325 E38.92936
G1 X25.274 Y105.47 E38.95937
G1 X25.637 Y104.643 E38.98941
G1 X26.072 Y103.851 E39.01946
G1 X26.574 Y103.101 E39.04948
G1 X27.142 Y102.398 E39.07954
G1 X27.769 Y101.748 E39.10958
G1 X28.451 Y101.156 E39.13961
G1 X29.183 Y100.627 E39.16965
G1 X29.959 Y100.165 E39.19969
G1 X30.772 Y99.773 E39.22971
G1 X31.618 Y99.455 E39.25977
G1 F1500 E32.75977
;MESH:??ubuk(1x).stl
G0 F6000 X177.992 Y116.154
G0 X176.677 Y117.465
G0 X178.253 Y118.396
;TYPE:WALL-INNER
G1 F1500 E39.25977
G1 F1200 X178.789 Y118.649 E39.27948
G1 X179.353 Y118.85 E39.2994
G1 X179.94 Y118.997 E39.31952
G1 X180.532 Y119.085 E39.33943
G1 X181.129 Y119.112 E39.35931
G1 X181.731 Y119.084 E39.37935
G1 X182.314 Y118.996 E39.39896
G1 X182.894 Y118.85 E39.41885
G1 X183.465 Y118.646 E39.43902
G1 X184.002 Y118.393 E39.45877
G1 X184.521 Y118.078 E39.47896
G1 X184.999 Y117.723 E39.49876
G1 X185.437 Y117.327 E39.5184
G1 X185.847 Y116.877 E39.53865
G1 X186.201 Y116.396 E39.55851
G1 X186.508 Y115.881 E39.57845
G1 X186.762 Y115.345 E39.59818
G1 X186.963 Y114.78 E39.61813
G1 X187.11 Y114.2 E39.63803
G1 X187.198 Y113.599 E39.65823
G1 X187.225 Y113.003 E39.67807
G1 X187.198 Y112.412 E39.69775
G1 X187.109 Y111.815 E39.71783
G1 X186.96 Y111.229 E39.73794
G1 X186.759 Y110.668 E39.75776
G1 X186.505 Y110.132 E39.77749
G1 X186.198 Y109.62 E39.79734
G1 X185.837 Y109.133 E39.8175
G1 X185.456 Y108.714 E39.83634
G1 X184.996 Y108.293 E39.85708
G1 X184.511 Y107.932 E39.87719
G1 X184 Y107.626 E39.897
G1 X183.452 Y107.369 E39.91713
G1 X182.894 Y107.169 E39.93685
G1 X182.304 Y107.022 E39.95707
G1 X181.714 Y106.935 E39.97691
G1 X181.114 Y106.905 E39.99689
G1 X180.515 Y106.938 E40.01684
G1 X179.933 Y107.023 E40.0364
G1 X179.342 Y107.172 E40.05667
G1 X178.787 Y107.371 E40.07628
G1 X178.248 Y107.627 E40.09613
G1 X177.733 Y107.934 E40.11607
G1 X177.245 Y108.296 E40.13628
G1 X176.806 Y108.695 E40.15601
G1 X176.404 Y109.138 E40.17591
G1 X176.045 Y109.622 E40.19595
G1 X175.741 Y110.132 E40.2157
G1 X175.481 Y110.681 E40.2359
G1 X175.282 Y111.239 E40.25561
G1 X175.135 Y111.828 E40.2758
G1 X175.048 Y112.42 E40.2957
