;FLAVOR:Marlin
;TIME:18325
;Filament used: 13.8021m
;Layer height: 0.16
;MINX:76.439
;MINY:70.195
;MINZ:0.2
;MAXX:148.561
;MAXY:159.882
;MAXZ:82.36
;Generated with Cura_SteamEngine 4.12.0
M140 S60
M105
M190 S60
M104 S200
M105
M109 S200
M82 ;absolute extrusion mode
; Ender 3 Custom Start G-code
G92 E0 ; Reset Extruder
G28 ; Home all axes
G29 ; BLTOUCH
G1 Z2.0 F3000 ; Move Z Axis up little to prevent scratching of Heat Bed
G1 X0.1 Y20 Z0.3 F5000.0 ; Move to start position
G1 X0.1 Y200.0 Z0.3 F1500.0 E15 ; Draw the first line
G1 X0.4 Y200.0 Z0.3 F5000.0 ; Move to side a little
G1 X0.4 Y20 Z0.3 F1500.0 E30 ; Draw the second line
G92 E0 ; Reset Extruder
G1 Z2.0 F3000 ; Move Z Axis up little to prevent scratching of Heat Bed
G1 X5 Y20 Z0.3 F5000.0 ; Move over to prevent blob squish
G92 E0
G92 E0
G1 F1500 E-6.5
;LAYER_COUNT:429
;LAYER:0
M107
G0 F6000 X96.081 Y78.047 Z0.2
;TYPE:SKIRT
G1 F1500 E0
G1 F1200 X96.301 Y77.777 E0.01158
G1 X96.657 Y77.353 E0.03
G1 X97.29 Y76.661 E0.06119
G1 X97.764 Y76.212 E0.08291
G1 X97.938 Y76.057 E0.09066
G1 X98.206 Y75.826 E0.10242
G1 X99.8 Y74.497 E0.17145
G1 X100.323 Y74.072 E0.19387
G1 X101.075 Y73.512 E0.22505
G1 X101.916 Y72.994 E0.2579
G1 X102.373 Y72.74 E0.27529
G1 X102.689 Y72.571 E0.28721
G1 X102.94 Y72.442 E0.2966
G1 X104.043 Y71.95 E0.33677
G1 X104.729 Y71.688 E0.36119
G1 X105.647 Y71.354 E0.39368
G1 X106.371 Y71.102 E0.41918
G1 X106.653 Y71.008 E0.42907
G1 X106.914 Y70.925 E0.43818
G1 X107.22 Y70.833 E0.4488
G1 X107.653 Y70.709 E0.46378
G1 X108.564 Y70.49 E0.49495
G1 X109.145 Y70.392 E0.51454
G1 X109.512 Y70.344 E0.52685
G1 X109.775 Y70.314 E0.53566
G1 X110.102 Y70.282 E0.54659
G1 X110.543 Y70.245 E0.56131
G1 X111.117 Y70.211 E0.58043
G1 X111.435 Y70.201 E0.59101
G1 X111.771 Y70.196 E0.60219
G1 X112.848 Y70.195 E0.63801
G1 X113.703 Y70.206 E0.66645
G1 X114.332 Y70.233 E0.68739
G1 X114.582 Y70.251 E0.69573
G1 X115.018 Y70.292 E0.71029
G1 X115.544 Y70.351 E0.7279
G1 X116.471 Y70.495 E0.7591
G1 X117.316 Y70.698 E0.788
G1 X117.609 Y70.781 E0.79813
G1 X117.913 Y70.872 E0.80869
G1 X118.396 Y71.024 E0.82553
G1 X118.709 Y71.128 E0.8365
G1 X119.476 Y71.396 E0.86352
G1 X120.107 Y71.626 E0.88586
G1 X120.97 Y71.955 E0.91658
G1 X122.073 Y72.447 E0.95675
G1 X122.392 Y72.611 E0.96868
G1 X122.707 Y72.78 E0.98057
G1 X123.056 Y72.974 E0.99385
G1 X123.944 Y73.524 E1.02859
G1 X124.613 Y74.019 E1.05627
G1 X125.214 Y74.501 E1.08189
G1 X125.615 Y74.833 E1.09921
G1 X126.513 Y75.586 E1.13819
G1 X127.097 Y76.089 E1.16382
G1 X127.781 Y76.731 E1.19502
G1 X128.22 Y77.207 E1.21656
G1 X128.373 Y77.383 E1.22432
G1 X128.664 Y77.733 E1.23945
G1 X129.006 Y78.161 E1.25768
G1 X129.69 Y79.117 E1.29677
G1 X129.762 Y79.23 E1.30123
G1 X129.941 Y79.521 E1.31259
G1 X130.171 Y79.909 E1.3276
G1 X130.681 Y80.793 E1.36154
G1 X131.277 Y81.864 E1.40231
G1 X131.433 Y82.155 E1.41329
G1 X132.073 Y83.393 E1.45964
G1 X132.41 Y84.068 E1.48473
G1 X133.608 Y86.308 E1.56922
G1 X134.848 Y88.475 E1.65226
G1 X136.165 Y90.634 E1.73638
G1 X137.524 Y92.726 E1.81935
G1 X138.972 Y94.822 E1.90408
G1 X140.447 Y96.836 E1.98711
G1 X141.998 Y98.829 E2.0711
G1 X143.617 Y100.795 E2.15581
G1 X144.622 Y101.96 E2.20699
G1 X145.163 Y102.64 E2.23589
G1 X145.361 Y102.91 E2.24702
G1 X145.535 Y103.154 E2.25699
G1 X145.731 Y103.438 E2.26847
G1 X146.126 Y104.028 E2.29208
G1 X146.614 Y104.829 E2.32328
G1 X147.163 Y105.975 E2.36554
G1 X147.311 Y106.336 E2.37852
G1 X147.466 Y106.737 E2.39282
G1 X147.75 Y107.515 E2.42037
G1 X148.034 Y108.409 E2.45157
G1 X148.24 Y109.324 E2.48276
G1 X148.317 Y109.808 E2.49906
G1 X148.401 Y110.427 E2.51984
G1 X148.441 Y110.758 E2.53093
G1 X148.503 Y111.349 E2.55069
G1 X148.561 Y112.285 E2.58188
G1 X148.518 Y113.487 E2.62189
G1 X148.486 Y113.841 E2.63371
G1 X148.453 Y114.157 E2.64428
G1 X148.408 Y114.521 E2.65647
G1 X148.316 Y115.196 E2.67913
G1 X148.15 Y116.119 E2.71032
G1 X147.844 Y117.215 E2.74817
G1 X147.765 Y117.45 E2.75642
G1 X147.65 Y117.773 E2.76782
G1 X147.46 Y118.278 E2.78577
G1 X147.204 Y118.921 E2.80879
G1 X146.82 Y119.777 E2.83999
G1 X146.23 Y120.812 E2.87961
G1 X146.045 Y121.099 E2.89097
G1 X145.9 Y121.318 E2.89971
G1 X145.713 Y121.603 E2.91105
G1 X144.639 Y123.202 E2.97511
G1 X143.268 Y125.373 E3.06051
G1 X141.998 Y127.513 E3.14328
G1 X140.774 Y129.718 E3.22716
G1 X139.623 Y131.938 E3.31033
G1 X138.529 Y134.201 E3.39393
G1 X137.49 Y136.512 E3.47821
G1 X136.511 Y138.865 E3.56297
G1 X135.634 Y141.165 E3.64484
G1 X135.375 Y141.913 E3.67117
G1 X135.286 Y142.139 E3.67925
G1 X134.919 Y143.166 E3.71552
G1 X134.793 Y143.5 E3.7274
G1 X134.331 Y144.667 E3.76914
G1 X133.636 Y146.342 E3.82946
G1 X133.364 Y146.973 E3.85231
G1 X132.957 Y147.818 E3.88351
G1 X132.479 Y148.625 E3.9147
G1 X132.117 Y149.147 E3.93583
G1 X131.567 Y149.893 E3.96666
G1 X131.441 Y150.06 E3.97362
G1 X130.349 Y151.482 E4.03325
G1 X129.918 Y152.028 E4.05638
G1 X129.306 Y152.738 E4.08756
G1 X128.636 Y153.394 E4.11875
G1 X128.128 Y153.824 E4.14088
G1 X127.407 Y154.397 E4.17152
G1 X125.948 Y155.519 E4.23273
G1 X125.264 Y156.029 E4.26111
G1 X124.488 Y156.556 E4.29231
G1 X123.67 Y157.015 E4.32351
G1 X123.094 Y157.286 E4.34468
G1 X122.228 Y157.663 E4.37609
G1 X120.567 Y158.352 E4.4359
G1 X119.773 Y158.67 E4.46435
G1 X118.888 Y158.981 E4.49555
G1 X117.98 Y159.215 E4.52674
G1 X117.319 Y159.334 E4.54908
G1 X116.429 Y159.467 E4.57901
G1 X114.577 Y159.713 E4.64114
G1 X113.741 Y159.812 E4.66914
G1 X112.805 Y159.882 E4.70036
G1 X111.868 Y159.871 E4.73153
G1 X111.224 Y159.817 E4.75302
G1 X110.315 Y159.714 E4.78345
G1 X110.113 Y159.689 E4.79022
G1 X108.307 Y159.45 E4.85081
G1 X107.663 Y159.357 E4.87245
G1 X106.741 Y159.184 E4.90365
G1 X105.838 Y158.932 E4.93484
G1 X105.195 Y158.701 E4.95756
G1 X104.132 Y158.28 E4.99559
G1 X102.536 Y157.617 E5.05307
G1 X101.859 Y157.326 E5.07758
G1 X101.014 Y156.919 E5.10877
G1 X100.207 Y156.442 E5.13995
G1 X99.647 Y156.053 E5.16263
G1 X98.794 Y155.418 E5.198
G1 X97.327 Y154.291 E5.25953
G1 X96.812 Y153.885 E5.28134
G1 X96.101 Y153.274 E5.31252
G1 X95.444 Y152.604 E5.34373
G1 X95.005 Y152.084 E5.36637
G1 X94.357 Y151.266 E5.40108
G1 X93.19 Y149.743 E5.46489
G1 X92.809 Y149.231 E5.48612
G1 X92.282 Y148.455 E5.51732
G1 X91.823 Y147.638 E5.54849
G1 X91.546 Y147.049 E5.57013
G1 X91.112 Y146.048 E5.60642
G1 X90.484 Y144.532 E5.661
G1 X90.154 Y143.705 E5.69061
G1 X90.043 Y143.417 E5.70088
G1 X89.921 Y143.08 E5.7128
G1 X89.15 Y140.875 E5.79049
G1 X88.268 Y138.564 E5.87277
G1 X87.29 Y136.204 E5.95773
G1 X86.27 Y133.928 E6.04069
G1 X85.181 Y131.671 E6.12404
G1 X84.005 Y129.401 E6.20907
G1 X82.799 Y127.225 E6.29181
G1 X81.537 Y125.092 E6.37424
G1 X79.465 Y121.855 E6.50207
G1 X78.872 Y120.968 E6.53756
G1 X78.384 Y120.167 E6.56876
G1 X77.85 Y119.054 E6.60982
G1 X77.7 Y118.691 E6.62288
G1 X77.533 Y118.263 E6.63816
G1 X77.25 Y117.488 E6.6656
G1 X76.966 Y116.594 E6.6968
G1 X76.76 Y115.679 E6.728
G1 X76.678 Y115.128 E6.74652
G1 X76.603 Y114.6 E6.76426
G1 X76.562 Y114.269 E6.77536
G1 X76.499 Y113.683 E6.79496
G1 X76.439 Y112.747 E6.82615
G1 X76.482 Y111.497 E6.86775
G1 X76.515 Y111.139 E6.87971
G1 X76.569 Y110.659 E6.89578
G1 X76.679 Y109.833 E6.92349
G1 X76.876 Y108.772 E6.95938
G1 X76.885 Y108.734 E6.96068
G1 X77.189 Y107.684 E6.99704
G1 X77.27 Y107.449 E7.00531
G1 X77.465 Y106.919 E7.02409
G1 X77.544 Y106.712 E7.03146
G1 X77.79 Y106.092 E7.05365
G1 X78.173 Y105.236 E7.08484
G1 X78.779 Y104.175 E7.12548
G1 X78.964 Y103.889 E7.1368
G1 X79.119 Y103.656 E7.14611
G1 X79.354 Y103.316 E7.15986
G1 X79.76 Y102.747 E7.18311
G1 X80.321 Y102.025 E7.21352
G1 X81.053 Y101.161 E7.25118
G1 X81.454 Y100.701 E7.27148
G1 X83.022 Y98.796 E7.35354
G1 X84.595 Y96.773 E7.43877
G1 X86.046 Y94.793 E7.52042
G1 X87.507 Y92.674 E7.60603
G1 X88.867 Y90.58 E7.68907
G1 X90.171 Y88.439 E7.77245
G1 X91.44 Y86.221 E7.85744
G1 X92.61 Y84.031 E7.94003
G1 X93.149 Y82.957 E7.97999
G1 X93.508 Y82.264 E8.00595
G1 X93.655 Y81.989 E8.01632
G1 X94.316 Y80.797 E8.06166
G1 X94.709 Y80.114 E8.08787
G1 X94.795 Y79.967 E8.09353
G1 X95.155 Y79.366 E8.11683
G1 X95.948 Y78.216 E8.16329
G1 X96.081 Y78.047 E8.17045
G0 F6000 X96.395 Y78.295
G1 F1200 X96.607 Y78.034 E8.18163
G1 X96.963 Y77.61 E8.20004
G1 X97.585 Y76.931 E8.23067
G1 X98.03 Y76.511 E8.25102
G1 X98.204 Y76.356 E8.25877
G1 X98.463 Y76.133 E8.27014
G1 X100.052 Y74.808 E8.33895
G1 X100.575 Y74.383 E8.36137
G1 X101.314 Y73.834 E8.39199
G1 X102.11 Y73.344 E8.42308
G1 X102.567 Y73.09 E8.44047
G1 X102.872 Y72.927 E8.45197
G1 X103.123 Y72.798 E8.46135
G1 X104.186 Y72.324 E8.50007
G1 X105.038 Y72 E8.53038
G1 X105.779 Y71.732 E8.55659
G1 X106.503 Y71.48 E8.58209
G1 X106.775 Y71.389 E8.59163
G1 X107.036 Y71.306 E8.60074
G1 X107.33 Y71.218 E8.61094
G1 X107.763 Y71.094 E8.62593
G1 X108.658 Y70.879 E8.65654
G1 X109.201 Y70.788 E8.67485
G1 X109.558 Y70.741 E8.68683
G1 X109.821 Y70.711 E8.69563
G1 X110.136 Y70.68 E8.70616
G1 X110.577 Y70.643 E8.72088
G1 X111.13 Y70.611 E8.7393
G1 X111.448 Y70.601 E8.74989
G1 X111.771 Y70.596 E8.76063
G1 X112.848 Y70.595 E8.79645
G1 X113.697 Y70.606 E8.82469
G1 X114.303 Y70.632 E8.84487
G1 X114.553 Y70.65 E8.8532
G1 X114.974 Y70.689 E8.86726
G1 X115.5 Y70.748 E8.88487
G1 X116.409 Y70.89 E8.91547
G1 X117.207 Y71.083 E8.94278
G1 X117.5 Y71.166 E8.9529
G1 X117.793 Y71.254 E8.96308
G1 X118.276 Y71.406 E8.97992
G1 X118.578 Y71.506 E8.9905
G1 X119.339 Y71.772 E9.01731
G1 X120.123 Y72.059 E9.04508
G1 X120.827 Y72.328 E9.07015
G1 X121.891 Y72.803 E9.1089
G1 X122.21 Y72.967 E9.12083
G1 X122.513 Y73.129 E9.13226
G1 X122.862 Y73.323 E9.14554
G1 X123.717 Y73.853 E9.179
G1 X124.364 Y74.331 E9.20576
G1 X124.959 Y74.809 E9.23114
G1 X125.358 Y75.14 E9.24838
G1 X126.252 Y75.889 E9.28717
G1 X126.836 Y76.392 E9.31281
G1 X127.506 Y77.023 E9.34342
G1 X127.918 Y77.47 E9.36364
G1 X128.071 Y77.646 E9.3714
G1 X128.352 Y77.983 E9.38599
G1 X128.694 Y78.411 E9.40421
G1 X129.353 Y79.332 E9.44188
G1 X129.425 Y79.445 E9.44634
G1 X129.597 Y79.726 E9.45729
G1 X129.825 Y80.11 E9.47215
G1 X130.242 Y80.83 E9.49982
G1 X130.927 Y82.059 E9.54662
G1 X131.078 Y82.339 E9.5572
G1 X131.715 Y83.572 E9.60336
G1 X132.05 Y84.242 E9.62827
G1 X133.251 Y86.489 E9.71301
G1 X134.517 Y88.702 E9.79781
G1 X135.815 Y90.829 E9.88069
G1 X137.203 Y92.966 E9.96544
G1 X138.624 Y95.023 E10.04859
G1 X140.142 Y97.094 E10.134
G1 X141.686 Y99.079 E10.21764
G1 X143.313 Y101.055 E10.30277
G1 X144.319 Y102.221 E10.354
G1 X144.841 Y102.877 E10.38188
G1 X145.039 Y103.147 E10.39301
G1 X145.206 Y103.381 E10.40258
G1 X145.398 Y103.661 E10.41387
G1 X145.793 Y104.251 E10.43748
G1 X146.272 Y105.038 E10.46813
G1 X146.793 Y106.127 E10.50828
G1 X146.941 Y106.488 E10.52126
G1 X147.09 Y106.874 E10.53502
G1 X147.374 Y107.652 E10.56256
G1 X147.652 Y108.53 E10.59319
G1 X147.921 Y109.862 E10.63839
G1 X148.005 Y110.481 E10.65917
G1 X148.043 Y110.8 E10.66985
G1 X148.105 Y111.391 E10.68962
G1 X148.161 Y112.31 E10.72024
G1 X148.12 Y113.451 E10.75822
G1 X148.088 Y113.805 E10.77004
G1 X148.056 Y114.109 E10.7802
G1 X148.012 Y114.467 E10.7922
G1 X147.92 Y115.142 E10.81486
G1 X147.756 Y116.047 E10.84545
G1 X147.464 Y117.088 E10.88141
G1 X147.385 Y117.323 E10.88966
G1 X147.275 Y117.634 E10.90063
G1 X147.177 Y117.898 E10.90999
G1 X147.088 Y118.13 E10.91826
G1 X146.832 Y118.773 E10.94128
G1 X146.455 Y119.613 E10.9719
G1 X145.893 Y120.595 E11.00953
G1 X145.708 Y120.882 E11.02089
G1 X145.471 Y121.238 E11.03511
G1 X145.381 Y121.38 E11.04071
G1 X144.285 Y123.012 E11.10609
G1 X142.944 Y125.134 E11.18958
G1 X141.663 Y127.295 E11.27314
G1 X140.413 Y129.546 E11.35877
G1 X139.265 Y131.759 E11.44169
G1 X138.161 Y134.042 E11.52604
G1 X137.127 Y136.343 E11.60994
G1 X136.137 Y138.724 E11.69571
G1 X135.258 Y141.028 E11.77772
G1 X134.997 Y141.782 E11.80426
G1 X134.907 Y142.01 E11.81242
G1 X134.542 Y143.031 E11.84848
G1 X134.421 Y143.354 E11.85995
G1 X133.962 Y144.514 E11.90144
G1 X133.269 Y146.184 E11.96158
G1 X132.997 Y146.815 E11.98443
G1 X132.596 Y147.644 E12.01506
G1 X132.125 Y148.435 E12.04568
G1 X131.795 Y148.909 E12.06489
G1 X131.245 Y149.655 E12.09572
G1 X131.123 Y149.817 E12.10246
G1 X130.035 Y151.234 E12.16188
G1 X129.604 Y151.78 E12.18502
G1 X129.003 Y152.477 E12.21563
G1 X128.343 Y153.119 E12.24625
G1 X127.879 Y153.511 E12.26646
G1 X127.02 Y154.192 E12.30292
G1 X125.705 Y155.202 E12.35807
G1 X125.025 Y155.708 E12.38626
G1 X124.263 Y156.225 E12.41688
G1 X123.459 Y156.673 E12.4475
G1 X122.934 Y156.919 E12.46678
G1 X121.892 Y157.371 E12.50456
G1 X120.291 Y158.033 E12.56218
G1 X119.625 Y158.299 E12.58603
G1 X118.756 Y158.603 E12.61665
G1 X117.864 Y158.83 E12.64727
G1 X117.26 Y158.939 E12.66768
G1 X116.37 Y159.072 E12.69761
G1 X114.525 Y159.317 E12.75951
G1 X113.694 Y159.415 E12.78734
G1 X112.776 Y159.482 E12.81796
G1 X111.855 Y159.47 E12.84859
G1 X111.269 Y159.42 E12.86815
G1 X110.36 Y159.317 E12.89858
G1 X110.166 Y159.293 E12.90508
G1 X108.364 Y159.054 E12.96554
G1 X107.72 Y158.961 E12.98718
G1 X106.815 Y158.79 E13.01782
G1 X105.929 Y158.541 E13.04843
G1 X105.342 Y158.329 E13.06919
G1 X104.285 Y157.91 E13.107
G1 X102.694 Y157.249 E13.16431
G1 X102.017 Y156.958 E13.18881
G1 X101.188 Y156.559 E13.21941
G1 X100.396 Y156.088 E13.25006
G1 X99.885 Y155.731 E13.2708
G1 X99.038 Y155.101 E13.30591
G1 X97.575 Y153.977 E13.36727
G1 X97.06 Y153.571 E13.38908
G1 X96.362 Y152.97 E13.41972
G1 X95.719 Y152.311 E13.45034
G1 X95.319 Y151.836 E13.47099
G1 X94.675 Y151.022 E13.50551
G1 X93.511 Y149.504 E13.56914
G1 X93.13 Y148.992 E13.59037
G1 X92.613 Y148.23 E13.62099
G1 X92.164 Y147.427 E13.65159
G1 X91.912 Y146.889 E13.67135
G1 X91.553 Y146.063 E13.70131
G1 X90.854 Y144.379 E13.76195
G1 X90.525 Y143.557 E13.7914
G1 X90.419 Y143.279 E13.80129
G1 X90.299 Y142.948 E13.813
G1 X89.541 Y140.78 E13.88939
G1 X88.619 Y138.362 E13.97546
G1 X87.666 Y136.066 E14.05815
G1 X86.643 Y133.783 E14.14135
G1 X85.531 Y131.479 E14.22644
G1 X84.367 Y129.23 E14.31067
G1 X83.135 Y127.007 E14.3952
G1 X81.872 Y124.874 E14.47765
G1 X79.787 Y121.616 E14.6063
G1 X79.205 Y120.745 E14.64114
G1 X78.727 Y119.958 E14.67177
G1 X78.219 Y118.901 E14.71078
G1 X78.069 Y118.538 E14.72384
G1 X77.909 Y118.126 E14.73854
G1 X77.626 Y117.351 E14.76598
G1 X77.348 Y116.473 E14.79661
G1 X77.147 Y115.575 E14.82722
G1 X77.072 Y115.073 E14.8441
G1 X76.999 Y114.545 E14.86183
G1 X76.96 Y114.226 E14.87252
G1 X76.897 Y113.64 E14.89212
G1 X76.838 Y112.721 E14.92275
G1 X76.881 Y111.534 E14.96226
G1 X76.914 Y111.176 E14.97421
G1 X76.944 Y110.891 E14.98374
G1 X76.987 Y110.544 E14.99537
G1 X77.076 Y109.886 E15.01746
G1 X77.265 Y108.864 E15.05203
G1 X77.274 Y108.826 E15.05333
G1 X77.568 Y107.815 E15.08834
G1 X77.74 Y107.324 E15.10565
G1 X77.839 Y107.059 E15.11506
G1 X78.162 Y106.24 E15.14434
G1 X78.539 Y105.399 E15.17499
G1 X79.115 Y104.392 E15.21358
G1 X79.3 Y104.106 E15.22491
G1 X79.449 Y103.881 E15.23388
G1 X79.679 Y103.548 E15.24734
G1 X80.085 Y102.979 E15.27059
G1 X80.626 Y102.284 E15.29989
G1 X81.464 Y101.297 E15.34295
G1 X81.74 Y100.981 E15.3569
G1 X83.362 Y99.011 E15.44178
G1 X84.888 Y97.049 E15.52445
G1 X86.41 Y94.971 E15.61012
G1 X87.811 Y92.939 E15.69221
G1 X89.216 Y90.776 E15.778
G1 X90.51 Y88.651 E15.86075
G1 X91.782 Y86.43 E15.94588
G1 X92.978 Y84.191 E16.0303
G1 X93.504 Y83.141 E16.06936
G1 X93.863 Y82.448 E16.09532
G1 X94.005 Y82.183 E16.10532
G1 X94.666 Y80.991 E16.15066
G1 X95.055 Y80.315 E16.1766
G1 X95.499 Y79.572 E16.20539
G1 X96.262 Y78.464 E16.25013
G1 X96.395 Y78.295 E16.25728
G0 F6000 X96.709 Y78.542
G1 F1200 X96.913 Y78.291 E16.26804
G1 X97.269 Y77.867 E16.28645
G1 X97.88 Y77.202 E16.31649
G1 X98.296 Y76.81 E16.3355
G1 X98.47 Y76.655 E16.34325
G1 X98.719 Y76.44 E16.35419
G1 X100.304 Y75.118 E16.42284
G1 X100.827 Y74.693 E16.44526
G1 X101.553 Y74.155 E16.47531
G1 X102.305 Y73.694 E16.50465
G1 X102.762 Y73.44 E16.52204
G1 X103.055 Y73.283 E16.53309
G1 X103.306 Y73.154 E16.54248
G1 X104.329 Y72.697 E16.57975
G1 X105.015 Y72.435 E16.60417
G1 X105.91 Y72.11 E16.63584
G1 X106.634 Y71.858 E16.66134
G1 X106.896 Y71.771 E16.67052
G1 X107.157 Y71.688 E16.67963
G1 X107.44 Y71.602 E16.68947
G1 X107.873 Y71.478 E16.70445
G1 X108.751 Y71.268 E16.73447
G1 X109.257 Y71.184 E16.75153
G1 X109.603 Y71.139 E16.76314
G1 X109.866 Y71.109 E16.77194
G1 X110.169 Y71.079 E16.78207
