;FLAVOR:Marlin
;TIME:16133
;Filament used: 12.9084m
;Layer height: 0.16
;MINX:53.315
;MINY:56.5
;MINZ:0.2
;MAXX:171.685
;MAXY:168.498
;MAXZ:4.84
;Generated with Cura_SteamEngine 4.12.0
M140 S60
M105
M190 S60
M104 S200
M105
M109 S200
M82 ;absolute extrusion mode
; Ender 3 Custom Start G-code
G92 E0 ; Reset Extruder
G28 ; Home all axes
G29 ; BLTOUCH
G1 Z2.0 F3000 ; Move Z Axis up little to prevent scratching of Heat Bed
G1 X0.1 Y20 Z0.3 F5000.0 ; Move to start position
G1 X0.1 Y200.0 Z0.3 F1500.0 E15 ; Draw the first line
G1 X0.4 Y200.0 Z0.3 F5000.0 ; Move to side a little
G1 X0.4 Y20 Z0.3 F1500.0 E30 ; Draw the second line
G92 E0 ; Reset Extruder
G1 Z2.0 F3000 ; Move Z Axis up little to prevent scratching of Heat Bed
G1 X5 Y20 Z0.3 F5000.0 ; Move over to prevent blob squish
G92 E0
G92 E0
G1 F1500 E-6.5
;LAYER_COUNT:28
;LAYER:0
M107
G0 F6000 X56.526 Y59.754 Z0.2
;TYPE:SKIRT
G1 F1500 E0
G1 F1200 X57.215 Y59.118 E0.03119
G1 X57.955 Y58.542 E0.06238
G1 X58.743 Y58.032 E0.0936
G1 X59.57 Y57.591 E0.12477
G1 X60.432 Y57.222 E0.15596
G1 X61.323 Y56.928 E0.18716
G1 X62.235 Y56.711 E0.21834
G1 X63.163 Y56.572 E0.24955
G1 X63.983 Y56.515 E0.27689
G1 X64.304 Y56.505 E0.28757
G1 X64.647 Y56.5 E0.29898
G1 X150.138 Y56.502 E3.14242
G1 X151.027 Y56.515 E3.172
G1 X151.263 Y56.521 E3.17985
G1 X151.595 Y56.533 E3.1909
G1 X151.872 Y56.547 E3.20012
G1 X152.638 Y56.594 E3.22565
G1 X153.461 Y56.675 E3.25315
G1 X153.643 Y56.7 E3.25926
G1 X154.043 Y56.763 E3.27273
G1 X154.477 Y56.839 E3.28738
G1 X154.74 Y56.888 E3.29628
G1 X155.449 Y57.03 E3.32033
G1 X156.406 Y57.267 E3.35312
G1 X156.857 Y57.403 E3.36879
G1 X157.429 Y57.588 E3.38879
G1 X158.123 Y57.827 E3.4132
G1 X159.254 Y58.289 E3.45383
G1 X159.952 Y58.62 E3.47953
G1 X160.175 Y58.729 E3.48778
G1 X160.651 Y58.968 E3.5055
G1 X161.453 Y59.413 E3.536
G1 X161.628 Y59.52 E3.54283
G1 X161.883 Y59.681 E3.55286
G1 X162.237 Y59.911 E3.5669
G1 X162.456 Y60.057 E3.57565
G1 X163.026 Y60.447 E3.59862
G1 X163.696 Y60.943 E3.62635
G1 X163.802 Y61.028 E3.63087
G1 X164.096 Y61.273 E3.6436
G1 X164.625 Y61.731 E3.66687
G1 X165.148 Y62.201 E3.69026
G1 X165.812 Y62.852 E3.72119
G1 X165.967 Y63.017 E3.72872
G1 X166.207 Y63.28 E3.74056
G1 X166.6 Y63.729 E3.7604
G1 X167.039 Y64.245 E3.78294
G1 X167.616 Y64.985 E3.81415
G1 X167.728 Y65.142 E3.82056
G1 X167.884 Y65.367 E3.82967
G1 X168.116 Y65.71 E3.84344
G1 X168.265 Y65.936 E3.85244
G1 X168.651 Y66.538 E3.87623
G1 X169.107 Y67.318 E3.90628
G1 X169.313 Y67.715 E3.92116
G1 X169.512 Y68.116 E3.93605
G1 X169.632 Y68.365 E3.94524
G1 X169.928 Y69.001 E3.96857
G1 X170.217 Y69.681 E3.99315
G1 X170.283 Y69.852 E3.99924
G1 X170.449 Y70.312 E4.01551
G1 X170.588 Y70.726 E4.03003
G1 X170.664 Y70.961 E4.03825
G1 X170.872 Y71.63 E4.06155
G1 X171.097 Y72.47 E4.09047
G1 X171.142 Y72.669 E4.09726
G1 X171.216 Y73.024 E4.10932
G1 X171.329 Y73.623 E4.12959
G1 X171.45 Y74.329 E4.15342
G1 X171.568 Y75.251 E4.18433
G1 X171.585 Y75.45 E4.19098
G1 X171.608 Y75.772 E4.20171
G1 X171.634 Y76.237 E4.2172
G1 X171.644 Y76.458 E4.22456
G1 X171.671 Y77.214 E4.24972
G1 X171.677 Y77.475 E4.25841
G1 X171.683 Y78.023 E4.27663
G1 X171.685 Y136.287 E6.2145
G1 X171.681 Y146.974 E6.56995
G1 X171.669 Y147.841 E6.59879
G1 X171.66 Y148.153 E6.60917
G1 X171.644 Y148.532 E6.62179
G1 X171.632 Y148.756 E6.62925
G1 X171.585 Y149.506 E6.65425
G1 X171.486 Y150.443 E6.68558
G1 X171.418 Y150.876 E6.70016
G1 X171.344 Y151.297 E6.71438
G1 X171.296 Y151.55 E6.72294
G1 X171.156 Y152.25 E6.74669
G1 X170.933 Y153.161 E6.77788
G1 X170.789 Y153.646 E6.79471
G1 X170.678 Y153.994 E6.80686
G1 X170.597 Y154.236 E6.81535
G1 X170.356 Y154.935 E6.83994
G1 X170.011 Y155.813 E6.87131
G1 X169.92 Y156.018 E6.87877
G1 X169.803 Y156.272 E6.88807
G1 X169.552 Y156.796 E6.9074
G1 X169.219 Y157.461 E6.93214
G1 X168.786 Y158.245 E6.96192
G1 X168.718 Y158.357 E6.96628
G1 X168.546 Y158.63 E6.97701
G1 X168.292 Y159.022 E6.99255
G1 X168.147 Y159.241 E7.00129
G1 X167.758 Y159.811 E7.02424
G1 X167.241 Y160.507 E7.05307
G1 X167.109 Y160.671 E7.06008
G1 X166.912 Y160.909 E7.07035
G1 X166.739 Y161.112 E7.07922
G1 X166.56 Y161.317 E7.08828
G1 X166.001 Y161.941 E7.11614
G1 X165.366 Y162.594 E7.14643
G1 X165.219 Y162.733 E7.15316
G1 X164.964 Y162.966 E7.16465
G1 X164.643 Y163.251 E7.17893
G1 X164.447 Y163.42 E7.18754
G1 X163.906 Y163.878 E7.21111
G1 X163.176 Y164.446 E7.24188
G1 X163.02 Y164.557 E7.24824
G1 X162.784 Y164.72 E7.25778
G1 X162.46 Y164.938 E7.27077
G1 X162.24 Y165.082 E7.27952
G1 X161.62 Y165.478 E7.30399
G1 X160.851 Y165.927 E7.3336
G1 X160.685 Y166.015 E7.33985
G1 X160.397 Y166.162 E7.35061
G1 X160.04 Y166.338 E7.36385
G1 X159.817 Y166.445 E7.37207
G1 X159.181 Y166.741 E7.39541
G1 X158.458 Y167.046 E7.4215
G1 X158.277 Y167.115 E7.42795
G1 X157.862 Y167.264 E7.44261
G1 X157.281 Y167.457 E7.46298
G1 X156.572 Y167.68 E7.4877
G1 X155.675 Y167.921 E7.51859
G1 X155.541 Y167.951 E7.52316
G1 X155.219 Y168.018 E7.53409
G1 X154.783 Y168.102 E7.54886
G1 X154.527 Y168.149 E7.55752
G1 X153.79 Y168.273 E7.58238
G1 X152.879 Y168.387 E7.61291
G1 X152.461 Y168.419 E7.62686
G1 X152.04 Y168.444 E7.64088
G1 X151.781 Y168.456 E7.64951
G1 X150.914 Y168.487 E7.67836
G1 X150.635 Y168.493 E7.68764
G1 X150.136 Y168.498 E7.70424
G1 X74.867 Y168.498 E10.2077
G1 X74.016 Y168.486 E10.23601
G1 X73.713 Y168.477 E10.24609
G1 X73.257 Y168.458 E10.26127
G1 X73.005 Y168.445 E10.26966
G1 X72.294 Y168.399 E10.29336
G1 X71.348 Y168.297 E10.325
G1 X70.887 Y168.224 E10.34053
G1 X70.673 Y168.187 E10.34775
G1 X70.415 Y168.139 E10.35648
G1 X69.6 Y167.978 E10.38411
G1 X68.801 Y167.789 E10.41142
G1 X68.631 Y167.742 E10.41729
G1 X68.203 Y167.614 E10.43214
G1 X67.754 Y167.47 E10.44783
G1 X67.515 Y167.391 E10.4562
G1 X66.862 Y167.165 E10.47918
G1 X65.967 Y166.81 E10.51121
G1 X65.592 Y166.641 E10.52489
G1 X65.265 Y166.487 E10.53691
G1 X65.021 Y166.368 E10.54594
G1 X64.371 Y166.042 E10.57012
G1 X63.651 Y165.647 E10.59744
G1 X63.489 Y165.55 E10.60372
G1 X63.161 Y165.345 E10.61658
G1 X62.778 Y165.097 E10.63176
G1 X62.536 Y164.936 E10.64143
G1 X61.957 Y164.539 E10.66478
G1 X61.239 Y164.002 E10.6946
G1 X60.874 Y163.7 E10.71035
G1 X60.563 Y163.432 E10.72401
G1 X60.393 Y163.282 E10.73155
G1 X59.852 Y162.796 E10.75574
G1 X59.203 Y162.163 E10.78589
G1 X59.069 Y162.021 E10.79238
G1 X58.852 Y161.785 E10.80305
G1 X58.609 Y161.512 E10.8152
G1 X58.447 Y161.325 E10.82343
G1 X57.952 Y160.743 E10.84884
G1 X57.385 Y160.016 E10.87951
G1 X57.292 Y159.886 E10.88482
G1 X57.108 Y159.621 E10.89555
G1 X56.854 Y159.243 E10.9107
G1 X56.715 Y159.031 E10.91913
G1 X56.338 Y158.441 E10.94242
G1 X55.861 Y157.618 E10.97406
G1 X55.76 Y157.425 E10.9813
G1 X55.634 Y157.177 E10.99056
G1 X55.461 Y156.825 E11.0036
G1 X55.359 Y156.611 E11.01149
G1 X55.06 Y155.968 E11.03507
G1 X54.704 Y155.109 E11.066
G1 X54.549 Y154.675 E11.08133
G1 X54.338 Y154.042 E11.10352
G1 X54.134 Y153.391 E11.12621
G1 X53.896 Y152.502 E11.15682
G1 X53.858 Y152.332 E11.16261
G1 X53.797 Y152.039 E11.17257
G1 X53.716 Y151.624 E11.18663
G1 X53.664 Y151.342 E11.19617
G1 X53.54 Y150.605 E11.22103
G1 X53.428 Y149.719 E11.25073
G1 X53.413 Y149.544 E11.25657
G1 X53.39 Y149.215 E11.26754
G1 X53.357 Y148.592 E11.28829
G1 X53.326 Y147.743 E11.31655
G1 X53.32 Y147.456 E11.32609
G1 X53.315 Y146.957 E11.34269
G1 X53.317 Y68.013 E13.96838
G1 X53.327 Y67.345 E13.9906
G1 X53.381 Y66.409 E14.02178
G1 X53.515 Y65.481 E14.05297
G1 X53.727 Y64.567 E14.08418
G1 X54.016 Y63.675 E14.11536
G1 X54.38 Y62.811 E14.14654
G1 X54.817 Y61.981 E14.17774
G1 X55.322 Y61.191 E14.20893
G1 X55.893 Y60.447 E14.24012
G1 X56.526 Y59.754 E14.27134
G0 F6000 X56.917 Y59.929
G1 F1200 X57.603 Y59.315 E14.30196
G1 X58.34 Y58.762 E14.33261
G1 X59.121 Y58.276 E14.3632
G1 X59.942 Y57.859 E14.39383
G1 X60.796 Y57.515 E14.42445
G1 X61.677 Y57.246 E14.45509
G1 X62.577 Y57.055 E14.48569
G1 X63.491 Y56.943 E14.51632
G1 X63.996 Y56.915 E14.53314
G1 X64.317 Y56.905 E14.54382
G1 X64.647 Y56.9 E14.5548
G1 X150.132 Y56.902 E17.39804
G1 X151.021 Y56.915 E17.42761
G1 X151.581 Y56.933 E17.44625
G1 X151.847 Y56.946 E17.4551
G1 X152.613 Y56.993 E17.48063
G1 X153.406 Y57.072 E17.50713
G1 X153.588 Y57.097 E17.51324
G1 X153.974 Y57.157 E17.52624
G1 X154.408 Y57.233 E17.54089
G1 X154.662 Y57.28 E17.54948
G1 X155.371 Y57.422 E17.57353
G1 X156.292 Y57.65 E17.60509
G1 X156.735 Y57.784 E17.62048
G1 X157.073 Y57.892 E17.63229
G1 X157.298 Y57.967 E17.64017
G1 X157.992 Y58.206 E17.66459
G1 X159.083 Y58.65 E17.70376
G1 X159.781 Y58.981 E17.72946
G1 X159.995 Y59.086 E17.73739
G1 X160.471 Y59.325 E17.7551
G1 X161.244 Y59.754 E17.78451
G1 X161.419 Y59.861 E17.79133
G1 X161.665 Y60.016 E17.801
G1 X162.019 Y60.246 E17.81504
G1 X162.23 Y60.387 E17.82348
G1 X162.8 Y60.777 E17.84645
G1 X163.445 Y61.255 E17.87315
G1 X163.551 Y61.34 E17.87767
G1 X163.835 Y61.576 E17.88995
G1 X164.187 Y61.879 E17.9054
G1 X164.357 Y62.029 E17.91294
G1 X164.88 Y62.499 E17.93633
G1 X165.521 Y63.125 E17.96613
G1 X165.676 Y63.29 E17.97366
G1 X165.907 Y63.544 E17.98508
G1 X166.179 Y63.853 E17.99877
G1 X166.734 Y64.504 E18.02722
G1 X167.29 Y65.217 E18.05729
G1 X167.553 Y65.591 E18.0725
G1 X167.785 Y65.934 E18.08627
G1 X167.928 Y66.151 E18.09492
G1 X168.314 Y66.753 E18.1187
G1 X168.754 Y67.505 E18.14768
G1 X168.823 Y67.635 E18.15258
G1 X168.955 Y67.893 E18.16222
G1 X169.154 Y68.294 E18.17711
G1 X169.269 Y68.533 E18.18593
G1 X169.565 Y69.169 E18.20926
G1 X169.844 Y69.825 E18.23297
G1 X169.91 Y69.996 E18.23907
G1 X170.07 Y70.439 E18.25473
G1 X170.209 Y70.853 E18.26926
G1 X170.282 Y71.08 E18.27719
G1 X170.49 Y71.749 E18.30049
G1 X170.707 Y72.558 E18.32835
G1 X170.752 Y72.757 E18.33513
G1 X170.823 Y73.099 E18.34675
G1 X170.935 Y73.69 E18.36676
G1 X171.056 Y74.396 E18.39058
G1 X171.17 Y75.285 E18.42039
G1 X171.187 Y75.484 E18.42703
G1 X171.208 Y75.794 E18.43737
G1 X171.244 Y76.473 E18.45998
G1 X171.271 Y77.229 E18.48514
G1 X171.277 Y77.48 E18.4935
G1 X171.283 Y78.023 E18.51156
G1 X171.285 Y136.287 E20.44943
G1 X171.281 Y146.969 E20.80471
G1 X171.269 Y147.836 E20.83355
G1 X171.261 Y148.136 E20.84353
G1 X171.245 Y148.515 E20.85615
G1 X171.186 Y149.481 E20.88834
G1 X171.091 Y150.384 E20.91854
G1 X171.024 Y150.807 E20.93278
G1 X170.95 Y151.228 E20.947
G1 X170.904 Y151.472 E20.95526
G1 X170.764 Y152.172 E20.979
G1 X170.549 Y153.05 E21.00907
G1 X170.408 Y153.524 E21.02551
G1 X170.297 Y153.872 E21.03766
G1 X170.219 Y154.106 E21.04587
G1 X169.978 Y154.805 E21.07046
G1 X169.645 Y155.651 E21.1007
G1 X169.442 Y156.101 E21.11712
G1 X169.292 Y156.417 E21.12875
G1 X169.194 Y156.617 E21.13616
G1 X168.861 Y157.282 E21.16089
G1 X168.444 Y158.037 E21.18958
G1 X168.211 Y158.412 E21.20427
G1 X167.957 Y158.804 E21.2198
G1 X167.816 Y159.015 E21.22824
G1 X167.427 Y159.585 E21.25119
G1 X166.93 Y160.256 E21.27897
G1 X166.798 Y160.42 E21.28597
G1 X166.608 Y160.649 E21.29587
G1 X166.435 Y160.852 E21.30474
G1 X166.262 Y161.05 E21.31348
G1 X165.703 Y161.674 E21.34135
G1 X165.091 Y162.303 E21.37054
G1 X164.944 Y162.442 E21.37726
G1 X164.699 Y162.667 E21.38833
G1 X164.378 Y162.952 E21.40261
G1 X164.189 Y163.115 E21.41091
G1 X163.648 Y163.573 E21.43448
G1 X162.944 Y164.12 E21.46414
G1 X162.56 Y164.389 E21.47973
G1 X162.236 Y164.607 E21.49272
G1 X162.025 Y164.745 E21.5011
G1 X161.405 Y165.141 E21.52557
G1 X160.664 Y165.573 E21.5541
G1 X160.498 Y165.661 E21.56035
G1 X160.22 Y165.803 E21.57073
G1 X159.649 Y166.082 E21.59187
G1 X159.013 Y166.378 E21.6152
G1 X158.316 Y166.673 E21.64037
G1 X158.135 Y166.742 E21.64682
G1 X157.735 Y166.885 E21.66095
G1 X157.161 Y167.076 E21.68107
G1 X156.452 Y167.299 E21.70579
G1 X155.588 Y167.531 E21.73554
G1 X155.143 Y167.626 E21.75068
G1 X154.707 Y167.71 E21.76544
G1 X154.461 Y167.754 E21.77376
G1 X153.724 Y167.878 E21.79861
G1 X152.845 Y167.988 E21.82808
G1 X152.437 Y168.019 E21.84169
G1 X152.016 Y168.044 E21.85571
G1 X151.767 Y168.056 E21.864
G1 X150.9 Y168.087 E21.89286
G1 X150.631 Y168.093 E21.90181
G1 X150.136 Y168.098 E21.91827
G1 X74.873 Y168.098 E24.42153
G1 X74.022 Y168.086 E24.44984
G1 X73.73 Y168.078 E24.45955
G1 X73.274 Y168.059 E24.47473
G1 X73.031 Y168.046 E24.48283
G1 X72.32 Y168 E24.50652
G1 X71.408 Y167.901 E24.53704
G1 X70.955 Y167.83 E24.55229
G1 X70.741 Y167.793 E24.55951
G1 X70.493 Y167.747 E24.5679
G1 X69.678 Y167.586 E24.59553
G1 X68.907 Y167.404 E24.62188
G1 X68.737 Y167.357 E24.62774
G1 X68.325 Y167.234 E24.64205
G1 X67.876 Y167.09 E24.65773
G1 X67.646 Y167.013 E24.6658
G1 X66.993 Y166.787 E24.68878
G1 X66.13 Y166.445 E24.71965
G1 X65.763 Y166.279 E24.73305
G1 X65.436 Y166.125 E24.74507
G1 X65.2 Y166.01 E24.7538
G1 X64.55 Y165.684 E24.77799
G1 X63.857 Y165.303 E24.80429
G1 X63.695 Y165.206 E24.81057
G1 X63.379 Y165.01 E24.82294
G1 X62.996 Y164.762 E24.83812
G1 X62.763 Y164.606 E24.84744
G1 X62.184 Y164.209 E24.87079
G1 X61.491 Y163.692 E24.89955
G1 X61.368 Y163.592 E24.90482
G1 X61.135 Y163.397 E24.91493
G1 X60.824 Y163.129 E24.92858
G1 X60.119 Y162.498 E24.96005
G1 X59.494 Y161.888 E24.9891
G1 X59.36 Y161.746 E24.99559
G1 X59.151 Y161.519 E25.00586
G1 X58.908 Y161.246 E25.01801
G1 X58.751 Y161.065 E25.02598
G1 X58.256 Y160.483 E25.05139
G1 X57.71 Y159.783 E25.08092
G1 X57.617 Y159.653 E25.08624
G1 X57.44 Y159.398 E25.09656
G1 X57.186 Y159.02 E25.11171
G1 X57.052 Y158.816 E25.11983
G1 X56.675 Y158.226 E25.14311
G1 X56.215 Y157.433 E25.1736
G1 X56.114 Y157.24 E25.18085
G1 X55.993 Y157 E25.18979
G1 X55.721 Y156.442 E25.21044
G1 X55.422 Y155.799 E25.23402
G1 X55.079 Y154.972 E25.2638
G1 X55.019 Y154.808 E25.26961
G1 X54.928 Y154.547 E25.2788
G1 X54.72 Y153.923 E25.30068
G1 X54.516 Y153.272 E25.32337
G1 X54.286 Y152.414 E25.35291
G1 X54.189 Y151.963 E25.36826
G1 X54.108 Y151.548 E25.38232
G1 X54.059 Y151.276 E25.39151
G1 X53.935 Y150.539 E25.41637
G1 X53.827 Y149.685 E25.445
G1 X53.812 Y149.51 E25.45084
G1 X53.789 Y149.193 E25.46141
G1 X53.766 Y148.779 E25.4752
G1 X53.726 Y147.729 E25.51015
G1 X53.72 Y147.452 E25.51937
G1 X53.715 Y146.957 E25.53583
G1 X53.717 Y68.019 E28.16132
G1 X53.727 Y67.351 E28.18354
G1 X53.781 Y66.432 E28.21416
G1 X53.914 Y65.521 E28.24478
G1 X54.126 Y64.625 E28.2754
G1 X54.415 Y63.751 E28.30602
G1 X54.778 Y62.905 E28.33664
G1 X55.214 Y62.094 E28.36727
G1 X55.718 Y61.324 E28.39787
G1 X56.287 Y60.6 E28.4285
G1 X56.917 Y59.929 E28.45911
G0 F6000 X57.309 Y60.108
G1 F1200 X57.991 Y59.516 E28.48915
G1 X58.723 Y58.987 E28.51919
G1 X59.499 Y58.525 E28.54923
G1 X60.312 Y58.133 E28.57925
G1 X61.157 Y57.815 E28.60928
G1 X62.027 Y57.572 E28.63932
G1 X62.916 Y57.408 E28.66939
G1 X64.008 Y57.315 E28.70584
G1 X64.329 Y57.305 E28.71652
G1 X64.647 Y57.3 E28.7271
G1 X150.126 Y57.302 E31.57014
G1 X151.015 Y57.315 E31.59971
G1 X151.566 Y57.333 E31.61805
G1 X151.823 Y57.345 E31.62661
G1 X152.589 Y57.392 E31.65213
G1 X153.352 Y57.468 E31.67763
G1 X153.534 Y57.493 E31.68375
G1 X153.905 Y57.551 E31.69623
G1 X154.339 Y57.627 E31.71089
G1 X154.583 Y57.673 E31.71915
G1 X155.292 Y57.815 E31.7432
G1 X156.179 Y58.034 E31.77358
G1 X156.614 Y58.165 E31.78869
G1 X156.952 Y58.273 E31.8005
G1 X157.168 Y58.345 E31.80807
G1 X157.862 Y58.584 E31.83248
G1 X158.911 Y59.012 E31.87016
G1 X159.609 Y59.343 E31.89586
G1 X159.816 Y59.444 E31.90352
G1 X160.292 Y59.683 E31.92123
G1 X161.036 Y60.096 E31.94954
G1 X161.211 Y60.203 E31.95636
G1 X161.447 Y60.352 E31.96564
G1 X161.801 Y60.582 E31.97968
G1 X162.004 Y60.717 E31.98779
G1 X162.574 Y61.107 E32.01076
G1 X163.195 Y61.567 E32.03647
G1 X163.301 Y61.652 E32.04099
G1 X163.574 Y61.88 E32.05282
G1 X164.09 Y62.326 E32.0755
G1 X164.613 Y62.796 E32.09889
G1 X165.229 Y63.399 E32.12756
G1 X165.384 Y63.564 E32.13509
G1 X165.606 Y63.808 E32.14606
G1 X165.991 Y64.247 E32.16548
G1 X166.43 Y64.763 E32.18801
G1 X166.965 Y65.449 E32.21695
G1 X167.077 Y65.606 E32.22336
G1 X167.222 Y65.815 E32.23182
G1 X167.454 Y66.158 E32.2456
G1 X167.592 Y66.367 E32.25393
G1 X167.978 Y66.969 E32.27771
G1 X168.401 Y67.693 E32.3056
G1 X168.597 Y68.071 E32.31976
G1 X168.796 Y68.472 E32.33465
G1 X168.907 Y68.702 E32.34315
G1 X169.203 Y69.338 E32.36648
G1 X169.471 Y69.969 E32.38928
G1 X169.537 Y70.14 E32.39538
G1 X169.691 Y70.566 E32.41044
G1 X169.83 Y70.98 E32.42497
G1 X170.108 Y71.868 E32.45592
G1 X170.317 Y72.646 E32.48271
