;FLAVOR:Marlin
;TIME:17539
;Filament used: 15.4241m
;Layer height: 0.25
;MINX:0.881
;MINY:45.557
;MINZ:0.2
;MAXX:221.627
;MAXY:200.24
;MAXZ:2.95
;Generated with Cura_SteamEngine 4.12.0
M140 S60
M105
M190 S60
M104 S200
M105
M109 S200
M82 ;absolute extrusion mode
; Ender 3 Custom Start G-code
G92 E0 ; Reset Extruder
G28 ; Home all axes
G1 Z2.0 F3000 ; Move Z Axis up little to prevent scratching of Heat Bed
G1 X0.1 Y20 Z0.3 F5000.0 ; Move to start position
G1 X0.1 Y200.0 Z0.3 F1500.0 E15 ; Draw the first line
G1 X0.4 Y200.0 Z0.3 F5000.0 ; Move to side a little
G1 X0.4 Y20 Z0.3 F1500.0 E30 ; Draw the second line
G92 E0 ; Reset Extruder
G1 Z2.0 F3000 ; Move Z Axis up little to prevent scratching of Heat Bed
G1 X5 Y20 Z0.3 F5000.0 ; Move over to prevent blob squish
G92 E0
G92 E0
G1 F1500 E-6.5
;LAYER_COUNT:12
;LAYER:0
M107
G0 F6000 X35.341 Y63.645 Z0.2
;TYPE:SKIRT
G1 F1500 E0
G1 F1200 X35.893 Y63.343 E0.02093
G1 X36.775 Y62.877 E0.05411
G1 X37.083 Y62.721 E0.06559
G1 X37.638 Y62.451 E0.08612
G1 X38.429 Y62.079 E0.11519
G1 X38.707 Y61.953 E0.12534
G1 X39.356 Y61.671 E0.14888
G1 X40.277 Y61.29 E0.18203
G1 X40.539 Y61.186 E0.1914
G1 X41.101 Y60.972 E0.2114
G1 X42.83 Y60.346 E0.27256
G1 X45.282 Y59.42 E0.35974
G1 X47.572 Y58.478 E0.4421
G1 X49.87 Y57.458 E0.52572
G1 X52.19 Y56.349 E0.61125
G1 X54.376 Y55.225 E0.693
G1 X56.61 Y53.997 E0.77779
G1 X58.759 Y52.735 E0.86068
G1 X60.91 Y51.388 E0.94509
G1 X62.979 Y50.011 E1.02776
G1 X65.637 Y48.115 E1.13635
G1 X66.423 Y47.604 E1.16753
G1 X66.872 Y47.352 E1.18465
G1 X67.436 Y47.053 E1.20589
G1 X68.282 Y46.65 E1.23705
G1 X69.256 Y46.289 E1.2716
G1 X69.407 Y46.241 E1.27687
G1 X69.814 Y46.12 E1.29099
G1 X70.191 Y46.016 E1.304
G1 X71.105 Y45.805 E1.3352
G1 X71.693 Y45.712 E1.355
G1 X71.854 Y45.691 E1.3604
G1 X72.38 Y45.636 E1.37799
G1 X72.649 Y45.614 E1.38697
G1 X73.341 Y45.579 E1.41001
G1 X74.415 Y45.559 E1.44574
G1 X74.62 Y45.557 E1.45256
G1 X206.764 Y45.557 E5.84769
G1 X207.468 Y45.566 E5.8711
G1 X208.144 Y45.597 E5.89361
G1 X208.838 Y45.65 E5.91676
G1 X209.769 Y45.761 E5.94795
G1 X210.625 Y45.936 E5.97701
G1 X210.918 Y46.008 E5.98704
G1 X211.627 Y46.207 E6.01153
G1 X211.932 Y46.304 E6.02218
G1 X212.813 Y46.626 E6.05338
G1 X213.36 Y46.871 E6.07331
G1 X213.512 Y46.944 E6.07892
G1 X214.021 Y47.205 E6.09795
G1 X214.38 Y47.401 E6.11155
G1 X215.183 Y47.885 E6.14273
G1 X215.643 Y48.207 E6.16141
G1 X215.773 Y48.303 E6.16678
G1 X216.195 Y48.631 E6.18456
G1 X216.5 Y48.88 E6.19766
G1 X217.201 Y49.504 E6.22887
G1 X217.641 Y49.955 E6.24983
G1 X217.744 Y50.067 E6.25489
G1 X218.078 Y50.447 E6.27172
G1 X218.342 Y50.762 E6.28539
G1 X218.913 Y51.506 E6.31658
G1 X219.239 Y51.998 E6.33621
G1 X219.329 Y52.142 E6.34186
G1 X219.606 Y52.61 E6.35995
G1 X219.793 Y52.945 E6.37271
G1 X220.215 Y53.783 E6.40391
G1 X220.455 Y54.358 E6.42464
G1 X220.52 Y54.527 E6.43066
G1 X220.704 Y55.046 E6.44897
G1 X220.832 Y55.436 E6.46263
G1 X221.087 Y56.339 E6.49383
G1 X221.251 Y57.182 E6.5224
G1 X221.325 Y57.679 E6.53911
G1 X221.369 Y58.022 E6.55061
G1 X221.439 Y58.77 E6.5756
G1 X221.454 Y59.059 E6.58522
G1 X221.483 Y59.77 E6.60889
G1 X221.582 Y63.177 E6.72226
G1 X221.607 Y64.588 E6.76919
G1 X221.627 Y68.06 E6.88468
G1 X221.619 Y69.318 E6.92652
G1 X221.555 Y72.928 E7.04661
G1 X221.518 Y74.19 E7.0886
G1 X221.374 Y77.673 E7.20454
G1 X221.304 Y79.026 E7.2496
G1 X221.075 Y82.593 E7.36849
G1 X220.979 Y83.826 E7.40962
G1 X220.671 Y87.339 E7.52691
G1 X220.547 Y88.595 E7.56889
G1 X220.145 Y92.2 E7.68953
G1 X220.003 Y93.358 E7.72834
G1 X219.522 Y96.925 E7.84805
G1 X219.331 Y98.217 E7.89149
G1 X218.781 Y101.682 E8.00818
G1 X218.568 Y102.932 E8.05035
G1 X217.935 Y106.399 E8.16757
G1 X217.67 Y107.751 E8.2134
G1 X208.936 Y150.012 E9.64871
G1 X208.818 Y150.547 E9.66693
G1 X208.651 Y151.206 E9.68954
G1 X208.313 Y152.381 E9.73021
G1 X207.666 Y154.491 E9.80361
G1 X207.284 Y155.688 E9.8454
G1 X206.295 Y158.667 E9.9498
G1 X206.232 Y158.851 E9.95627
G1 X205.658 Y160.483 E10.01381
G1 X205.541 Y160.8 E10.02505
G1 X205.227 Y161.612 E10.054
G1 X205.091 Y161.947 E10.06603
G1 X204.873 Y162.46 E10.08457
G1 X204.423 Y163.473 E10.12144
G1 X204.292 Y163.757 E10.13184
G1 X204.049 Y164.263 E10.15051
G1 X203.943 Y164.477 E10.15845
G1 X203.524 Y165.303 E10.18926
G1 X203.414 Y165.515 E10.1972
G1 X203.155 Y165.995 E10.21534
G1 X203.015 Y166.246 E10.2249
G1 X202.561 Y167.043 E10.25541
G1 X202.438 Y167.253 E10.2635
G1 X202.251 Y167.565 E10.2756
G1 X202.116 Y167.785 E10.28418
G1 X201.519 Y168.73 E10.32136
G1 X201.33 Y169.018 E10.33282
G1 X200.903 Y169.646 E10.35808
G1 X200.346 Y170.434 E10.39017
G1 X200.166 Y170.681 E10.40034
G1 X199.754 Y171.228 E10.42312
G1 X199.204 Y171.934 E10.45288
G1 X199.003 Y172.184 E10.46355
G1 X198.497 Y172.793 E10.48989
G1 X197.906 Y173.479 E10.52
G1 X197.69 Y173.721 E10.53079
G1 X197.253 Y174.198 E10.55231
G1 X196.636 Y174.852 E10.58221
G1 X196.433 Y175.061 E10.5919
G1 X196.045 Y175.451 E10.6102
G1 X195.866 Y175.627 E10.61855
G1 X195.064 Y176.395 E10.65548
G1 X194.781 Y176.656 E10.66829
G1 X194.431 Y176.969 E10.6839
G1 X193.797 Y177.523 E10.71191
G1 X193.571 Y177.715 E10.72177
G1 X192.982 Y178.2 E10.74715
G1 X192.279 Y178.759 E10.77702
G1 X192.065 Y178.925 E10.78603
G1 X191.709 Y179.194 E10.80087
G1 X191.516 Y179.336 E10.80884
G1 X190.703 Y179.923 E10.84219
G1 X190.44 Y180.108 E10.85288
G1 X190.045 Y180.376 E10.86876
G1 X189.114 Y180.986 E10.90578
G1 X188.852 Y181.152 E10.9161
G1 X188.317 Y181.479 E10.93695
G1 X187.451 Y181.99 E10.97039
G1 X187.167 Y182.152 E10.98127
G1 X186.615 Y182.454 E11.0022
G1 X185.733 Y182.92 E11.03538
G1 X185.425 Y183.076 E11.04686
G1 X184.87 Y183.346 E11.06739
G1 X184.079 Y183.718 E11.09646
G1 X183.801 Y183.844 E11.10661
G1 X183.152 Y184.126 E11.13015
G1 X182.231 Y184.507 E11.1633
G1 X181.969 Y184.611 E11.17267
G1 X181.407 Y184.825 E11.19267
G1 X179.678 Y185.451 E11.25383
G1 X177.226 Y186.377 E11.34101
G1 X174.936 Y187.319 E11.42337
G1 X172.638 Y188.339 E11.50699
G1 X170.318 Y189.448 E11.59252
G1 X168.132 Y190.572 E11.67427
G1 X165.898 Y191.8 E11.75906
G1 X163.749 Y193.062 E11.84195
G1 X161.598 Y194.409 E11.92636
G1 X159.529 Y195.786 E12.00902
G1 X156.871 Y197.682 E12.11762
G1 X156.085 Y198.193 E12.1488
G1 X155.643 Y198.441 E12.16566
G1 X155.08 Y198.74 E12.18686
G1 X154.234 Y199.144 E12.21804
G1 X153.233 Y199.514 E12.25353
G1 X153.081 Y199.562 E12.25884
G1 X152.694 Y199.677 E12.27226
G1 X152.317 Y199.781 E12.28527
G1 X151.403 Y199.992 E12.31647
G1 X150.815 Y200.085 E12.33627
G1 X150.654 Y200.106 E12.34167
G1 X150.128 Y200.161 E12.35926
G1 X149.859 Y200.183 E12.36824
G1 X149.167 Y200.218 E12.39128
G1 X148.093 Y200.238 E12.42701
G1 X147.888 Y200.24 E12.43383
G1 X15.582 Y200.239 E16.83435
G1 X15.04 Y200.231 E16.85237
G1 X14.364 Y200.2 E16.87488
G1 X13.67 Y200.147 E16.89803
G1 X12.739 Y200.036 E16.92922
G1 X11.883 Y199.861 E16.95828
G1 X11.59 Y199.789 E16.96831
G1 X10.881 Y199.59 E16.9928
G1 X10.576 Y199.493 E17.00345
G1 X9.695 Y199.171 E17.03465
G1 X9.148 Y198.926 E17.05458
G1 X8.996 Y198.853 E17.06019
G1 X8.487 Y198.592 E17.07922
G1 X8.128 Y198.396 E17.09282
G1 X7.325 Y197.912 E17.124
G1 X6.865 Y197.59 E17.14268
G1 X6.735 Y197.494 E17.14805
G1 X6.3 Y197.156 E17.16638
G1 X5.991 Y196.903 E17.17966
G1 X5.292 Y196.279 E17.21082
G1 X4.889 Y195.865 E17.23004
G1 X4.789 Y195.757 E17.23494
G1 X4.414 Y195.331 E17.25381
G1 X4.152 Y195.017 E17.26741
G1 X3.582 Y194.272 E17.29861
G1 X3.281 Y193.817 E17.31676
G1 X3.19 Y193.672 E17.32245
G1 X2.903 Y193.189 E17.34114
G1 X2.712 Y192.847 E17.35417
G1 X2.29 Y192.009 E17.38537
G1 X2.014 Y191.338 E17.40951
G1 X1.953 Y191.175 E17.41529
G1 X1.806 Y190.758 E17.43
G1 X1.677 Y190.366 E17.44373
G1 X1.422 Y189.464 E17.4749
G1 X1.252 Y188.585 E17.50468
G1 X1.182 Y188.11 E17.52065
G1 X1.138 Y187.765 E17.53222
G1 X1.07 Y187.038 E17.5565
G1 X1.054 Y186.738 E17.5665
G1 X1.025 Y186.027 E17.59016
G1 X0.926 Y182.62 E17.70353
G1 X0.901 Y181.208 E17.7505
G1 X0.881 Y177.701 E17.86714
G1 X0.889 Y176.479 E17.90779
G1 X0.953 Y172.869 E18.02788
G1 X0.99 Y171.607 E18.06987
G1 X1.134 Y168.124 E18.18581
G1 X1.205 Y166.769 E18.23094
G1 X1.437 Y163.154 E18.35142
G1 X1.529 Y161.971 E18.39089
G1 X1.837 Y158.457 E18.50821
G1 X1.963 Y157.183 E18.55079
G1 X2.363 Y153.597 E18.67081
G1 X2.505 Y152.439 E18.70961
G1 X2.986 Y148.872 E18.82932
G1 X3.177 Y147.58 E18.87276
G1 X3.727 Y144.115 E18.98945
G1 X3.94 Y142.865 E19.03162
G1 X4.573 Y139.398 E19.14884
G1 X4.838 Y138.046 E19.19467
G1 X13.572 Y95.785 E20.62998
G1 X13.69 Y95.25 E20.6482
G1 X13.857 Y94.591 E20.67081
G1 X14.195 Y93.416 E20.71148
G1 X14.842 Y91.306 E20.78488
G1 X15.224 Y90.109 E20.82667
G1 X16.213 Y87.13 E20.93107
G1 X16.276 Y86.946 E20.93754
G1 X16.85 Y85.314 E20.99508
G1 X16.967 Y84.997 E21.00632
G1 X17.281 Y84.185 E21.03527
G1 X17.417 Y83.85 E21.0473
G1 X17.635 Y83.337 E21.06584
G1 X18.085 Y82.324 E21.10271
G1 X18.216 Y82.04 E21.11311
G1 X18.459 Y81.534 E21.13178
G1 X18.565 Y81.32 E21.13972
G1 X18.984 Y80.494 E21.17053
G1 X19.094 Y80.282 E21.17847
G1 X19.353 Y79.802 E21.19661
G1 X19.493 Y79.551 E21.20617
G1 X19.947 Y78.754 E21.23668
G1 X20.07 Y78.544 E21.24477
G1 X20.257 Y78.232 E21.25687
G1 X20.392 Y78.012 E21.26545
G1 X20.989 Y77.067 E21.30263
G1 X21.178 Y76.779 E21.31409
G1 X21.605 Y76.151 E21.33935
G1 X22.162 Y75.363 E21.37144
G1 X22.342 Y75.116 E21.38161
G1 X22.754 Y74.569 E21.40439
G1 X23.304 Y73.863 E21.43415
G1 X23.505 Y73.613 E21.44482
G1 X24.011 Y73.004 E21.47116
G1 X24.602 Y72.318 E21.50127
G1 X24.818 Y72.076 E21.51206
G1 X25.255 Y71.599 E21.53358
G1 X25.872 Y70.945 E21.56348
G1 X26.075 Y70.736 E21.57317
G1 X26.463 Y70.346 E21.59147
G1 X26.642 Y70.17 E21.59982
G1 X27.298 Y69.54 E21.63007
G1 X27.693 Y69.173 E21.648
G1 X27.956 Y68.935 E21.6598
G1 X28.704 Y68.279 E21.69289
G1 X28.945 Y68.074 E21.70341
G1 X29.369 Y67.724 E21.7217
G1 X30.229 Y67.038 E21.75829
G1 X30.443 Y66.872 E21.7673
G1 X30.799 Y66.603 E21.78214
G1 X30.992 Y66.461 E21.79011
G1 X31.805 Y65.874 E21.82346
G1 X32.068 Y65.689 E21.83416
G1 X32.463 Y65.421 E21.85003
G1 X33.394 Y64.811 E21.88705
G1 X33.656 Y64.645 E21.89737
G1 X34.191 Y64.318 E21.91822
G1 X35.057 Y63.807 E21.95167
G1 X35.341 Y63.645 E21.96254
G0 F6000 X35.534 Y63.996
G1 F1200 X36.08 Y63.697 E21.98325
G1 X36.962 Y63.231 E22.01642
G1 X37.258 Y63.08 E22.02748
G1 X37.808 Y62.813 E22.04781
G1 X38.599 Y62.441 E22.07688
G1 X38.867 Y62.319 E22.08668
G1 X39.318 Y62.122 E22.10305
G1 X39.509 Y62.041 E22.10995
G1 X40.43 Y61.66 E22.1431
G1 X40.682 Y61.559 E22.15213
G1 X41.044 Y61.42 E22.16502
G1 X41.238 Y61.348 E22.17191
G1 X42.96 Y60.725 E22.23281
G1 X45.427 Y59.792 E22.32054
G1 X47.721 Y58.85 E22.40302
G1 X50.056 Y57.813 E22.488
G1 X52.324 Y56.728 E22.57162
G1 X54.596 Y55.561 E22.65657
G1 X56.811 Y54.343 E22.74064
G1 X58.968 Y53.076 E22.82385
G1 X61.139 Y51.717 E22.90904
G1 X63.209 Y50.338 E22.99176
G1 X65.869 Y48.441 E23.10043
G1 X66.641 Y47.939 E23.13106
G1 X67.059 Y47.706 E23.14697
G1 X67.623 Y47.407 E23.16821
G1 X68.454 Y47.011 E23.19882
G1 X69.377 Y46.67 E23.23155
G1 X69.528 Y46.622 E23.23682
G1 X69.92 Y46.506 E23.25042
G1 X70.297 Y46.402 E23.26342
G1 X71.194 Y46.196 E23.29403
G1 X71.745 Y46.109 E23.31259
G1 X71.906 Y46.088 E23.31799
G1 X72.413 Y46.034 E23.33495
G1 X72.682 Y46.012 E23.34392
G1 X73.349 Y45.979 E23.36613
G1 X74.62 Y45.957 E23.40841
G1 X206.764 Y45.957 E27.80354
G1 X207.462 Y45.966 E27.82676
G1 X208.113 Y45.996 E27.84844
G1 X208.807 Y46.049 E27.87158
G1 X209.721 Y46.159 E27.9022
G1 X210.53 Y46.324 E27.92967
G1 X210.823 Y46.396 E27.9397
G1 X211.506 Y46.589 E27.96331
G1 X211.811 Y46.686 E27.97395
G1 X212.675 Y47.002 E28.00455
G1 X213.187 Y47.232 E28.02322
G1 X213.339 Y47.305 E28.02883
G1 X213.829 Y47.556 E28.04714
G1 X214.188 Y47.752 E28.06074
G1 X214.977 Y48.228 E28.09139
G1 X215.406 Y48.529 E28.10882
G1 X215.536 Y48.625 E28.1142
G1 X215.943 Y48.941 E28.13133
G1 X216.248 Y49.19 E28.14443
G1 X216.935 Y49.803 E28.17505
G1 X217.346 Y50.226 E28.19467
G1 X217.449 Y50.338 E28.19973
G1 X217.771 Y50.704 E28.21594
G1 X218.035 Y51.019 E28.22961
G1 X218.595 Y51.75 E28.26024
G1 X218.9 Y52.21 E28.2786
G1 X218.99 Y52.354 E28.28425
G1 X219.257 Y52.805 E28.30168
G1 X219.444 Y53.14 E28.31444
G1 X219.857 Y53.963 E28.34507
G1 X220.081 Y54.502 E28.36448
G1 X220.146 Y54.671 E28.3705
G1 X220.324 Y55.171 E28.38815
G1 X220.452 Y55.561 E28.40181
G1 X220.701 Y56.447 E28.43242
G1 X220.856 Y57.243 E28.45939
G1 X220.889 Y57.456 E28.46656
G1 X220.928 Y57.73 E28.47576
G1 X220.972 Y58.073 E28.48726
G1 X221.039 Y58.793 E28.51132
G1 X221.055 Y59.076 E28.52074
G1 X221.079 Y59.644 E28.53965
G1 X221.182 Y63.184 E28.65744
G1 X221.207 Y64.591 E28.70425
G1 X221.227 Y68.058 E28.81956
G1 X221.219 Y69.311 E28.86124
G1 X221.155 Y72.916 E28.98116
G1 X221.118 Y74.173 E29.02298
G1 X220.975 Y77.652 E29.13879
G1 X220.904 Y79 E29.18369
G1 X220.676 Y82.562 E29.30241
G1 X220.581 Y83.791 E29.34341
G1 X220.273 Y87.3 E29.46056
G1 X220.149 Y88.551 E29.50238
G1 X219.748 Y92.152 E29.62289
G1 X219.606 Y93.304 E29.66149
G1 X219.126 Y96.867 E29.78107
G1 X218.936 Y98.154 E29.82434
G1 X218.387 Y101.615 E29.94089
G1 X218.174 Y102.86 E29.9829
G1 X217.542 Y106.322 E30.09995
G1 X217.279 Y107.67 E30.14563
G1 X208.575 Y149.788 E31.57608
G1 X208.427 Y150.461 E31.599
G1 X208.267 Y151.096 E31.62078
G1 X207.985 Y152.081 E31.65486
G1 X207.323 Y154.248 E31.73022
G1 X206.904 Y155.562 E31.77609
G1 X205.855 Y158.718 E31.88671
G1 X205.281 Y160.35 E31.94425
G1 X205.168 Y160.656 E31.9551
G1 X204.854 Y161.468 E31.98405
G1 X204.723 Y161.791 E31.99565
G1 X204.505 Y162.304 E32.01419
G1 X204.058 Y163.31 E32.0508
G1 X203.931 Y163.584 E32.06084
G1 X203.688 Y164.09 E32.07951
G1 X203.586 Y164.296 E32.08716
G1 X203.167 Y165.122 E32.11797
G1 X203.061 Y165.326 E32.12561
G1 X202.806 Y165.801 E32.14354
G1 X202.213 Y166.845 E32.18348
G1 X202.095 Y167.047 E32.19126
G1 X201.908 Y167.359 E32.20336
G1 X201.778 Y167.571 E32.21163
G1 X201.181 Y168.516 E32.24881
G1 X200.999 Y168.794 E32.25986
G1 X200.7 Y169.236 E32.27761
G1 X200.576 Y169.415 E32.28485
G1 X200.019 Y170.203 E32.31694
G1 X199.846 Y170.441 E32.32673
G1 X199.559 Y170.824 E32.34265
G1 X198.888 Y171.688 E32.37903
G1 X198.695 Y171.929 E32.3893
G1 X198.194 Y172.532 E32.41538
G1 X197.603 Y173.218 E32.44549
G1 X197.395 Y173.452 E32.45591
G1 X196.962 Y173.923 E32.47719
G1 X196.345 Y174.577 E32.50709
G1 X196.15 Y174.779 E32.51643
G1 X195.762 Y175.169 E32.53473
G1 X195.589 Y175.338 E32.54277
G1 X194.792 Y176.102 E32.57949
G1 X194.513 Y176.359 E32.59211
G1 X194.168 Y176.668 E32.60751
G1 X193.534 Y177.222 E32.63551
G1 X193.316 Y177.407 E32.64502
G1 X192.733 Y177.887 E32.67014
G1 X192.03 Y178.446 E32.70001
G1 X191.823 Y178.606 E32.70872
G1 X191.467 Y178.875 E32.72356
G1 X191.282 Y179.012 E32.73121
G1 X190.469 Y179.599 E32.76457
G1 X190.215 Y179.777 E32.77488
G1 X189.82 Y180.045 E32.79076
G1 X188.895 Y180.651 E32.82754
G1 X188.642 Y180.812 E32.83751
G1 X188.114 Y181.134 E32.85808
G1 X187.248 Y181.645 E32.89153
G1 X186.974 Y181.801 E32.90201
G1 X186.428 Y182.1 E32.92272
G1 X185.546 Y182.566 E32.9559
G1 X185.25 Y182.717 E32.96695
G1 X184.7 Y182.984 E32.98728
G1 X183.909 Y183.356 E33.01635
G1 X183.641 Y183.478 E33.02615
G1 X183.19 Y183.675 E33.04252
G1 X182.999 Y183.756 E33.04942
G1 X182.078 Y184.137 E33.08257
G1 X181.826 Y184.238 E33.0916
G1 X181.464 Y184.377 E33.1045
G1 X181.27 Y184.449 E33.11138
G1 X179.548 Y185.072 E33.17228
G1 X177.081 Y186.005 E33.26001
G1 X174.787 Y186.947 E33.34249
G1 X172.452 Y187.984 E33.42747
G1 X170.184 Y189.069 E33.51109
G1 X167.92 Y190.232 E33.59574
G1 X165.697 Y191.454 E33.68012
G1 X163.54 Y192.721 E33.76332
G1 X161.369 Y194.08 E33.84851
G1 X159.304 Y195.455 E33.93102
G1 X156.639 Y197.356 E34.0399
G1 X155.867 Y197.858 E34.07053
G1 X155.456 Y198.088 E34.08619
G1 X154.893 Y198.387 E34.1074
G1 X154.062 Y198.783 E34.13801
G1 X153.113 Y199.133 E34.17166
G1 X152.961 Y199.181 E34.17696
G1 X152.588 Y199.291 E34.18989
G1 X152.211 Y199.395 E34.2029
G1 X151.314 Y199.601 E34.23351
G1 X150.763 Y199.688 E34.25206
G1 X150.602 Y199.709 E34.25746
G1 X150.095 Y199.763 E34.27442
G1 X149.826 Y199.785 E34.2834
G1 X149.159 Y199.818 E34.30561
G1 X147.888 Y199.84 E34.34789
G1 X15.588 Y199.839 E38.74821
G1 X15.046 Y199.831 E38.76623
