;FLAVOR:Marlin
;TIME:7330
;Filament used: 6.35066m
;Layer height: 0.25
;MINX:29.69
;MINY:83.5
;MINZ:0.2
;MAXX:193.41
;MAXY:181.851
;MAXZ:2.95
;Generated with Cura_SteamEngine 4.12.0
M140 S60
M105
M190 S60
M104 S200
M105
M109 S200
M82 ;absolute extrusion mode
; Ender 3 Custom Start G-code
G92 E0 ; Reset Extruder
G28 ; Home all axes
G1 Z2.0 F3000 ; Move Z Axis up little to prevent scratching of Heat Bed
G1 X0.1 Y20 Z0.3 F5000.0 ; Move to start position
G1 X0.1 Y200.0 Z0.3 F1500.0 E15 ; Draw the first line
G1 X0.4 Y200.0 Z0.3 F5000.0 ; Move to side a little
G1 X0.4 Y20 Z0.3 F1500.0 E30 ; Draw the second line
G92 E0 ; Reset Extruder
G1 Z2.0 F3000 ; Move Z Axis up little to prevent scratching of Heat Bed
G1 X5 Y20 Z0.3 F5000.0 ; Move over to prevent blob squish
G92 E0
G92 E0
G1 F1500 E-6.5
;LAYER_COUNT:12
;LAYER:0
M107
G0 F6000 X37.86 Y87.581 Z0.2
;TYPE:SKIRT
G1 F1500 E0
G1 F1200 X38.723 Y87.213 E0.0312
G1 X39.84 Y86.859 E0.07018
G1 X40.299 Y86.741 E0.08594
G1 X42.243 Y86.263 E0.15252
G1 X44.654 Y85.596 E0.23573
G1 X47.09 Y84.848 E0.32048
G1 X49.185 Y84.141 E0.39402
G1 X49.492 Y84.042 E0.40475
G1 X50.396 Y83.792 E0.43595
G1 X50.911 Y83.686 E0.45343
G1 X51.84 Y83.558 E0.48462
G1 X52.569 Y83.513 E0.50892
G1 X52.888 Y83.504 E0.51953
G1 X53.198 Y83.5 E0.52984
G1 X72.318 Y83.501 E1.16578
G1 X73.022 Y83.511 E1.18919
G1 X73.959 Y83.564 E1.22041
G1 X74.887 Y83.697 E1.25159
G1 X75.483 Y83.826 E1.27187
G1 X75.813 Y83.907 E1.28317
G1 X78.42 Y84.507 E1.37215
G1 X80.861 Y84.999 E1.45497
G1 X83.33 Y85.42 E1.53827
G1 X85.839 Y85.778 E1.62257
G1 X88.319 Y86.06 E1.70559
G1 X90.85 Y86.277 E1.79008
G1 X93.352 Y86.418 E1.87343
G1 X95.869 Y86.491 E1.95718
G1 X97.219 Y86.5 E2.00208
G1 X127.893 Y86.5 E3.0223
G1 X130.501 Y86.463 E3.10905
G1 X133.023 Y86.356 E3.19301
G1 X135.518 Y86.179 E3.2762
G1 X138.016 Y85.931 E3.35969
G1 X140.505 Y85.613 E3.44315
G1 X143.014 Y85.219 E3.52762
G1 X145.48 Y84.76 E3.61105
G1 X147.94 Y84.231 E3.69474
G1 X148.74 Y84.036 E3.72213
G1 X149.772 Y83.797 E3.75736
G1 X150.669 Y83.628 E3.78772
G1 X151.971 Y83.513 E3.83119
G1 X152.29 Y83.504 E3.84181
G1 X152.6 Y83.5 E3.85212
G1 X171.722 Y83.501 E4.48812
G1 X172.42 Y83.511 E4.51134
G1 X173.356 Y83.565 E4.54252
G1 X174.284 Y83.697 E4.5737
G1 X175.198 Y83.909 E4.6049
G1 X175.757 Y84.08 E4.62435
G1 X177.095 Y84.53 E4.6713
G1 X177.272 Y84.593 E4.67755
G1 X179.62 Y85.349 E4.75959
G1 X182.073 Y86.064 E4.84457
G1 X184.543 Y86.708 E4.92947
G1 X185.008 Y86.821 E4.94539
G1 X185.909 Y87.082 E4.97659
G1 X186.784 Y87.419 E5.00777
G1 X187.628 Y87.829 E5.03898
G1 X188.433 Y88.309 E5.07016
G1 X189.195 Y88.857 E5.10137
G1 X189.907 Y89.467 E5.13256
G1 X190.565 Y90.136 E5.16377
G1 X191.163 Y90.858 E5.19495
G1 X191.698 Y91.628 E5.22613
G1 X192.165 Y92.442 E5.25735
G1 X192.561 Y93.292 E5.28853
G1 X192.883 Y94.173 E5.31973
G1 X193.129 Y95.078 E5.35093
G1 X193.297 Y96 E5.3821
G1 X193.397 Y97.201 E5.42218
G1 X193.406 Y97.523 E5.43289
G1 X193.41 Y97.83 E5.44311
G1 X193.409 Y126.964 E6.41211
G1 X193.398 Y127.671 E6.43562
G1 X193.343 Y128.607 E6.46681
G1 X193.215 Y129.505 E6.49698
G1 X193.023 Y130.541 E6.53202
G1 X192.585 Y133.094 E6.61818
G1 X192.23 Y135.593 E6.70213
G1 X191.944 Y138.112 E6.78645
G1 X191.735 Y140.573 E6.8686
G1 X191.594 Y143.069 E6.95175
G1 X191.51 Y147.02 E7.08319
G1 X191.509 Y167.281 E7.75707
G1 X191.498 Y168.01 E7.78132
G1 X191.444 Y168.946 E7.8125
G1 X191.31 Y169.875 E7.84372
G1 X191.098 Y170.788 E7.8749
G1 X190.808 Y171.68 E7.90609
G1 X190.444 Y172.544 E7.93728
G1 X190.008 Y173.375 E7.96849
G1 X189.502 Y174.164 E7.99966
G1 X188.931 Y174.908 E8.03086
G1 X188.298 Y175.601 E8.06207
G1 X187.609 Y176.237 E8.09326
G1 X186.868 Y176.812 E8.12446
G1 X186.081 Y177.322 E8.15565
G1 X185.254 Y177.763 E8.18682
G1 X184.391 Y178.132 E8.21804
G1 X183.278 Y178.487 E8.25689
G1 X182.41 Y178.713 E8.28673
G1 X181.196 Y179.012 E8.32831
G1 X178.77 Y179.684 E8.41204
G1 X176.373 Y180.422 E8.49545
G1 X173.95 Y181.242 E8.58053
G1 X173.49 Y181.387 E8.59658
G1 X172.58 Y181.615 E8.62778
G1 X171.654 Y181.765 E8.65898
G1 X170.67 Y181.838 E8.6918
G1 X170.352 Y181.847 E8.70238
G1 X170.041 Y181.851 E8.71272
G1 X150.921 Y181.85 E9.34866
G1 X150.217 Y181.84 E9.37207
G1 X149.28 Y181.787 E9.40329
G1 X148.352 Y181.654 E9.43447
G1 X147.756 Y181.525 E9.45475
G1 X147.373 Y181.431 E9.46787
G1 X144.864 Y180.853 E9.5535
G1 X142.372 Y180.353 E9.63804
G1 X139.899 Y179.929 E9.72149
G1 X137.4 Y179.573 E9.80545
G1 X134.92 Y179.291 E9.88846
G1 X132.389 Y179.074 E9.97295
G1 X129.887 Y178.933 E10.0563
G1 X127.37 Y178.86 E10.14005
G1 X126.02 Y178.851 E10.18496
G1 X95.346 Y178.851 E11.20518
G1 X92.738 Y178.888 E11.29193
G1 X90.216 Y178.995 E11.37589
G1 X87.721 Y179.172 E11.45908
G1 X85.223 Y179.42 E11.54257
G1 X82.734 Y179.738 E11.62603
G1 X80.225 Y180.132 E11.7105
G1 X77.759 Y180.591 E11.79393
G1 X75.299 Y181.12 E11.87762
G1 X74.499 Y181.315 E11.90501
G1 X73.467 Y181.554 E11.94024
G1 X72.57 Y181.723 E11.9706
G1 X71.268 Y181.838 E12.01407
G1 X70.949 Y181.847 E12.02469
G1 X70.639 Y181.851 E12.035
G1 X51.503 Y181.85 E12.67146
G1 X50.798 Y181.839 E12.69492
G1 X49.862 Y181.784 E12.7261
G1 X48.934 Y181.65 E12.75729
G1 X48.02 Y181.437 E12.7885
G1 X47.457 Y181.264 E12.80809
G1 X46.35 Y180.891 E12.84694
G1 X43.872 Y180.094 E12.93352
G1 X41.466 Y179.394 E13.01686
G1 X38.989 Y178.749 E13.10199
G1 X38.084 Y178.528 E13.13298
G1 X37.184 Y178.266 E13.16416
G1 X36.309 Y177.929 E13.19534
G1 X35.465 Y177.518 E13.22657
G1 X34.66 Y177.037 E13.25776
G1 X33.899 Y176.489 E13.28895
G1 X33.187 Y175.879 E13.32013
G1 X32.53 Y175.21 E13.35132
G1 X31.932 Y174.487 E13.38252
G1 X31.398 Y173.716 E13.41372
G1 X30.932 Y172.902 E13.44491
G1 X30.536 Y172.052 E13.4761
G1 X30.215 Y171.171 E13.50729
G1 X29.969 Y170.266 E13.53848
G1 X29.802 Y169.343 E13.56968
G1 X29.703 Y168.137 E13.60993
G1 X29.694 Y167.8 E13.62114
G1 X29.69 Y167.506 E13.63092
G1 X29.691 Y138.387 E14.59942
G1 X29.702 Y137.68 E14.62294
G1 X29.757 Y136.744 E14.65412
G1 X29.885 Y135.846 E14.68429
G1 X30.077 Y134.81 E14.71934
G1 X30.515 Y132.257 E14.80549
G1 X30.87 Y129.758 E14.88944
G1 X31.156 Y127.239 E14.97376
G1 X31.365 Y124.778 E15.05591
G1 X31.506 Y122.282 E15.13906
G1 X31.59 Y118.331 E15.2705
G1 X31.591 Y97.993 E15.94694
G1 X31.602 Y97.326 E15.96913
G1 X31.658 Y96.389 E16.00035
G1 X31.793 Y95.461 E16.03154
G1 X32.006 Y94.548 E16.06272
G1 X32.297 Y93.656 E16.09393
G1 X32.662 Y92.793 E16.1251
G1 X33.1 Y91.963 E16.15631
G1 X33.607 Y91.174 E16.1875
G1 X34.179 Y90.431 E16.21869
G1 X34.813 Y89.739 E16.24991
G1 X35.503 Y89.104 E16.28109
G1 X36.244 Y88.53 E16.31227
G1 X37.032 Y88.021 E16.34347
G1 X37.86 Y87.581 E16.37466
G0 F6000 X38.232 Y87.849
G1 F1200 X39.086 Y87.507 E16.40525
G1 X39.941 Y87.246 E16.43499
G1 X40.395 Y87.129 E16.45058
G1 X42.364 Y86.645 E16.51802
G1 X44.782 Y85.976 E16.60146
G1 X47.189 Y85.237 E16.68521
G1 X49.308 Y84.522 E16.75959
G1 X49.615 Y84.423 E16.77032
G1 X50.502 Y84.178 E16.80093
G1 X50.983 Y84.08 E16.81725
G1 X51.895 Y83.955 E16.84787
G1 X52.58 Y83.913 E16.8707
G1 X52.899 Y83.904 E16.88131
G1 X53.198 Y83.9 E16.89126
G1 X72.313 Y83.901 E17.52702
G1 X73.017 Y83.911 E17.55044
G1 X73.936 Y83.964 E17.58106
G1 X74.847 Y84.097 E17.61168
G1 X75.388 Y84.214 E17.63009
G1 X75.772 Y84.308 E17.64324
G1 X78.322 Y84.895 E17.73027
G1 X80.786 Y85.392 E17.81387
G1 X83.277 Y85.817 E17.89792
G1 X85.773 Y86.173 E17.98178
G1 X88.307 Y86.461 E18.0666
G1 X90.792 Y86.674 E18.14956
G1 X93.32 Y86.817 E18.23377
G1 X95.9 Y86.891 E18.31962
G1 X97.216 Y86.9 E18.36339
G1 X127.899 Y86.9 E19.38391
G1 X130.524 Y86.863 E19.47123
G1 X133.032 Y86.756 E19.55472
G1 X135.549 Y86.578 E19.63864
G1 X138.073 Y86.328 E19.723
G1 X140.581 Y86.007 E19.8071
G1 X143.043 Y85.62 E19.88999
G1 X145.565 Y85.151 E19.97531
G1 X148.022 Y84.622 E20.05891
G1 X148.83 Y84.425 E20.08657
G1 X149.862 Y84.186 E20.1218
G1 X150.728 Y84.023 E20.15111
G1 X151.982 Y83.913 E20.19298
G1 X152.301 Y83.904 E20.20359
G1 X152.6 Y83.9 E20.21354
G1 X171.716 Y83.901 E20.84934
G1 X172.414 Y83.911 E20.87256
G1 X173.333 Y83.964 E20.90317
G1 X174.244 Y84.097 E20.93379
G1 X175.14 Y84.308 E20.96441
G1 X175.63 Y84.459 E20.98146
G1 X176.776 Y84.843 E21.02166
G1 X177.112 Y84.961 E21.03351
G1 X179.533 Y85.74 E21.1181
G1 X181.965 Y86.449 E21.20235
G1 X184.475 Y87.103 E21.28862
G1 X184.913 Y87.21 E21.30362
G1 X185.797 Y87.467 E21.33424
G1 X186.656 Y87.799 E21.36487
G1 X187.482 Y88.205 E21.39548
G1 X188.27 Y88.681 E21.4261
G1 X189.014 Y89.224 E21.45674
G1 X189.708 Y89.829 E21.48736
G1 X190.347 Y90.492 E21.51798
G1 X190.926 Y91.208 E21.54861
G1 X191.44 Y91.971 E21.57921
G1 X191.886 Y92.776 E21.60982
G1 X192.261 Y93.617 E21.64044
G1 X192.562 Y94.488 E21.6711
G1 X192.785 Y95.381 E21.70171
G1 X192.931 Y96.29 E21.73233
G1 X192.997 Y97.212 E21.76307
G1 X193.006 Y97.534 E21.77379
G1 X193.01 Y97.83 E21.78363
G1 X193.009 Y126.958 E22.75243
G1 X192.998 Y127.665 E22.77595
G1 X192.943 Y128.584 E22.80657
G1 X192.821 Y129.432 E22.83507
G1 X192.642 Y130.397 E22.86771
G1 X192.19 Y133.036 E22.95676
G1 X191.83 Y135.563 E23.04166
G1 X191.55 Y138.031 E23.12427
G1 X191.332 Y140.587 E23.20959
G1 X191.194 Y143.039 E23.29128
G1 X191.11 Y147.011 E23.42342
G1 X191.109 Y167.275 E24.0974
G1 X191.098 Y168.004 E24.12165
G1 X191.044 Y168.923 E24.15227
G1 X190.911 Y169.834 E24.18289
G1 X190.699 Y170.73 E24.21351
G1 X190.41 Y171.604 E24.24413
G1 X190.046 Y172.45 E24.27476
G1 X189.61 Y173.261 E24.30539
G1 X189.106 Y174.031 E24.336
G1 X188.537 Y174.755 E24.36662
G1 X187.907 Y175.426 E24.39724
G1 X187.221 Y176.04 E24.42786
G1 X186.484 Y176.592 E24.45848
G1 X185.703 Y177.079 E24.4891
G1 X184.882 Y177.496 E24.51972
G1 X184.028 Y177.839 E24.55033
G1 X183.177 Y178.1 E24.57994
G1 X182.314 Y178.324 E24.60959
G1 X181.098 Y178.623 E24.65124
G1 X178.683 Y179.292 E24.73459
G1 X176.242 Y180.044 E24.81954
G1 X173.822 Y180.863 E24.90452
G1 X173.376 Y181.004 E24.92007
G1 X172.483 Y181.227 E24.95069
G1 X171.573 Y181.372 E24.98134
G1 X170.659 Y181.438 E25.01182
G1 X170.341 Y181.447 E25.0224
G1 X170.041 Y181.451 E25.03237
G1 X150.926 Y181.45 E25.66814
G1 X150.222 Y181.44 E25.69156
G1 X149.303 Y181.387 E25.72218
G1 X148.392 Y181.254 E25.7528
G1 X147.851 Y181.137 E25.77121
G1 X147.479 Y181.046 E25.78395
G1 X144.927 Y180.458 E25.87105
G1 X142.419 Y179.955 E25.95613
G1 X139.98 Y179.537 E26.03843
G1 X137.466 Y179.178 E26.1229
G1 X134.932 Y178.89 E26.20772
G1 X132.447 Y178.677 E26.29067
G1 X129.919 Y178.534 E26.37489
G1 X127.339 Y178.46 E26.46074
G1 X126.023 Y178.451 E26.50451
G1 X95.34 Y178.451 E27.52503
G1 X92.715 Y178.488 E27.61234
G1 X90.207 Y178.595 E27.69584
G1 X87.69 Y178.773 E27.77976
G1 X85.166 Y179.023 E27.86412
G1 X82.658 Y179.344 E27.94822
G1 X80.196 Y179.731 E28.03111
G1 X77.674 Y180.2 E28.11643
G1 X75.217 Y180.729 E28.20002
G1 X74.409 Y180.926 E28.22768
G1 X73.377 Y181.165 E28.26292
G1 X72.511 Y181.328 E28.29223
G1 X71.257 Y181.438 E28.33409
G1 X70.938 Y181.447 E28.34471
G1 X70.639 Y181.451 E28.35465
G1 X51.51 Y181.45 E28.99089
G1 X50.805 Y181.439 E29.01434
G1 X49.886 Y181.384 E29.04496
G1 X48.975 Y181.251 E29.07558
G1 X48.079 Y181.038 E29.10621
G1 X47.585 Y180.885 E29.12341
G1 X46.473 Y180.51 E29.16244
G1 X44 Y179.715 E29.24884
G1 X41.564 Y179.006 E29.33323
G1 X39.056 Y178.354 E29.41942
G1 X38.179 Y178.139 E29.44945
G1 X37.296 Y177.882 E29.48004
G1 X36.437 Y177.549 E29.51068
G1 X35.611 Y177.142 E29.5413
G1 X34.824 Y176.666 E29.5719
G1 X34.08 Y176.123 E29.60253
G1 X33.387 Y175.517 E29.63315
G1 X32.748 Y174.853 E29.6638
G1 X32.17 Y174.137 E29.69441
G1 X31.656 Y173.373 E29.72503
G1 X31.21 Y172.568 E29.75564
G1 X30.836 Y171.727 E29.78625
G1 X30.536 Y170.856 E29.81689
G1 X30.313 Y169.963 E29.84751
G1 X30.168 Y169.054 E29.87812
G1 X30.103 Y168.126 E29.90906
G1 X30.094 Y167.789 E29.92028
G1 X30.09 Y167.506 E29.92969
G1 X30.091 Y138.393 E30.89799
G1 X30.102 Y137.686 E30.92151
G1 X30.157 Y136.767 E30.95213
G1 X30.279 Y135.919 E30.98063
G1 X30.46 Y134.944 E31.01361
G1 X30.91 Y132.315 E31.10232
G1 X31.27 Y129.788 E31.18722
G1 X31.55 Y127.32 E31.26983
G1 X31.768 Y124.764 E31.35515
G1 X31.906 Y122.312 E31.43683
G1 X31.99 Y118.34 E31.56897
G1 X31.991 Y97.999 E32.24552
G1 X32.002 Y97.332 E32.26771
G1 X32.058 Y96.413 E32.29833
G1 X32.192 Y95.502 E32.32895
G1 X32.405 Y94.607 E32.35955
G1 X32.696 Y93.733 E32.39019
G1 X33.06 Y92.888 E32.42079
G1 X33.497 Y92.077 E32.45143
G1 X34.003 Y91.308 E32.48205
G1 X34.573 Y90.585 E32.51267
G1 X35.204 Y89.915 E32.54328
G1 X35.891 Y89.301 E32.57393
G1 X36.628 Y88.75 E32.60454
G1 X37.41 Y88.265 E32.63514
G1 X38.232 Y87.849 E32.66578
G0 F6000 X38.602 Y88.124
G1 F1200 X39.447 Y87.807 E32.6958
G1 X40.041 Y87.633 E32.71639
G1 X40.49 Y87.518 E32.7318
G1 X42.437 Y87.039 E32.79849
G1 X44.892 Y86.36 E32.88321
G1 X47.329 Y85.612 E32.968
G1 X49.43 Y84.902 E33.04176
G1 X49.737 Y84.803 E33.05249
G1 X51.054 Y84.474 E33.09764
G1 X51.949 Y84.351 E33.12769
G1 X52.591 Y84.313 E33.14908
G1 X52.91 Y84.304 E33.15969
G1 X53.198 Y84.3 E33.16927
G1 X72.307 Y84.301 E33.80484
G1 X73.011 Y84.311 E33.82826
G1 X73.912 Y84.364 E33.85827
G1 X74.806 Y84.496 E33.88833
G1 X75.293 Y84.603 E33.90492
G1 X75.655 Y84.692 E33.91731
G1 X78.233 Y85.285 E34.0053
G1 X80.738 Y85.79 E34.09029
G1 X83.19 Y86.209 E34.17303
G1 X85.743 Y86.572 E34.25879
G1 X88.229 Y86.855 E34.34201
G1 X90.772 Y87.073 E34.4269
G1 X93.32 Y87.217 E34.51179
G1 X95.887 Y87.291 E34.5972
G1 X97.213 Y87.3 E34.6413
G1 X127.905 Y87.3 E35.66212
G1 X130.511 Y87.263 E35.74881
G1 X133.079 Y87.154 E35.8343
G1 X135.581 Y86.977 E35.91772
G1 X138.093 Y86.728 E36.00168
G1 X140.656 Y86.4 E36.08762
G1 X143.141 Y86.009 E36.17129
G1 X145.624 Y85.548 E36.25529
G1 X148.123 Y85.01 E36.34031
G1 X148.921 Y84.815 E36.36763
G1 X149.953 Y84.576 E36.40286
G1 X150.786 Y84.419 E36.43106
G1 X151.993 Y84.313 E36.47136
G1 X152.312 Y84.304 E36.48197
G1 X152.6 Y84.3 E36.49155
G1 X171.71 Y84.301 E37.12715
G1 X172.408 Y84.311 E37.15037
G1 X173.31 Y84.364 E37.18042
G1 X174.203 Y84.496 E37.21045
G1 X175.503 Y84.839 E37.25516
G1 X176.827 Y85.284 E37.30162
G1 X176.992 Y85.343 E37.30745
G1 X179.403 Y86.119 E37.39169
G1 X181.857 Y86.834 E37.4767
G1 X184.406 Y87.498 E37.56431
G1 X184.818 Y87.599 E37.57842
G1 X185.685 Y87.851 E37.60845
G1 X186.527 Y88.18 E37.63852
G1 X187.336 Y88.581 E37.66855
G1 X188.106 Y89.053 E37.69859
G1 X188.832 Y89.59 E37.72863
G1 X189.507 Y90.19 E37.75866
G1 X190.126 Y90.847 E37.78869
G1 X190.685 Y91.557 E37.81874
G1 X191.179 Y92.313 E37.84878
G1 X191.604 Y93.11 E37.87882
G1 X191.957 Y93.941 E37.90885
G1 X192.235 Y94.8 E37.93888
G1 X192.436 Y95.681 E37.96893
G1 X192.558 Y96.575 E37.99894
G1 X192.597 Y97.223 E38.02054
G1 X192.606 Y97.545 E38.03125
G1 X192.61 Y97.83 E38.04073
G1 X192.609 Y126.952 E39.00933
G1 X192.598 Y127.659 E39.03285
G1 X192.544 Y128.56 E39.06287
G1 X192.428 Y129.359 E39.08972
G1 X192.234 Y130.404 E39.12507
G1 X191.798 Y132.95 E39.21099
G1 X191.436 Y135.499 E39.29662
G1 X191.149 Y138.024 E39.38114
G1 X190.935 Y140.532 E39.46486
G1 X190.794 Y143.035 E39.54824
G1 X190.71 Y147.003 E39.68025
G1 X190.709 Y167.269 E40.3543
G1 X190.698 Y167.998 E40.37855
G1 X190.644 Y168.899 E40.40857
G1 X190.511 Y169.793 E40.43863
G1 X190.3 Y170.671 E40.46866
G1 X190.011 Y171.526 E40.49868
G1 X189.648 Y172.353 E40.52872
G1 X189.213 Y173.145 E40.55878
G1 X188.71 Y173.895 E40.58881
G1 X188.143 Y174.598 E40.61885
G1 X187.516 Y175.247 E40.64886
G1 X186.833 Y175.839 E40.67893
G1 X186.101 Y176.368 E40.70897
G1 X185.325 Y176.83 E40.739
G1 X184.512 Y177.222 E40.76902
G1 X183.666 Y177.54 E40.79908
G1 X183.076 Y177.713 E40.81953
G1 X182.219 Y177.936 E40.84899
G1 X181.002 Y178.236 E40.89068
G1 X178.564 Y178.911 E40.97481
G1 X176.102 Y179.669 E41.06049
G1 X173.694 Y180.484 E41.14505
G1 X173.262 Y180.62 E41.16011
G1 X172.386 Y180.839 E41.19014
G1 X171.493 Y180.979 E41.22021
G1 X170.648 Y181.038 E41.24838
G1 X170.33 Y181.047 E41.25896
G1 X170.041 Y181.051 E41.26857
G1 X150.932 Y181.05 E41.90414
G1 X150.228 Y181.04 E41.92756
G1 X149.327 Y180.987 E41.95758
G1 X148.433 Y180.855 E41.98764
G1 X147.946 Y180.748 E42.00422
G1 X147.584 Y180.659 E42.01662
G1 X145.031 Y180.071 E42.10375
G1 X142.487 Y179.561 E42.19005
G1 X140.038 Y179.141 E42.2727
G1 X137.496 Y178.779 E42.3581
