;FLAVOR:Marlin
;TIME:6940
;Filament used: 5.63722m
;Layer height: 0.25
;MINX:54.342
;MINY:83.502
;MINZ:0.2
;MAXX:169.418
;MAXY:182.623
;MAXZ:8.95
;Generated with Cura_SteamEngine 4.12.0
M140 S60
M105
M190 S60
M104 S200
M105
M109 S200
M82 ;absolute extrusion mode
; Ender 3 Custom Start G-code
G92 E0 ; Reset Extruder
G28 ; Home all axes
G1 Z2.0 F3000 ; Move Z Axis up little to prevent scratching of Heat Bed
G1 X0.1 Y20 Z0.3 F5000.0 ; Move to start position
G1 X0.1 Y200.0 Z0.3 F1500.0 E15 ; Draw the first line
G1 X0.4 Y200.0 Z0.3 F5000.0 ; Move to side a little
G1 X0.4 Y20 Z0.3 F1500.0 E30 ; Draw the second line
G92 E0 ; Reset Extruder
G1 Z2.0 F3000 ; Move Z Axis up little to prevent scratching of Heat Bed
G1 X5 Y20 Z0.3 F5000.0 ; Move over to prevent blob squish
G92 E0
G92 E0
G1 F1500 E-6.5
;LAYER_COUNT:36
;LAYER:0
M107
G0 F6000 X60.237 Y88.531 Z0.2
;TYPE:SKIRT
G1 F1500 E0
G1 F1200 X61.025 Y88.022 E0.0312
G1 X61.853 Y87.582 E0.06239
G1 X62.716 Y87.214 E0.09359
G1 X63.82 Y86.863 E0.13212
G1 X64.274 Y86.746 E0.14772
G1 X66.242 Y86.262 E0.21512
G1 X68.666 Y85.592 E0.29877
G1 X71.058 Y84.859 E0.38198
G1 X73.041 Y84.188 E0.45161
G1 X73.479 Y84.046 E0.46692
G1 X74.383 Y83.796 E0.49812
G1 X74.904 Y83.688 E0.51581
G1 X75.833 Y83.56 E0.547
G1 X76.562 Y83.515 E0.5713
G1 X76.881 Y83.506 E0.58191
G1 X77.191 Y83.502 E0.59222
G1 X96.153 Y83.502 E1.2229
G1 X97.011 Y83.513 E1.25144
G1 X97.947 Y83.566 E1.28262
G1 X98.543 Y83.642 E1.30261
G1 X98.691 Y83.665 E1.30759
G1 X101.19 Y84.022 E1.39155
G1 X103.705 Y84.309 E1.47574
G1 X106.22 Y84.524 E1.55969
G1 X108.737 Y84.668 E1.64355
G1 X111.225 Y84.739 E1.72633
G1 X113.748 Y84.741 E1.81025
G1 X116.279 Y84.67 E1.89446
G1 X118.785 Y84.53 E1.97794
G1 X121.314 Y84.316 E2.06236
G1 X123.776 Y84.037 E2.14477
G1 X126.755 Y83.619 E2.24482
G1 X127.947 Y83.517 E2.28461
G1 X128.274 Y83.507 E2.29549
G1 X128.61 Y83.502 E2.30667
G1 X147.742 Y83.503 E2.943
G1 X148.449 Y83.514 E2.96652
G1 X149.385 Y83.569 E2.9977
G1 X150.314 Y83.703 E3.02892
G1 X151.227 Y83.916 E3.0601
G1 X151.793 Y84.09 E3.0798
G1 X153.202 Y84.566 E3.12927
G1 X153.394 Y84.634 E3.13604
G1 X155.752 Y85.388 E3.21838
G1 X158.224 Y86.103 E3.30397
G1 X160.572 Y86.714 E3.38466
G1 X161.009 Y86.82 E3.39962
G1 X161.91 Y87.08 E3.43081
G1 X162.786 Y87.416 E3.46202
G1 X163.63 Y87.826 E3.49322
G1 X164.435 Y88.306 E3.5244
G1 X165.197 Y88.853 E3.5556
G1 X165.91 Y89.462 E3.58678
G1 X166.568 Y90.13 E3.61797
G1 X167.167 Y90.852 E3.64917
G1 X167.702 Y91.623 E3.68038
G1 X168.17 Y92.436 E3.71158
G1 X168.566 Y93.285 E3.74274
G1 X168.889 Y94.166 E3.77395
G1 X169.136 Y95.071 E3.80515
G1 X169.304 Y95.993 E3.83632
G1 X169.405 Y97.202 E3.87668
G1 X169.414 Y97.525 E3.88742
G1 X169.418 Y97.831 E3.8976
G1 X169.417 Y126.962 E4.8665
G1 X169.406 Y127.668 E4.88999
G1 X169.296 Y129.054 E4.93623
G1 X168.899 Y131.828 E5.02943
G1 X168.616 Y134.319 E5.11282
G1 X168.403 Y136.824 E5.19644
G1 X168.258 Y139.357 E5.28082
G1 X168.186 Y141.863 E5.36421
G1 X168.177 Y143.216 E5.40921
G1 X168.176 Y168.052 E6.23526
G1 X168.165 Y168.782 E6.25954
G1 X168.111 Y169.718 E6.29072
G1 X167.977 Y170.646 E6.32191
G1 X167.765 Y171.56 E6.35312
G1 X167.475 Y172.452 E6.38431
G1 X167.111 Y173.316 E6.41549
G1 X166.675 Y174.146 E6.44668
G1 X166.169 Y174.936 E6.47788
G1 X165.598 Y175.68 E6.50907
G1 X164.966 Y176.373 E6.54027
G1 X164.276 Y177.009 E6.57148
G1 X163.536 Y177.584 E6.60265
G1 X162.749 Y178.094 E6.63384
G1 X161.921 Y178.535 E6.66504
G1 X161.059 Y178.904 E6.69623
G1 X159.945 Y179.259 E6.73512
G1 X159.077 Y179.485 E6.76495
G1 X157.863 Y179.784 E6.80653
G1 X155.437 Y180.456 E6.89026
G1 X153.04 Y181.194 E6.97368
G1 X150.617 Y182.014 E7.05876
G1 X150.157 Y182.159 E7.0748
G1 X149.247 Y182.387 E7.106
G1 X148.321 Y182.537 E7.1372
G1 X147.337 Y182.61 E7.17002
G1 X147.019 Y182.619 E7.1806
G1 X146.708 Y182.623 E7.19095
G1 X127.59 Y182.622 E7.82681
G1 X126.886 Y182.612 E7.85023
G1 X125.949 Y182.559 E7.88145
G1 X125.319 Y182.477 E7.90258
G1 X122.709 Y182.103 E7.99027
G1 X120.194 Y181.816 E8.07446
G1 X117.679 Y181.601 E8.15842
G1 X115.162 Y181.457 E8.24227
G1 X112.674 Y181.386 E8.32506
G1 X110.151 Y181.384 E8.40897
G1 X107.62 Y181.455 E8.49319
G1 X105.114 Y181.595 E8.57667
G1 X102.585 Y181.809 E8.66108
G1 X100.123 Y182.088 E8.74349
G1 X97.144 Y182.506 E8.84354
G1 X95.952 Y182.608 E8.88334
G1 X95.625 Y182.618 E8.89422
G1 X95.289 Y182.623 E8.90539
G1 X76.172 Y182.622 E9.54123
G1 X75.469 Y182.612 E9.56461
G1 X74.532 Y182.559 E9.59583
G1 X73.604 Y182.426 E9.62701
G1 X72.69 Y182.214 E9.65821
G1 X72.117 Y182.039 E9.67814
G1 X70.957 Y181.649 E9.71884
G1 X68.539 Y180.87 E9.80334
G1 X66.123 Y180.167 E9.88703
G1 X63.6 Y179.51 E9.97374
G1 X62.718 Y179.293 E10.00395
G1 X61.817 Y179.03 E10.03517
G1 X60.943 Y178.691 E10.06635
G1 X60.1 Y178.279 E10.09756
G1 X59.296 Y177.797 E10.12873
G1 X58.536 Y177.247 E10.15994
G1 X57.825 Y176.635 E10.19114
G1 X57.169 Y175.965 E10.22233
G1 X56.572 Y175.242 E10.25351
G1 X56.04 Y174.47 E10.2847
G1 X55.575 Y173.655 E10.3159
G1 X55.181 Y172.804 E10.34709
G1 X54.861 Y171.923 E10.37827
G1 X54.617 Y171.017 E10.40948
G1 X54.451 Y170.094 E10.44067
G1 X54.355 Y168.908 E10.48024
G1 X54.346 Y168.573 E10.49139
G1 X54.342 Y168.278 E10.5012
G1 X54.343 Y139.162 E11.46961
G1 X54.354 Y138.456 E11.49309
G1 X54.464 Y137.07 E11.53933
G1 X54.861 Y134.296 E11.63254
G1 X55.144 Y131.805 E11.71592
G1 X55.357 Y129.3 E11.79954
G1 X55.502 Y126.767 E11.88392
G1 X55.574 Y124.261 E11.96731
G1 X55.583 Y122.908 E12.01231
G1 X55.584 Y97.995 E12.84092
G1 X55.595 Y97.327 E12.86314
G1 X55.651 Y96.391 E12.89433
G1 X55.786 Y95.463 E12.92552
G1 X55.999 Y94.549 E12.95673
G1 X56.29 Y93.658 E12.98791
G1 X56.655 Y92.794 E13.0191
G1 X57.093 Y91.964 E13.05032
G1 X57.6 Y91.175 E13.08151
G1 X58.172 Y90.432 E13.1127
G1 X58.805 Y89.74 E13.14389
G1 X59.495 Y89.105 E13.17508
G1 X60.237 Y88.531 E13.20628
G0 F6000 X60.621 Y88.751
G1 F1200 X61.403 Y88.266 E13.23689
G1 X62.225 Y87.85 E13.26753
G1 X63.079 Y87.508 E13.29813
G1 X63.921 Y87.251 E13.32741
G1 X64.369 Y87.135 E13.3428
G1 X66.347 Y86.648 E13.41055
G1 X68.775 Y85.978 E13.49433
G1 X71.177 Y85.241 E13.57789
G1 X73.17 Y84.567 E13.64787
G1 X73.602 Y84.427 E13.66297
G1 X74.489 Y84.182 E13.69358
G1 X74.976 Y84.082 E13.71011
G1 X75.888 Y83.957 E13.74073
G1 X76.573 Y83.915 E13.76356
G1 X76.892 Y83.906 E13.77417
G1 X77.191 Y83.902 E13.78412
G1 X96.153 Y83.902 E14.41479
G1 X97.005 Y83.913 E14.44313
G1 X97.924 Y83.966 E14.47375
G1 X98.482 Y84.038 E14.49246
G1 X101.12 Y84.416 E14.5811
G1 X103.697 Y84.71 E14.66737
G1 X106.164 Y84.921 E14.74972
G1 X108.702 Y85.066 E14.83427
G1 X111.249 Y85.139 E14.91902
G1 X113.759 Y85.141 E15.0025
G1 X116.314 Y85.07 E15.08752
G1 X118.805 Y84.93 E15.1705
G1 X121.321 Y84.717 E15.25448
G1 X123.877 Y84.427 E15.34004
G1 X126.811 Y84.015 E15.43858
G1 X127.959 Y83.917 E15.4769
G1 X128.286 Y83.907 E15.48778
G1 X128.61 Y83.902 E15.49856
G1 X147.736 Y83.903 E16.13469
G1 X148.443 Y83.914 E16.15821
G1 X149.362 Y83.969 E16.18883
G1 X150.273 Y84.102 E16.21945
G1 X151.169 Y84.315 E16.25009
G1 X151.665 Y84.469 E16.26736
G1 X153.07 Y84.943 E16.31668
G1 X153.288 Y85.02 E16.32437
G1 X155.656 Y85.778 E16.40706
G1 X158.083 Y86.48 E16.4911
G1 X160.444 Y87.093 E16.57223
G1 X160.915 Y87.208 E16.58835
G1 X161.799 Y87.465 E16.61897
G1 X162.658 Y87.797 E16.6496
G1 X163.484 Y88.202 E16.6802
G1 X164.273 Y88.678 E16.71085
G1 X165.017 Y89.22 E16.74146
G1 X165.711 Y89.824 E16.77206
G1 X166.35 Y90.487 E16.80269
G1 X166.93 Y91.203 E16.83334
G1 X167.445 Y91.966 E16.86395
G1 X167.891 Y92.771 E16.89456
G1 X168.267 Y93.611 E16.92517
G1 X168.568 Y94.481 E16.95579
G1 X168.792 Y95.374 E16.98641
G1 X168.938 Y96.283 E17.01703
G1 X169.005 Y97.213 E17.04805
G1 X169.014 Y97.536 E17.05879
G1 X169.018 Y97.831 E17.06861
G1 X169.017 Y126.956 E18.03731
G1 X169.006 Y127.662 E18.06079
G1 X168.9 Y128.997 E18.10533
G1 X168.505 Y131.758 E18.1981
G1 X168.219 Y134.274 E18.28232
G1 X168.003 Y136.807 E18.36688
G1 X167.86 Y139.322 E18.45066
G1 X167.786 Y141.895 E18.53627
G1 X167.777 Y143.214 E18.58014
G1 X167.776 Y168.046 E19.40606
G1 X167.765 Y168.776 E19.43034
G1 X167.711 Y169.695 E19.46096
G1 X167.578 Y170.606 E19.49158
G1 X167.366 Y171.502 E19.52221
G1 X167.077 Y172.376 E19.55282
G1 X166.713 Y173.222 E19.58346
G1 X166.278 Y174.033 E19.61407
G1 X165.773 Y174.803 E19.64469
G1 X165.204 Y175.526 E19.67529
G1 X164.574 Y176.198 E19.70593
G1 X163.888 Y176.812 E19.73655
G1 X163.152 Y177.364 E19.76715
G1 X162.37 Y177.851 E19.79779
G1 X161.549 Y178.267 E19.8284
G1 X160.695 Y178.611 E19.85903
G1 X159.844 Y178.872 E19.88863
G1 X158.981 Y179.096 E19.91829
G1 X157.765 Y179.395 E19.95993
G1 X155.35 Y180.064 E20.04328
G1 X152.909 Y180.816 E20.12824
G1 X150.489 Y181.635 E20.21321
G1 X150.043 Y181.776 E20.22877
G1 X149.15 Y181.999 E20.25938
G1 X148.24 Y182.144 E20.29003
G1 X147.326 Y182.21 E20.32051
G1 X147.008 Y182.219 E20.33109
G1 X146.708 Y182.223 E20.34107
G1 X127.595 Y182.222 E20.97677
G1 X126.891 Y182.212 E21.00019
G1 X125.972 Y182.159 E21.0308
G1 X125.381 Y182.082 E21.05063
G1 X122.779 Y181.709 E21.13805
G1 X120.202 Y181.415 E21.22432
G1 X117.735 Y181.204 E21.30667
G1 X115.197 Y181.059 E21.39123
G1 X112.65 Y180.986 E21.47597
G1 X110.14 Y180.984 E21.55946
G1 X107.585 Y181.055 E21.64447
G1 X105.094 Y181.195 E21.72745
G1 X102.578 Y181.408 E21.81143
G1 X100.022 Y181.698 E21.89699
G1 X97.088 Y182.11 E21.99553
G1 X95.94 Y182.208 E22.03386
G1 X95.613 Y182.218 E22.04474
G1 X95.289 Y182.223 E22.05551
G1 X76.177 Y182.222 E22.69118
G1 X75.474 Y182.212 E22.71457
G1 X74.555 Y182.159 E22.74518
G1 X73.644 Y182.026 E22.7758
G1 X72.748 Y181.815 E22.80642
G1 X72.245 Y181.66 E22.82393
G1 X71.15 Y181.291 E22.86236
G1 X68.635 Y180.482 E22.95023
G1 X66.221 Y179.779 E23.03385
G1 X63.736 Y179.133 E23.11925
G1 X62.813 Y178.905 E23.15088
G1 X61.93 Y178.646 E23.18148
G1 X61.072 Y178.311 E23.21212
G1 X60.247 Y177.903 E23.24273
G1 X59.46 Y177.425 E23.27335
G1 X58.717 Y176.881 E23.30398
G1 X58.025 Y176.274 E23.3346
G1 X57.388 Y175.609 E23.36523
G1 X56.811 Y174.892 E23.39584
G1 X56.298 Y174.127 E23.42647
G1 X55.854 Y173.321 E23.45708
G1 X55.481 Y172.479 E23.48771
G1 X55.183 Y171.608 E23.51833
G1 X54.961 Y170.715 E23.54893
G1 X54.818 Y169.805 E23.57957
G1 X54.755 Y168.898 E23.60981
G1 X54.746 Y168.563 E23.62095
G1 X54.742 Y168.278 E23.63043
G1 X54.743 Y139.168 E24.59864
G1 X54.754 Y138.462 E24.62212
G1 X54.86 Y137.127 E24.66666
G1 X55.255 Y134.366 E24.75943
G1 X55.541 Y131.85 E24.84365
G1 X55.757 Y129.317 E24.92821
G1 X55.9 Y126.802 E25.01199
G1 X55.974 Y124.229 E25.0976
G1 X55.983 Y122.91 E25.14147
G1 X55.984 Y98.001 E25.96995
G1 X55.995 Y97.333 E25.99217
G1 X56.051 Y96.414 E26.02279
G1 X56.185 Y95.504 E26.05339
G1 X56.398 Y94.608 E26.08402
G1 X56.688 Y93.734 E26.11465
G1 X57.053 Y92.889 E26.14526
G1 X57.49 Y92.079 E26.17587
G1 X57.996 Y91.309 E26.20652
G1 X58.566 Y90.586 E26.23714
G1 X59.197 Y89.916 E26.26775
G1 X59.883 Y89.303 E26.29835
G1 X60.621 Y88.751 E26.329
G0 F6000 X61.004 Y88.976
G1 F1200 X61.78 Y88.515 E26.35902
G1 X62.594 Y88.125 E26.38904
G1 X63.44 Y87.808 E26.41909
G1 X64.022 Y87.638 E26.43926
G1 X64.465 Y87.523 E26.45448
G1 X66.435 Y87.038 E26.52196
G1 X68.893 Y86.359 E26.60678
G1 X71.316 Y85.616 E26.69107
G1 X73.431 Y84.902 E26.76531
G1 X73.725 Y84.807 E26.77559
G1 X75.047 Y84.476 E26.82092
G1 X75.942 Y84.353 E26.85097
G1 X76.584 Y84.315 E26.87236
G1 X76.903 Y84.306 E26.88297
G1 X77.191 Y84.302 E26.89255
G1 X96.153 Y84.302 E27.52323
G1 X96.999 Y84.313 E27.55137
G1 X97.901 Y84.366 E27.58142
G1 X98.42 Y84.433 E27.59883
G1 X101.089 Y84.816 E27.68851
G1 X103.618 Y85.105 E27.77317
G1 X106.175 Y85.323 E27.85852
G1 X108.667 Y85.465 E27.94154
G1 X111.237 Y85.539 E28.02706
G1 X113.77 Y85.541 E28.11131
G1 X116.311 Y85.47 E28.19585
G1 X118.825 Y85.329 E28.2796
G1 X121.402 Y85.111 E28.36562
G1 X123.906 Y84.827 E28.44943
G1 X126.866 Y84.411 E28.54885
G1 X127.971 Y84.317 E28.58574
G1 X128.298 Y84.307 E28.59662
G1 X128.61 Y84.302 E28.607
G1 X147.73 Y84.303 E29.24293
G1 X148.437 Y84.314 E29.26645
G1 X149.338 Y84.368 E29.29647
G1 X150.231 Y84.502 E29.3265
G1 X151.538 Y84.848 E29.37147
G1 X152.937 Y85.321 E29.42059
G1 X153.138 Y85.392 E29.42768
G1 X155.528 Y86.157 E29.51114
G1 X157.986 Y86.868 E29.59625
G1 X160.375 Y87.489 E29.67835
G1 X160.82 Y87.597 E29.69358
G1 X161.687 Y87.849 E29.72361
G1 X162.529 Y88.177 E29.75366
G1 X163.338 Y88.578 E29.7837
G1 X164.109 Y89.049 E29.81375
G1 X164.835 Y89.586 E29.84378
G1 X165.51 Y90.186 E29.87382
G1 X166.13 Y90.843 E29.90386
G1 X166.689 Y91.552 E29.93389
G1 X167.184 Y92.307 E29.96392
G1 X167.609 Y93.104 E29.99396
G1 X167.963 Y93.935 E30.024
G1 X168.241 Y94.794 E30.05403
G1 X168.443 Y95.674 E30.08406
G1 X168.566 Y96.569 E30.11411
G1 X168.605 Y97.224 E30.13594
G1 X168.614 Y97.547 E30.14668
G1 X168.618 Y97.831 E30.15613
G1 X168.617 Y126.95 E31.12463
G1 X168.606 Y127.656 E31.14812
G1 X168.504 Y128.94 E31.19096
G1 X168.111 Y131.693 E31.28345
G1 X167.818 Y134.26 E31.36938
G1 X167.603 Y136.784 E31.45364
G1 X167.46 Y139.29 E31.53712
G1 X167.386 Y141.88 E31.6233
G1 X167.377 Y143.211 E31.66757
G1 X167.376 Y168.04 E32.49339
G1 X167.365 Y168.77 E32.51767
G1 X167.311 Y169.671 E32.54769
G1 X167.178 Y170.564 E32.57772
G1 X166.967 Y171.442 E32.60775
G1 X166.678 Y172.298 E32.6378
G1 X166.315 Y173.125 E32.66784
G1 X165.88 Y173.917 E32.6979
G1 X165.377 Y174.667 E32.72793
G1 X164.81 Y175.369 E32.75794
G1 X164.183 Y176.019 E32.78798
G1 X163.5 Y176.611 E32.81804
G1 X162.768 Y177.14 E32.84808
G1 X161.993 Y177.602 E32.87809
G1 X161.179 Y177.994 E32.90814
G1 X160.334 Y178.312 E32.93817
G1 X159.743 Y178.485 E32.95865
G1 X158.886 Y178.708 E32.98811
G1 X157.669 Y179.008 E33.0298
G1 X155.231 Y179.683 E33.11393
G1 X152.769 Y180.441 E33.19961
G1 X150.361 Y181.256 E33.28417
G1 X149.929 Y181.392 E33.29923
G1 X149.053 Y181.611 E33.32926
G1 X148.16 Y181.751 E33.35933
G1 X147.315 Y181.81 E33.3875
G1 X146.997 Y181.819 E33.39808
G1 X146.708 Y181.823 E33.40769
G1 X127.601 Y181.822 E34.0432
G1 X126.897 Y181.812 E34.06661
G1 X125.996 Y181.759 E34.09663
G1 X125.444 Y181.687 E34.11515
G1 X125.344 Y181.671 E34.11852
G1 X122.81 Y181.309 E34.20365
G1 X120.281 Y181.02 E34.28832
G1 X117.724 Y180.802 E34.37367
G1 X115.232 Y180.66 E34.45669
G1 X112.662 Y180.586 E34.5422
G1 X110.129 Y180.584 E34.62645
G1 X107.588 Y180.655 E34.711
G1 X105.074 Y180.796 E34.79474
G1 X102.497 Y181.014 E34.88076
G1 X99.993 Y181.298 E34.96458
G1 X97.033 Y181.714 E35.064
G1 X95.928 Y181.808 E35.10088
G1 X95.601 Y181.818 E35.11176
G1 X95.289 Y181.823 E35.12214
G1 X76.183 Y181.822 E35.75761
G1 X75.48 Y181.812 E35.78099
G1 X74.578 Y181.759 E35.81105
G1 X73.685 Y181.627 E35.84107
G1 X72.807 Y181.416 E35.8711
G1 X72.372 Y181.28 E35.88626
G1 X71.297 Y180.918 E35.92399
G1 X68.765 Y180.103 E36.01246
G1 X66.329 Y179.394 E36.09684
G1 X63.781 Y178.731 E36.18441
G1 X62.909 Y178.516 E36.21428
G1 X62.043 Y178.262 E36.2443
G1 X61.202 Y177.931 E36.27436
G1 X60.394 Y177.528 E36.30439
G1 X59.625 Y177.054 E36.33444
G1 X58.901 Y176.515 E36.36446
G1 X58.227 Y175.913 E36.39452
G1 X57.609 Y175.254 E36.42456
G1 X57.052 Y174.544 E36.45458
G1 X56.56 Y173.786 E36.48464
G1 X56.137 Y172.989 E36.51465
G1 X55.786 Y172.156 E36.54471
G1 X55.51 Y171.296 E36.57475
G1 X55.312 Y170.416 E36.60475
G1 X55.191 Y169.52 E36.63482
G1 X55.155 Y168.887 E36.65591
G1 X55.146 Y168.552 E36.66706
G1 X55.142 Y168.278 E36.67617
G1 X55.143 Y139.174 E37.64417
G1 X55.154 Y138.468 E37.66766
G1 X55.256 Y137.184 E37.7105
G1 X55.649 Y134.431 E37.80299
G1 X55.942 Y131.862 E37.88899
G1 X56.157 Y129.34 E37.97318
G1 X56.3 Y126.834 E38.05666
G1 X56.374 Y124.244 E38.14284
G1 X56.383 Y122.913 E38.18711
G1 X56.384 Y98.008 E39.01546
G1 X56.395 Y97.34 E39.03768
G1 X56.45 Y96.439 E39.0677
G1 X56.585 Y95.546 E39.09774
G1 X56.797 Y94.668 E39.12778
G1 X57.087 Y93.812 E39.15784
G1 X57.451 Y92.986 E39.18786
G1 X57.887 Y92.195 E39.2179
G1 X58.391 Y91.446 E39.24793
G1 X58.959 Y90.744 E39.27797
G1 X59.588 Y90.095 E39.30803
G1 X60.271 Y89.504 E39.33807
G1 X61.004 Y88.976 E39.36811
G1 F1500 E32.86811
;MESH:P1-2X.stl
G0 F6000 X83.843 Y110.863
G0 X82.556 Y110.173
G0 X82.328 Y112.242
G0 X82.424 Y113.451
G0 X82.672 Y114.257
G0 X82.992 Y114.869
