;FLAVOR:Marlin
;TIME:4101
;Filament used: 2.92362m
;Layer height: 0.25
;MINX:75.23
;MINY:74.659
;MINZ:0.2
;MAXX:149.77
;MAXY:150.988
;MAXZ:14.2
;Generated with Cura_SteamEngine 4.12.0
M140 S60
M105
M190 S60
M104 S200
M105
M109 S200
M82 ;absolute extrusion mode
; Ender 3 Custom Start G-code
G92 E0 ; Reset Extruder
G28 ; Home all axes
G1 Z2.0 F3000 ; Move Z Axis up little to prevent scratching of Heat Bed
G1 X0.1 Y20 Z0.3 F5000.0 ; Move to start position
G1 X0.1 Y200.0 Z0.3 F1500.0 E15 ; Draw the first line
G1 X0.4 Y200.0 Z0.3 F5000.0 ; Move to side a little
G1 X0.4 Y20 Z0.3 F1500.0 E30 ; Draw the second line
G92 E0 ; Reset Extruder
G1 Z2.0 F3000 ; Move Z Axis up little to prevent scratching of Heat Bed
G1 X5 Y20 Z0.3 F5000.0 ; Move over to prevent blob squish
G92 E0
G92 E0
G1 F1500 E-6.5
;LAYER_COUNT:58
;LAYER:0
M107
G0 F6000 X80.454 Y82.747 Z0.2
;TYPE:SKIRT
G1 F1500 E0
G1 F1200 X81 Y82.251 E0.02453
G1 X81.223 Y82.053 E0.03445
G1 X81.752 Y81.598 E0.05766
G1 X82.488 Y81.018 E0.08883
G1 X83.459 Y80.392 E0.12725
G1 X83.7 Y80.254 E0.13649
G1 X84.018 Y80.079 E0.14856
G1 X84.662 Y79.74 E0.17277
G1 X85.325 Y79.405 E0.19747
G1 X86.18 Y79.018 E0.22869
G1 X86.737 Y78.811 E0.24845
G1 X87.221 Y78.646 E0.26546
G1 X87.412 Y78.583 E0.27215
G1 X88.613 Y78.198 E0.3141
G1 X89.518 Y77.95 E0.34531
G1 X90.411 Y77.784 E0.37552
G1 X91.64 Y77.608 E0.41681
G1 X91.873 Y77.564 E0.4247
G1 X93.134 Y77.387 E0.46705
G1 X109.106 Y74.907 E1.00465
G1 X109.998 Y74.782 E1.03461
G1 X111.319 Y74.679 E1.07868
G1 X112.532 Y74.659 E1.11903
G1 X112.704 Y74.659 E1.12475
G1 X113.534 Y74.67 E1.15235
G1 X114.838 Y74.767 E1.19585
G1 X115.892 Y74.909 E1.23122
G1 X116.111 Y74.941 E1.23858
G1 X132.282 Y77.452 E1.78287
G1 X134.443 Y77.759 E1.85547
G1 X135.527 Y77.969 E1.8922
G1 X135.791 Y78.034 E1.90124
G1 X136.612 Y78.271 E1.92966
G1 X137.26 Y78.485 E1.95236
G1 X138.133 Y78.769 E1.98289
G1 X139.012 Y79.096 E2.01409
G1 X139.558 Y79.345 E2.03404
G1 X139.861 Y79.493 E2.04526
G1 X140.166 Y79.648 E2.05664
G1 X140.715 Y79.939 E2.07731
G1 X141.214 Y80.211 E2.09621
G1 X142.04 Y80.709 E2.12829
G1 X142.24 Y80.842 E2.13628
G1 X143.34 Y81.678 E2.18223
G1 X143.876 Y82.141 E2.20579
G1 X144.09 Y82.331 E2.21531
G1 X144.603 Y82.798 E2.23838
G1 X145.269 Y83.458 E2.26956
G1 X146.022 Y84.364 E2.30875
G1 X146.185 Y84.583 E2.31783
G1 X146.407 Y84.892 E2.33048
G1 X146.81 Y85.477 E2.35411
G1 X147.208 Y86.073 E2.37795
G1 X147.695 Y86.875 E2.40915
G1 X148.222 Y87.97 E2.44957
G1 X148.331 Y88.233 E2.45904
G1 X148.435 Y88.495 E2.46842
G1 X148.674 Y89.12 E2.49067
G1 X148.914 Y89.78 E2.51403
G1 X149.193 Y90.662 E2.5448
G1 X149.222 Y90.769 E2.54849
G1 X149.491 Y92.069 E2.59264
G1 X149.542 Y92.421 E2.60447
G1 X149.576 Y92.678 E2.61309
G1 X149.638 Y93.196 E2.63044
G1 X149.704 Y93.798 E2.65059
G1 X149.768 Y94.812 E2.68438
G1 X149.77 Y94.931 E2.68834
G1 X149.714 Y96.242 E2.73198
G1 X149.625 Y97.107 E2.7609
G1 X149.581 Y97.474 E2.7732
G1 X149.504 Y98.036 E2.79206
G1 X149.458 Y98.339 E2.80226
G1 X149.22 Y99.77 E2.85051
G1 X149.207 Y99.84 E2.85287
G1 X148.829 Y102.328 E2.93657
G1 X148.522 Y104.816 E3.01995
G1 X148.286 Y107.319 E3.10357
G1 X148.12 Y109.836 E3.18747
G1 X148.025 Y112.361 E3.27151
G1 X148 Y114.489 E3.34229
G1 X147.999 Y117.927 E3.45664
G1 X147.989 Y118.648 E3.48063
G1 X147.936 Y119.584 E3.51181
G1 X147.803 Y120.512 E3.54299
G1 X147.592 Y121.426 E3.57419
G1 X147.304 Y122.319 E3.60539
G1 X146.941 Y123.183 E3.63656
G1 X146.505 Y124.014 E3.66778
G1 X146.001 Y124.804 E3.69894
G1 X145.43 Y125.549 E3.73016
G1 X144.799 Y126.242 E3.76134
G1 X144.143 Y126.851 E3.79111
G1 X143.118 Y127.727 E3.83595
G1 X141.235 Y129.381 E3.91931
G1 X139.386 Y131.099 E4.00326
G1 X137.581 Y132.875 E4.08748
G1 X135.849 Y134.678 E4.17064
G1 X134.157 Y136.542 E4.25437
G1 X132.506 Y138.467 E4.33871
G1 X130.945 Y140.396 E4.42125
G1 X129.747 Y141.982 E4.48736
G1 X128.902 Y143.086 E4.5336
G1 X128.077 Y144.044 E4.57565
G1 X127.502 Y144.639 E4.60317
G1 X127.184 Y144.959 E4.61817
G1 X126.597 Y145.53 E4.64541
G1 X125.897 Y146.154 E4.6766
G1 X125.402 Y146.536 E4.6974
G1 X124.61 Y147.11 E4.72993
G1 X124.247 Y147.363 E4.74465
G1 X123.68 Y147.747 E4.76742
G1 X122.882 Y148.239 E4.7986
G1 X122.335 Y148.525 E4.81913
G1 X121.414 Y148.973 E4.8532
G1 X121.068 Y149.132 E4.86586
G1 X120.459 Y149.406 E4.88807
G1 X119.588 Y149.754 E4.91927
G1 X118.957 Y149.955 E4.9413
G1 X118.163 Y150.181 E4.96875
G1 X117.917 Y150.248 E4.97723
G1 X117.07 Y150.468 E5.00634
G1 X116.153 Y150.665 E5.03753
G1 X115.489 Y150.757 E5.05983
G1 X114.408 Y150.874 E5.09599
G1 X114.026 Y150.909 E5.10875
G1 X113.328 Y150.96 E5.13203
G1 X112.39 Y150.988 E5.16324
G1 X111.744 Y150.961 E5.18475
G1 X110.724 Y150.887 E5.21876
G1 X110.36 Y150.855 E5.23091
G1 X109.672 Y150.785 E5.25392
G1 X108.743 Y150.65 E5.28514
G1 X108.104 Y150.509 E5.3069
G1 X107.152 Y150.269 E5.33956
G1 X106.768 Y150.165 E5.35279
G1 X106.126 Y149.984 E5.37498
G1 X105.235 Y149.692 E5.40616
G1 X104.616 Y149.437 E5.42843
G1 X103.823 Y149.082 E5.45733
G1 X103.476 Y148.921 E5.47005
G1 X102.744 Y148.568 E5.49708
G1 X101.918 Y148.125 E5.52825
G1 X101.36 Y147.771 E5.55023
G1 X100.534 Y147.21 E5.58344
G1 X100.249 Y147.01 E5.59502
G1 X99.677 Y146.598 E5.61847
G1 X98.94 Y146.018 E5.64966
G1 X98.45 Y145.571 E5.67172
G1 X97.801 Y144.942 E5.70178
G1 X97.59 Y144.731 E5.71171
G1 X96.988 Y144.115 E5.74035
G1 X96.158 Y143.162 E5.78239
G1 X95.943 Y142.881 E5.79415
G1 X94.623 Y141.115 E5.86749
G1 X93.053 Y139.135 E5.95153
G1 X91.449 Y137.225 E6.03449
G1 X89.76 Y135.327 E6.11899
G1 X88.034 Y133.492 E6.20278
G1 X86.266 Y131.719 E6.28606
G1 X84.434 Y129.98 E6.37007
G1 X82.551 Y128.293 E6.45416
G1 X80.882 Y126.873 E6.52704
G1 X80.194 Y126.235 E6.55825
G1 X79.563 Y125.542 E6.58942
G1 X78.994 Y124.796 E6.62063
G1 X78.49 Y124.005 E6.65183
G1 X78.055 Y123.174 E6.68302
G1 X77.693 Y122.309 E6.71421
G1 X77.405 Y121.417 E6.74539
G1 X77.195 Y120.503 E6.77658
G1 X77.063 Y119.574 E6.80779
G1 X77.015 Y118.833 E6.83248
G1 X77.005 Y118.508 E6.8433
G1 X77 Y118.17 E6.85454
G1 X77 Y114.512 E6.97621
G1 X76.963 Y111.904 E7.06296
G1 X76.856 Y109.382 E7.14692
G1 X76.679 Y106.887 E7.23011
G1 X76.431 Y104.388 E7.31364
G1 X76.113 Y101.899 E7.39709
G1 X75.699 Y99.263 E7.48584
G1 X75.612 Y98.759 E7.50285
G1 X75.554 Y98.379 E7.51564
G1 X75.364 Y96.984 E7.56246
G1 X75.329 Y96.698 E7.57205
G1 X75.296 Y96.397 E7.58212
G1 X75.232 Y95.389 E7.61571
G1 X75.23 Y95.274 E7.61954
G1 X75.286 Y93.956 E7.66341
G1 X75.375 Y93.092 E7.6923
G1 X75.42 Y92.715 E7.70493
G1 X75.498 Y92.15 E7.7239
G1 X75.666 Y91.227 E7.7551
G1 X76.03 Y89.971 E7.7986
G1 X76.37 Y89.014 E7.83238
G1 X76.503 Y88.66 E7.84495
G1 X76.707 Y88.143 E7.86344
G1 X77.088 Y87.286 E7.89463
G1 X77.541 Y86.464 E7.92585
G1 X77.794 Y86.067 E7.94151
G1 X78.167 Y85.509 E7.96383
G1 X78.323 Y85.281 E7.97302
G1 X78.596 Y84.894 E7.98877
G1 X78.852 Y84.546 E8.00314
G1 X79.117 Y84.2 E8.01764
G1 X79.719 Y83.481 E8.04883
G1 X80.454 Y82.747 E8.08338
G0 F6000 X80.723 Y83.043
G1 F1200 X81.269 Y82.547 E8.10791
G1 X81.484 Y82.357 E8.11745
G1 X82.013 Y81.902 E8.14066
G1 X82.736 Y81.332 E8.17128
G1 X83.658 Y80.739 E8.20774
G1 X83.899 Y80.601 E8.21698
G1 X84.205 Y80.432 E8.22861
G1 X84.662 Y80.19 E8.24581
G1 X85.506 Y79.762 E8.27728
G1 X86.345 Y79.383 E8.3079
G1 X86.866 Y79.19 E8.32638
G1 X87.534 Y78.964 E8.34984
G1 X88.735 Y78.579 E8.39178
G1 X89.623 Y78.336 E8.4224
G1 X90.468 Y78.18 E8.45098
G1 X91.609 Y78.017 E8.48932
G1 X91.929 Y77.961 E8.50012
G1 X93.175 Y77.786 E8.54197
G1 X109.334 Y75.278 E9.08586
G1 X110.053 Y75.178 E9.11
G1 X111.326 Y75.079 E9.15247
G1 X112.532 Y75.059 E9.19259
G1 X112.704 Y75.059 E9.19831
G1 X113.528 Y75.07 E9.22572
G1 X114.784 Y75.164 E9.26761
G1 X115.838 Y75.306 E9.30298
G1 X116.05 Y75.337 E9.31011
G1 X132.168 Y77.84 E9.85262
G1 X134.387 Y78.155 E9.92716
G1 X135.431 Y78.357 E9.96253
G1 X135.695 Y78.422 E9.97157
G1 X136.487 Y78.65 E9.99899
G1 X137.183 Y78.88 E10.02337
G1 X138.009 Y79.149 E10.05226
G1 X138.871 Y79.472 E10.08288
G1 X139.382 Y79.704 E10.10154
G1 X139.685 Y79.852 E10.11276
G1 X139.979 Y80.002 E10.12374
G1 X140.523 Y80.29 E10.14421
G1 X141.022 Y80.562 E10.16311
G1 X141.819 Y81.042 E10.19406
G1 X142.019 Y81.175 E10.20204
G1 X143.078 Y81.98 E10.24629
G1 X143.614 Y82.443 E10.26984
G1 X143.821 Y82.626 E10.27903
G1 X144.334 Y83.093 E10.30211
G1 X144.987 Y83.742 E10.33273
G1 X145.701 Y84.603 E10.36993
G1 X145.864 Y84.822 E10.37901
G1 X146.078 Y85.119 E10.39119
G1 X146.379 Y85.554 E10.40878
G1 X146.875 Y86.295 E10.43844
G1 X147.353 Y87.082 E10.46906
G1 X147.852 Y88.124 E10.50749
G1 X147.961 Y88.387 E10.51696
G1 X148.062 Y88.638 E10.52596
G1 X148.229 Y89.072 E10.54142
G1 X148.538 Y89.917 E10.57135
G1 X148.807 Y90.766 E10.60097
G1 X148.836 Y90.873 E10.60466
G1 X149.095 Y92.126 E10.64721
G1 X149.146 Y92.478 E10.65904
G1 X149.179 Y92.726 E10.66737
G1 X149.241 Y93.24 E10.68459
G1 X149.307 Y93.842 E10.70473
G1 X149.369 Y94.819 E10.73729
G1 X149.371 Y94.938 E10.74125
G1 X149.316 Y96.201 E10.78329
G1 X149.227 Y97.066 E10.81222
G1 X149.185 Y97.42 E10.82407
G1 X149.108 Y97.982 E10.84294
G1 X149.064 Y98.273 E10.85273
G1 X148.827 Y99.698 E10.90077
G1 X148.813 Y99.774 E10.90335
G1 X148.431 Y102.291 E10.98802
G1 X148.126 Y104.762 E11.07083
G1 X147.887 Y107.292 E11.15535
G1 X147.722 Y109.796 E11.23882
G1 X147.625 Y112.381 E11.32485
G1 X147.6 Y114.484 E11.3948
G1 X147.599 Y117.921 E11.50912
G1 X147.589 Y118.642 E11.5331
G1 X147.536 Y119.561 E11.56372
G1 X147.404 Y120.472 E11.59434
G1 X147.193 Y121.368 E11.62495
G1 X146.905 Y122.243 E11.65559
G1 X146.543 Y123.089 E11.6862
G1 X146.108 Y123.901 E11.71684
G1 X145.605 Y124.672 E11.74745
G1 X145.036 Y125.396 E11.77808
G1 X144.407 Y126.068 E11.80869
G1 X143.883 Y126.547 E11.83231
G1 X142.869 Y127.415 E11.8767
G1 X140.963 Y129.088 E11.96105
G1 X139.098 Y130.821 E12.04573
G1 X137.313 Y132.577 E12.12901
G1 X135.562 Y134.399 E12.21306
G1 X133.856 Y136.278 E12.29747
G1 X132.193 Y138.218 E12.38246
G1 X130.638 Y140.138 E12.46463
G1 X129.429 Y141.739 E12.53136
G1 X128.584 Y142.843 E12.5776
G1 X127.789 Y143.766 E12.61812
G1 X127.087 Y144.49 E12.65166
G1 X126.787 Y144.789 E12.66575
G1 X126.319 Y145.243 E12.68743
G1 X125.631 Y145.855 E12.71806
G1 X125.167 Y146.212 E12.73753
G1 X124.379 Y146.783 E12.7699
G1 X124.023 Y147.032 E12.78435
G1 X123.456 Y147.416 E12.80712
G1 X122.672 Y147.898 E12.83773
G1 X122.16 Y148.166 E12.85696
G1 X121.42 Y148.527 E12.88434
G1 X121.028 Y148.711 E12.89874
G1 X120.295 Y149.042 E12.92549
G1 X119.44 Y149.383 E12.95611
G1 X118.848 Y149.57 E12.97676
G1 X118.054 Y149.796 E13.00422
G1 X117.817 Y149.861 E13.01239
G1 X116.97 Y150.081 E13.0415
G1 X116.07 Y150.273 E13.0721
G1 X115.446 Y150.359 E13.09305
G1 X114.365 Y150.476 E13.12922
G1 X113.996 Y150.51 E13.14154
G1 X113.298 Y150.561 E13.16482
G1 X112.378 Y150.588 E13.19543
G1 X111.773 Y150.562 E13.21557
G1 X110.759 Y150.489 E13.24939
G1 X110.4 Y150.457 E13.26137
G1 X109.712 Y150.387 E13.28438
G1 X108.801 Y150.254 E13.315
G1 X108.202 Y150.121 E13.3354
G1 X107.255 Y149.882 E13.36789
G1 X106.877 Y149.78 E13.38091
G1 X106.235 Y149.599 E13.4031
G1 X105.36 Y149.311 E13.43374
G1 X104.78 Y149.072 E13.4546
G1 X103.82 Y148.641 E13.4896
G1 X103.533 Y148.505 E13.50016
G1 X102.918 Y148.208 E13.52288
G1 X102.107 Y147.772 E13.5535
G1 X101.584 Y147.44 E13.57411
G1 X100.763 Y146.882 E13.60712
G1 X100.483 Y146.685 E13.61851
G1 X99.911 Y146.273 E13.64196
G1 X99.188 Y145.703 E13.67258
G1 X98.729 Y145.284 E13.69325
G1 X98.08 Y144.655 E13.72331
G1 X97.876 Y144.452 E13.73288
G1 X97.274 Y143.836 E13.76153
G1 X96.474 Y142.917 E13.80205
G1 X96.263 Y142.642 E13.81358
G1 X94.941 Y140.873 E13.88703
G1 X93.357 Y138.876 E13.97181
G1 X91.738 Y136.948 E14.05555
G1 X90.05 Y135.051 E14.14
G1 X88.343 Y133.237 E14.22285
G1 X86.541 Y131.429 E14.30775
G1 X84.712 Y129.693 E14.39163
G1 X82.791 Y127.972 E14.47741
G1 X81.141 Y126.568 E14.54947
G1 X80.467 Y125.942 E14.58006
G1 X79.849 Y125.259 E14.6107
G1 X79.293 Y124.526 E14.6413
G1 X78.802 Y123.746 E14.67195
G1 X78.381 Y122.928 E14.70255
G1 X78.033 Y122.075 E14.73319
G1 X77.76 Y121.196 E14.7638
G1 X77.564 Y120.297 E14.79441
G1 X77.447 Y119.383 E14.82506
G1 X77.415 Y118.821 E14.84378
G1 X77.405 Y118.496 E14.85459
G1 X77.4 Y118.17 E14.86544
G1 X77.4 Y114.506 E14.9873
G1 X77.363 Y111.881 E15.07462
G1 X77.256 Y109.373 E15.15811
G1 X77.078 Y106.852 E15.24217
G1 X76.828 Y104.334 E15.32633
G1 X76.507 Y101.823 E15.41053
G1 X76.108 Y99.284 E15.49601
G1 X76.006 Y98.691 E15.51602
G1 X75.95 Y98.325 E15.52834
G1 X75.76 Y96.93 E15.57516
G1 X75.726 Y96.654 E15.58441
G1 X75.693 Y96.353 E15.59448
G1 X75.632 Y95.382 E15.62684
G1 X75.63 Y95.267 E15.63067
G1 X75.684 Y93.997 E15.67295
G1 X75.773 Y93.133 E15.70184
G1 X75.817 Y92.769 E15.71403
G1 X75.895 Y92.204 E15.733
G1 X76.06 Y91.299 E15.7636
G1 X76.407 Y90.105 E15.80495
G1 X76.747 Y89.148 E15.83873
G1 X76.875 Y88.806 E15.85088
G1 X77.079 Y88.289 E15.86936
G1 X77.454 Y87.448 E15.89999
G1 X78.127 Y86.289 E15.94457
G1 X78.5 Y85.731 E15.96689
G1 X78.65 Y85.512 E15.97572
G1 X78.923 Y85.125 E15.99147
G1 X79.17 Y84.79 E16.00531
G1 X79.435 Y84.444 E16.01981
G1 X80.026 Y83.738 E16.05043
G1 X80.723 Y83.043 E16.08317
G0 F6000 X80.991 Y83.339
G1 F1200 X81.537 Y82.843 E16.1077
G1 X81.745 Y82.66 E16.11692
G1 X82.274 Y82.205 E16.14013
G1 X82.984 Y81.647 E16.17016
G1 X83.856 Y81.086 E16.20465
G1 X84.097 Y80.948 E16.21389
G1 X84.393 Y80.786 E16.22511
G1 X85.023 Y80.454 E16.24879
G1 X85.686 Y80.119 E16.2735
G1 X86.509 Y79.748 E16.30353
G1 X86.995 Y79.569 E16.32075
G1 X87.656 Y79.345 E16.34396
G1 X88.857 Y78.96 E16.38591
G1 X89.729 Y78.723 E16.41597
G1 X90.525 Y78.576 E16.44289
G1 X91.817 Y78.391 E16.4863
G1 X91.984 Y78.357 E16.49197
G1 X93.236 Y78.182 E16.53402
G1 X109.389 Y75.674 E17.0777
G1 X110.108 Y75.574 E17.10185
G1 X111.333 Y75.479 E17.14271
G1 X112.532 Y75.459 E17.1826
G1 X112.704 Y75.459 E17.18832
G1 X113.522 Y75.47 E17.21553
G1 X114.731 Y75.56 E17.25585
G1 X115.785 Y75.702 E17.29122
G1 X115.988 Y75.732 E17.29805
G1 X132.117 Y78.237 E17.84093
G1 X134.331 Y78.551 E17.91531
G1 X135.336 Y78.746 E17.94936
G1 X135.6 Y78.811 E17.9584
G1 X136.361 Y79.03 E17.98474
G1 X137.012 Y79.245 E18.00754
G1 X137.885 Y79.529 E18.03808
G1 X138.731 Y79.846 E18.06812
G1 X139.207 Y80.064 E18.08554
G1 X139.51 Y80.212 E18.09675
G1 X139.793 Y80.356 E18.10731
G1 X140.332 Y80.641 E18.12759
G1 X140.831 Y80.913 E18.1465
G1 X141.597 Y81.376 E18.17627
G1 X141.797 Y81.509 E18.18425
G1 X142.817 Y82.283 E18.22684
G1 X143.353 Y82.746 E18.2504
G1 X143.551 Y82.922 E18.25921
G1 X144.064 Y83.389 E18.28228
G1 X144.705 Y84.026 E18.31234
G1 X145.38 Y84.842 E18.34756
G1 X145.543 Y85.061 E18.35664
G1 X145.749 Y85.347 E18.36837
G1 X146.145 Y85.921 E18.39156
G1 X146.543 Y86.517 E18.4154
G1 X147.01 Y87.29 E18.44543
G1 X147.483 Y88.277 E18.48184
G1 X147.592 Y88.54 E18.49131
G1 X147.689 Y88.782 E18.49998
G1 X147.922 Y89.393 E18.52173
G1 X148.162 Y90.053 E18.54508
G1 X148.421 Y90.871 E18.57362
G1 X148.45 Y90.978 E18.57731
G1 X148.7 Y92.183 E18.61824
G1 X148.751 Y92.535 E18.63007
G1 X148.83 Y93.171 E18.65139
G1 X148.909 Y93.885 E18.67528
G1 X148.969 Y94.826 E18.70664
G1 X148.971 Y94.945 E18.7106
G1 X148.918 Y96.16 E18.75105
G1 X148.829 Y97.025 E18.77997
G1 X148.789 Y97.366 E18.79139
G1 X148.712 Y97.928 E18.81026
G1 X148.669 Y98.208 E18.81968
G1 X148.433 Y99.626 E18.86749
G1 X148.418 Y99.707 E18.87023
G1 X148.036 Y102.218 E18.95471
G1 X147.729 Y104.712 E19.03828
G1 X147.488 Y107.261 E19.12344
G1 X147.322 Y109.79 E19.20774
G1 X147.225 Y112.361 E19.29331
G1 X147.2 Y114.442 E19.36253
G1 X147.199 Y117.915 E19.47804
G1 X147.189 Y118.636 E19.50203
G1 X147.137 Y119.538 E19.53208
G1 X147.004 Y120.431 E19.56211
G1 X146.794 Y121.31 E19.59216
G1 X146.507 Y122.166 E19.62219
G1 X146.145 Y122.993 E19.65222
G1 X145.711 Y123.785 E19.68226
G1 X145.209 Y124.536 E19.7123
G1 X144.642 Y125.239 E19.74234
G1 X144.016 Y125.89 E19.77238
G1 X143.623 Y126.244 E19.78997
G1 X142.583 Y127.133 E19.83548
G1 X140.692 Y128.793 E19.91917
G1 X138.846 Y130.509 E20.003
G1 X137.009 Y132.316 E20.0887
G1 X135.263 Y134.133 E20.17251
G1 X133.539 Y136.032 E20.25782
G1 X131.894 Y137.951 E20.34189
G1 X130.332 Y139.881 E20.42447
G1 X129.112 Y141.496 E20.49179
