;FLAVOR:Marlin
;TIME:8110
;Filament used: 7.07024m
;Layer height: 0.25
;MINX:55.791
;MINY:79.5
;MINZ:0.2
;MAXX:169.744
;MAXY:194.943
;MAXZ:2.95
;Generated with Cura_SteamEngine 4.12.0
M140 S60
M105
M190 S60
M104 S200
M105
M109 S200
M82 ;absolute extrusion mode
; Ender 3 Custom Start G-code
G92 E0 ; Reset Extruder
G28 ; Home all axes
G1 Z2.0 F3000 ; Move Z Axis up little to prevent scratching of Heat Bed
G1 X0.1 Y20 Z0.3 F5000.0 ; Move to start position
G1 X0.1 Y200.0 Z0.3 F1500.0 E15 ; Draw the first line
G1 X0.4 Y200.0 Z0.3 F5000.0 ; Move to side a little
G1 X0.4 Y20 Z0.3 F1500.0 E30 ; Draw the second line
G92 E0 ; Reset Extruder
G1 Z2.0 F3000 ; Move Z Axis up little to prevent scratching of Heat Bed
G1 X5 Y20 Z0.3 F5000.0 ; Move over to prevent blob squish
G92 E0
G92 E0
G1 F1500 E-6.5
;LAYER_COUNT:12
;LAYER:0
M107
G0 F6000 X61.842 Y82.51 Z0.2
;TYPE:SKIRT
G1 F1500 E0
G1 F1200 X62.643 Y81.932 E0.03285
G1 X62.733 Y81.873 E0.03643
G1 X63.531 Y81.397 E0.06734
G1 X63.788 Y81.258 E0.07706
G1 X64.102 Y81.094 E0.08884
G1 X64.202 Y81.044 E0.09256
G1 X65.065 Y80.658 E0.124
G1 X65.491 Y80.489 E0.13924
G1 X66.376 Y80.181 E0.17041
G1 X67.136 Y79.982 E0.19654
G1 X67.857 Y79.82 E0.22112
G1 X68.27 Y79.735 E0.23514
G1 X69.581 Y79.565 E0.27911
G1 X69.959 Y79.539 E0.29171
G1 X70.268 Y79.522 E0.30201
G1 X70.416 Y79.516 E0.30693
G1 X70.729 Y79.508 E0.31735
G1 X71.44 Y79.5 E0.341
G1 X153.502 Y79.5 E3.07039
G1 X154.358 Y79.511 E3.09886
G1 X154.984 Y79.538 E3.1197
G1 X155.264 Y79.558 E3.12904
G1 X155.736 Y79.602 E3.14481
G1 X156.258 Y79.662 E3.16228
G1 X157.184 Y79.809 E3.19347
G1 X158.095 Y80.034 E3.22468
G1 X158.525 Y80.16 E3.23958
G1 X158.841 Y80.258 E3.25058
G1 X159.114 Y80.347 E3.26014
G1 X159.993 Y80.675 E3.29134
G1 X160.584 Y80.946 E3.31296
G1 X161.073 Y81.188 E3.33111
G1 X161.552 Y81.44 E3.34911
G1 X162.353 Y81.927 E3.38029
G1 X163.047 Y82.431 E3.40882
G1 X163.578 Y82.849 E3.4313
G1 X163.845 Y83.066 E3.44274
G1 X164.162 Y83.332 E3.4565
G1 X164.854 Y83.965 E3.4877
G1 X165.657 Y84.857 E3.52762
G1 X165.889 Y85.145 E3.53992
G1 X166.08 Y85.389 E3.55022
G1 X166.324 Y85.71 E3.56363
G1 X166.859 Y86.481 E3.59484
G1 X167.224 Y87.1 E3.61875
G1 X167.524 Y87.65 E3.63958
G1 X167.937 Y88.491 E3.67075
G1 X168.301 Y89.433 E3.70433
G1 X168.486 Y89.987 E3.72376
G1 X168.594 Y90.329 E3.73569
G1 X168.656 Y90.537 E3.74291
G1 X168.885 Y91.446 E3.77409
G1 X169.04 Y92.405 E3.8064
G1 X169.097 Y92.894 E3.82277
G1 X169.132 Y93.241 E3.83437
G1 X169.16 Y93.572 E3.84542
G1 X169.196 Y94.225 E3.86717
G1 X169.206 Y94.627 E3.88055
G1 X169.209 Y94.901 E3.88966
G1 X169.208 Y129.924 E5.05453
G1 X169.18 Y131.879 E5.11956
G1 X169.18 Y134.455 E5.20524
G1 X169.251 Y137.005 E5.29008
G1 X169.391 Y139.467 E5.3721
G1 X169.694 Y143.002 E5.49011
G1 X169.731 Y143.668 E5.51229
G1 X169.741 Y144.069 E5.52564
G1 X169.744 Y144.343 E5.53475
G1 X169.743 Y179.393 E6.70052
G1 X169.733 Y180.091 E6.72373
G1 X169.707 Y180.702 E6.74408
G1 X169.688 Y180.973 E6.75311
G1 X169.646 Y181.43 E6.76837
G1 X169.587 Y181.956 E6.78598
G1 X169.443 Y182.883 E6.81718
G1 X169.205 Y183.847 E6.85021
G1 X169.067 Y184.314 E6.8664
G1 X168.974 Y184.613 E6.87682
G1 X168.892 Y184.864 E6.8856
G1 X168.563 Y185.742 E6.91679
G1 X168.279 Y186.359 E6.93938
G1 X168.034 Y186.85 E6.95763
G1 X167.58 Y187.671 E6.98883
G1 X166.999 Y188.528 E7.02327
G1 X166.533 Y189.151 E7.04914
G1 X165.975 Y189.838 E7.07858
G1 X165.833 Y189.999 E7.08572
G1 X165.183 Y190.675 E7.11691
G1 X164.652 Y191.151 E7.14063
G1 X164.317 Y191.432 E7.15517
G1 X164.096 Y191.612 E7.16465
G1 X163.69 Y191.935 E7.18191
G1 X162.932 Y192.487 E7.2131
G1 X162.105 Y192.986 E7.24522
G1 X161.67 Y193.223 E7.2617
G1 X161.362 Y193.385 E7.27327
G1 X161.251 Y193.441 E7.27741
G1 X160.396 Y193.827 E7.30861
G1 X159.811 Y194.043 E7.32935
G1 X159.556 Y194.129 E7.3383
G1 X159.161 Y194.254 E7.35208
G1 X158.681 Y194.396 E7.36873
G1 X157.772 Y194.624 E7.3999
G1 X156.835 Y194.774 E7.43146
G1 X156.346 Y194.831 E7.44784
G1 X156.01 Y194.865 E7.45907
G1 X155.683 Y194.893 E7.46999
G1 X155.019 Y194.93 E7.4921
G1 X154.618 Y194.94 E7.50545
G1 X154.344 Y194.943 E7.51456
G1 X71.862 Y194.941 E10.25792
G1 X71.061 Y194.93 E10.28457
G1 X70.515 Y194.909 E10.30274
G1 X70.263 Y194.893 E10.31114
G1 X68.945 Y194.729 E10.35531
G1 X68.376 Y194.623 E10.37456
G1 X67.998 Y194.545 E10.3874
G1 X67.841 Y194.51 E10.39275
G1 X66.637 Y194.169 E10.43437
G1 X66.218 Y194.024 E10.44912
G1 X64.943 Y193.491 E10.49508
G1 X64.443 Y193.244 E10.51363
G1 X63.727 Y192.857 E10.5407
G1 X63.688 Y192.834 E10.54221
G1 X62.901 Y192.324 E10.5734
G1 X62.468 Y191.999 E10.5914
G1 X61.973 Y191.609 E10.61236
G1 X61.707 Y191.392 E10.62378
G1 X61.426 Y191.156 E10.63599
G1 X60.679 Y190.468 E10.66976
G1 X60.589 Y190.377 E10.67402
G1 X59.972 Y189.699 E10.70451
G1 X59.834 Y189.534 E10.71167
G1 X59.509 Y189.127 E10.72899
G1 X59.188 Y188.704 E10.74665
G1 X58.654 Y187.933 E10.77784
G1 X58.291 Y187.316 E10.80165
G1 X58.029 Y186.835 E10.81987
G1 X57.83 Y186.452 E10.83423
G1 X57.447 Y185.596 E10.86542
G1 X57.129 Y184.682 E10.8976
G1 X56.93 Y184.016 E10.92072
G1 X56.827 Y183.646 E10.9335
G1 X56.745 Y183.332 E10.94429
G1 X56.547 Y182.416 E10.97546
G1 X56.463 Y181.838 E10.99489
G1 X56.441 Y181.651 E11.00115
G1 X56.395 Y181.159 E11.01759
G1 X56.364 Y180.73 E11.03189
G1 X56.336 Y180.084 E11.0534
G1 X56.326 Y179.262 E11.08074
G1 X56.327 Y144.47 E12.23793
G1 X56.353 Y142.609 E12.29983
G1 X56.353 Y140.002 E12.38654
G1 X56.281 Y137.507 E12.46956
G1 X56.139 Y134.986 E12.55354
G1 X55.965 Y132.873 E12.62406
G1 X55.882 Y131.987 E12.65365
G1 X55.863 Y131.757 E12.66133
G1 X55.829 Y131.286 E12.67703
G1 X55.801 Y130.641 E12.69851
G1 X55.791 Y129.819 E12.72585
G1 X55.792 Y95.051 E13.88224
G1 X55.802 Y94.344 E13.90576
G1 X55.829 Y93.722 E13.92646
G1 X55.85 Y93.426 E13.93633
G1 X55.876 Y93.113 E13.94678
G1 X55.908 Y92.792 E13.95751
G1 X56.041 Y91.863 E13.98872
G1 X56.182 Y91.215 E14.01078
G1 X56.261 Y90.899 E14.02161
G1 X56.377 Y90.473 E14.0363
G1 X56.547 Y89.893 E14.0564
G1 X56.849 Y89.005 E14.0876
G1 X57.254 Y88.089 E14.12091
G1 X57.441 Y87.713 E14.13487
G1 X57.756 Y87.124 E14.15709
G1 X57.878 Y86.912 E14.16523
G1 X58.638 Y85.765 E14.21099
G1 X58.917 Y85.396 E14.22638
G1 X59.123 Y85.131 E14.23754
G1 X59.338 Y84.864 E14.24894
G1 X59.957 Y84.159 E14.28014
G1 X60.822 Y83.348 E14.31958
G1 X61.296 Y82.949 E14.34019
G1 X61.548 Y82.743 E14.35102
G1 X61.842 Y82.51 E14.36349
G0 F6000 X62.09 Y82.824
G1 F1200 X62.863 Y82.266 E14.3952
G1 X62.953 Y82.207 E14.39878
G1 X63.721 Y81.748 E14.42854
G1 X63.978 Y81.609 E14.43826
G1 X64.381 Y81.402 E14.45333
G1 X65.212 Y81.03 E14.48361
G1 X65.638 Y80.861 E14.49885
G1 X66.508 Y80.559 E14.52948
G1 X67.223 Y80.372 E14.55406
G1 X67.944 Y80.21 E14.57864
G1 X68.346 Y80.128 E14.59229
G1 X69.609 Y79.964 E14.63465
G1 X69.987 Y79.938 E14.64725
G1 X70.433 Y79.916 E14.6621
G1 X70.734 Y79.908 E14.67211
G1 X71.44 Y79.9 E14.6956
G1 X153.502 Y79.9 E17.42499
G1 X154.352 Y79.911 E17.45326
G1 X154.955 Y79.937 E17.47334
G1 X155.235 Y79.957 E17.48268
G1 X155.69 Y79.999 E17.49787
G1 X156.212 Y80.059 E17.51535
G1 X157.122 Y80.204 E17.546
G1 X157.983 Y80.418 E17.57551
G1 X158.413 Y80.544 E17.59041
G1 X158.717 Y80.638 E17.60099
G1 X158.99 Y80.727 E17.61054
G1 X159.853 Y81.05 E17.64119
G1 X160.407 Y81.305 E17.66148
G1 X160.896 Y81.547 E17.67962
G1 X161.359 Y81.79 E17.69701
G1 X162.145 Y82.269 E17.72763
G1 X162.8 Y82.745 E17.75456
G1 X163.331 Y83.163 E17.77704
G1 X163.588 Y83.372 E17.78805
G1 X163.905 Y83.638 E17.80182
G1 X164.584 Y84.26 E17.83244
G1 X165.346 Y85.108 E17.87036
G1 X165.578 Y85.396 E17.88266
G1 X165.762 Y85.631 E17.89259
G1 X166.006 Y85.952 E17.906
G1 X166.531 Y86.709 E17.93664
G1 X166.873 Y87.291 E17.95909
G1 X167.173 Y87.841 E17.97993
G1 X167.578 Y88.668 E18.01056
G1 X167.921 Y89.56 E18.04234
G1 X168.106 Y90.114 E18.06177
G1 X168.21 Y90.443 E18.07325
G1 X168.272 Y90.651 E18.08047
G1 X168.497 Y91.544 E18.11109
G1 X168.643 Y92.452 E18.14168
G1 X168.7 Y92.941 E18.15806
G1 X168.733 Y93.275 E18.16922
G1 X168.761 Y93.606 E18.18027
G1 X168.796 Y94.235 E18.20122
G1 X168.806 Y94.637 E18.2146
G1 X168.809 Y94.901 E18.22338
G1 X168.808 Y129.918 E19.38805
G1 X168.78 Y131.873 E19.45308
G1 X168.78 Y134.466 E19.53932
G1 X168.851 Y137.003 E19.62374
G1 X168.994 Y139.524 E19.70772
G1 X169.295 Y143.036 E19.82496
G1 X169.331 Y143.678 E19.84634
G1 X169.341 Y144.079 E19.85969
G1 X169.344 Y144.343 E19.86847
G1 X169.343 Y179.387 E21.03403
G1 X169.333 Y180.085 E21.05725
G1 X169.308 Y180.674 E21.07686
G1 X169.289 Y180.945 E21.0859
G1 X169.249 Y181.386 E21.10062
G1 X169.19 Y181.912 E21.11823
G1 X169.048 Y182.821 E21.14883
G1 X168.821 Y183.734 E21.18012
G1 X168.683 Y184.201 E21.19632
G1 X168.594 Y184.489 E21.20634
G1 X168.512 Y184.74 E21.21512
G1 X168.188 Y185.602 E21.24575
G1 X167.921 Y186.181 E21.26696
G1 X167.676 Y186.672 E21.28521
G1 X167.229 Y187.477 E21.31584
G1 X166.679 Y188.288 E21.34843
G1 X166.213 Y188.911 E21.3743
G1 X165.675 Y189.574 E21.4027
G1 X165.533 Y189.735 E21.40984
G1 X164.894 Y190.398 E21.44047
G1 X164.395 Y190.844 E21.46273
G1 X164.06 Y191.125 E21.47727
G1 X163.847 Y191.299 E21.48642
G1 X163.441 Y191.622 E21.50367
G1 X162.697 Y192.163 E21.53427
G1 X161.913 Y192.635 E21.56471
G1 X161.478 Y192.872 E21.58118
G1 X161.182 Y193.028 E21.59231
G1 X161.071 Y193.084 E21.59645
G1 X160.231 Y193.462 E21.62708
G1 X159.683 Y193.664 E21.64651
G1 X159.428 Y193.75 E21.65546
G1 X159.048 Y193.871 E21.66872
G1 X158.568 Y194.013 E21.68537
G1 X157.675 Y194.235 E21.71598
G1 X156.788 Y194.377 E21.74586
G1 X156.299 Y194.434 E21.76223
G1 X155.976 Y194.466 E21.77303
G1 X155.649 Y194.494 E21.78394
G1 X155.009 Y194.53 E21.80526
G1 X154.608 Y194.54 E21.8186
G1 X154.344 Y194.543 E21.82738
G1 X71.867 Y194.541 E24.57058
G1 X71.066 Y194.53 E24.59723
G1 X70.54 Y194.51 E24.61473
G1 X70.288 Y194.494 E24.62313
G1 X69.019 Y194.336 E24.66566
G1 X68.45 Y194.23 E24.68491
G1 X68.085 Y194.155 E24.69731
G1 X67.928 Y194.12 E24.70266
G1 X66.767 Y193.791 E24.74279
G1 X66.348 Y193.646 E24.75754
G1 X65.12 Y193.133 E24.8018
G1 X64.62 Y192.886 E24.82035
G1 X63.93 Y192.512 E24.84646
G1 X63.891 Y192.489 E24.84796
G1 X63.119 Y191.988 E24.87857
G1 X62.716 Y191.685 E24.89534
G1 X62.221 Y191.295 E24.9163
G1 X61.964 Y191.086 E24.92732
G1 X61.683 Y190.85 E24.93953
G1 X60.963 Y190.187 E24.97208
G1 X60.873 Y190.096 E24.97634
G1 X60.279 Y189.442 E25.00572
G1 X60.141 Y189.277 E25.01288
G1 X59.828 Y188.885 E25.02956
G1 X59.507 Y188.462 E25.04722
G1 X58.983 Y187.705 E25.07784
G1 X58.642 Y187.124 E25.10025
G1 X58.38 Y186.643 E25.11847
G1 X58.188 Y186.273 E25.13233
G1 X57.812 Y185.433 E25.16294
G1 X57.513 Y184.568 E25.19338
G1 X57.314 Y183.902 E25.2165
G1 X57.214 Y183.545 E25.22883
G1 X57.132 Y183.231 E25.23962
G1 X56.938 Y182.331 E25.27025
G1 X56.861 Y181.792 E25.28836
G1 X56.839 Y181.605 E25.29462
G1 X56.794 Y181.13 E25.31049
G1 X56.763 Y180.701 E25.32479
G1 X56.736 Y180.078 E25.34553
G1 X56.726 Y179.262 E25.37268
G1 X56.727 Y144.476 E26.52966
G1 X56.753 Y142.615 E26.59157
G1 X56.753 Y140.026 E26.67768
G1 X56.68 Y137.471 E26.76269
G1 X56.536 Y134.934 E26.84721
G1 X56.374 Y132.957 E26.91318
G1 X56.28 Y131.95 E26.94682
G1 X56.228 Y131.257 E26.96994
G1 X56.201 Y130.635 E26.99064
G1 X56.191 Y129.819 E27.01779
G1 X56.192 Y95.057 E28.17397
G1 X56.202 Y94.35 E28.19749
G1 X56.228 Y93.75 E28.21747
G1 X56.249 Y93.454 E28.22734
G1 X56.274 Y93.153 E28.23738
G1 X56.306 Y92.832 E28.24811
G1 X56.437 Y91.92 E28.27876
G1 X56.57 Y91.312 E28.29946
G1 X56.649 Y90.996 E28.31029
G1 X56.761 Y90.586 E28.32443
G1 X56.931 Y90.006 E28.34453
G1 X57.228 Y89.134 E28.37517
G1 X57.612 Y88.267 E28.40671
G1 X57.799 Y87.891 E28.42067
G1 X58.103 Y87.324 E28.44207
G1 X58.225 Y87.112 E28.45021
G1 X58.957 Y86.006 E28.49432
G1 X59.236 Y85.637 E28.50971
G1 X59.435 Y85.382 E28.52046
G1 X59.65 Y85.115 E28.53187
G1 X60.258 Y84.424 E28.56248
G1 X61.08 Y83.654 E28.59994
G1 X61.554 Y83.255 E28.62055
G1 X61.796 Y83.057 E28.63095
G1 X62.09 Y82.824 E28.64342
G0 F6000 X62.339 Y83.137
G1 F1200 X63.082 Y82.601 E28.6739
G1 X63.172 Y82.542 E28.67747
G1 X63.912 Y82.1 E28.70614
G1 X64.169 Y81.961 E28.71586
G1 X64.559 Y81.76 E28.73045
G1 X65.36 Y81.402 E28.75964
G1 X65.786 Y81.233 E28.77488
G1 X66.639 Y80.937 E28.80491
G1 X67.311 Y80.762 E28.82801
G1 X68.032 Y80.6 E28.85258
G1 X68.421 Y80.52 E28.86579
G1 X69.636 Y80.363 E28.90654
G1 X70.014 Y80.337 E28.91914
G1 X70.301 Y80.321 E28.9287
G1 X70.449 Y80.315 E28.93363
G1 X70.738 Y80.308 E28.94324
G1 X71.44 Y80.3 E28.96659
G1 X153.502 Y80.3 E31.69599
G1 X154.346 Y80.311 E31.72406
G1 X154.927 Y80.336 E31.7434
G1 X155.207 Y80.356 E31.75274
G1 X155.645 Y80.397 E31.76737
G1 X156.167 Y80.457 E31.78485
G1 X157.058 Y80.599 E31.81486
G1 X157.87 Y80.802 E31.84269
G1 X158.3 Y80.928 E31.8576
G1 X158.594 Y81.018 E31.86782
G1 X158.867 Y81.107 E31.87737
G1 X159.712 Y81.425 E31.9074
G1 X160.229 Y81.663 E31.92633
G1 X160.718 Y81.905 E31.94448
G1 X161.166 Y82.14 E31.96131
G1 X161.936 Y82.611 E31.99133
G1 X162.552 Y83.059 E32.01666
G1 X163.083 Y83.477 E32.03914
G1 X163.331 Y83.678 E32.04976
G1 X163.648 Y83.944 E32.06352
G1 X164.313 Y84.555 E32.09356
G1 X165.034 Y85.359 E32.12947
G1 X165.266 Y85.647 E32.14178
G1 X165.443 Y85.874 E32.15135
G1 X165.687 Y86.195 E32.16476
G1 X166.202 Y86.937 E32.1948
G1 X166.522 Y87.483 E32.21585
G1 X166.822 Y88.033 E32.23669
G1 X167.218 Y88.844 E32.26671
G1 X167.542 Y89.686 E32.29671
G1 X167.727 Y90.24 E32.31614
G1 X167.827 Y90.557 E32.32719
G1 X167.889 Y90.765 E32.33441
G1 X168.108 Y91.641 E32.36445
G1 X168.245 Y92.498 E32.39331
G1 X168.302 Y92.987 E32.40969
G1 X168.335 Y93.308 E32.42042
G1 X168.363 Y93.639 E32.43147
G1 X168.396 Y94.245 E32.45165
G1 X168.406 Y94.647 E32.46503
G1 X168.409 Y94.901 E32.47348
G1 X168.408 Y129.912 E33.63795
G1 X168.38 Y131.867 E33.70298
G1 X168.38 Y134.477 E33.78979
G1 X168.451 Y137.003 E33.87383
G1 X168.595 Y139.545 E33.95852
G1 X168.897 Y143.07 E34.07619
G1 X168.931 Y143.688 E34.09677
G1 X168.941 Y144.089 E34.11012
G1 X168.944 Y144.343 E34.11856
G1 X168.943 Y179.381 E35.28393
G1 X168.933 Y180.079 E35.30715
G1 X168.909 Y180.646 E35.32603
G1 X168.89 Y180.917 E35.33506
G1 X168.851 Y181.341 E35.34922
G1 X168.792 Y181.867 E35.36683
G1 X168.652 Y182.759 E35.39686
G1 X168.438 Y183.621 E35.4264
G1 X168.3 Y184.088 E35.4426
G1 X168.214 Y184.365 E35.45224
G1 X168.132 Y184.616 E35.46103
G1 X167.814 Y185.461 E35.49105
G1 X167.563 Y186.002 E35.51089
G1 X167.318 Y186.493 E35.52914
G1 X166.879 Y187.283 E35.5592
G1 X166.359 Y188.049 E35.58999
G1 X165.893 Y188.672 E35.61587
G1 X165.375 Y189.309 E35.64318
G1 X165.233 Y189.47 E35.65032
G1 X164.606 Y190.12 E35.68036
G1 X164.138 Y190.538 E35.70123
G1 X163.803 Y190.819 E35.71577
G1 X163.598 Y190.986 E35.72456
G1 X163.192 Y191.309 E35.74182
G1 X162.461 Y191.84 E35.77187
G1 X161.722 Y192.284 E35.80055
G1 X161.287 Y192.521 E35.81702
G1 X161.001 Y192.671 E35.82776
G1 X160.89 Y192.727 E35.8319
G1 X160.067 Y193.097 E35.86191
G1 X159.556 Y193.285 E35.88002
G1 X159.301 Y193.371 E35.88897
G1 X158.935 Y193.487 E35.90174
G1 X158.455 Y193.629 E35.91839
G1 X157.578 Y193.847 E35.94845
G1 X156.742 Y193.979 E35.9766
G1 X156.253 Y194.036 E35.99297
G1 X155.942 Y194.068 E36.00337
G1 X155.615 Y194.096 E36.01428
G1 X154.999 Y194.13 E36.0348
G1 X154.598 Y194.14 E36.04815
G1 X154.344 Y194.143 E36.05659
G1 X71.873 Y194.141 E38.79959
G1 X71.072 Y194.13 E38.82623
G1 X70.566 Y194.111 E38.84308
G1 X70.314 Y194.095 E38.85147
G1 X69.092 Y193.942 E38.89244
G1 X68.523 Y193.836 E38.91169
G1 X68.172 Y193.765 E38.9236
G1 X68.015 Y193.73 E38.92895
G1 X66.898 Y193.413 E38.96757
G1 X66.479 Y193.268 E38.98231
G1 X65.297 Y192.774 E39.02492
G1 X64.797 Y192.527 E39.04347
G1 X64.134 Y192.168 E39.06855
G1 X64.095 Y192.145 E39.07005
G1 X63.338 Y191.652 E39.1001
G1 X62.964 Y191.371 E39.11566
G1 X62.469 Y190.981 E39.13662
G1 X62.221 Y190.78 E39.14724
G1 X61.94 Y190.544 E39.15944
G1 X61.248 Y189.906 E39.19075
G1 X61.158 Y189.815 E39.195
G1 X60.586 Y189.186 E39.22328
G1 X60.448 Y189.021 E39.23043
G1 X60.147 Y188.643 E39.24651
G1 X59.826 Y188.22 E39.26417
G1 X59.312 Y187.477 E39.29422
G1 X58.994 Y186.933 E39.31517
G1 X58.732 Y186.452 E39.33339
G1 X58.546 Y186.095 E39.34678
